;FLAVOR:Marlin
;TIME:3508
;Filament used: 1.46311m
;Layer height: 0.12
;MINX:89
;MINY:89
;MINZ:0.12
;MAXX:131
;MAXY:131
;MAXZ:19.92
;Generated with Cura_SteamEngine 4.8.0
M140 S60
M105
M190 S60
M104 S200
M105
M109 S200
M82 ;absolute extrusion mode
; Ender 3 Custom Start G-code
G92 E0 ; Reset Extruder
G28 ; Home all axes
G1 Z2.0 F3000 ; Move Z Axis up little to prevent scratching of Heat Bed
G1 X0.1 Y20 Z0.3 F5000.0 ; Move to start position
G1 X0.1 Y200.0 Z0.3 F1500.0 E15 ; Draw the first line
G1 X0.4 Y200.0 Z0.3 F5000.0 ; Move to side a little
G1 X0.4 Y20 Z0.3 F1500.0 E30 ; Draw the second line
G92 E0 ; Reset Extruder
G1 Z2.0 F3000 ; Move Z Axis up little to prevent scratching of Heat Bed
G1 X5 Y20 Z0.3 F5000.0 ; Move over to prevent blob squish
G92 E0
G92 E0
G1 F1500 E-6.5
;LAYER_COUNT:166
;LAYER:0
M107
G0 F6000 X92.198 Y92.264 Z0.12
;TYPE:SKIRT
G1 F1500 E0
G1 F1200 X92.886 Y91.627 E0.01871
G1 X93.626 Y91.051 E0.03742
G1 X94.412 Y90.539 E0.05614
G1 X95.239 Y90.097 E0.07486
G1 X96.101 Y89.727 E0.09358
G1 X96.991 Y89.431 E0.11229
G1 X97.903 Y89.213 E0.13101
G1 X98.83 Y89.072 E0.14972
G1 X99.701 Y89.013 E0.16714
G1 X100.022 Y89.004 E0.17355
G1 X100.33 Y89 E0.1797
G1 X119.293 Y89 E0.55812
G1 X120.149 Y89.011 E0.57521
G1 X121.085 Y89.065 E0.59392
G1 X122.013 Y89.197 E0.61262
G1 X122.927 Y89.409 E0.63135
G1 X123.819 Y89.698 E0.65006
G1 X124.684 Y90.061 E0.66878
G1 X125.514 Y90.497 E0.68749
G1 X126.305 Y91.002 E0.70622
G1 X127.049 Y91.573 E0.72493
G1 X127.742 Y92.205 E0.74365
G1 X128.379 Y92.893 E0.76236
G1 X128.954 Y93.634 E0.78108
G1 X129.465 Y94.42 E0.79979
G1 X129.907 Y95.248 E0.81852
G1 X130.276 Y96.11 E0.83723
G1 X130.571 Y97 E0.85594
G1 X130.789 Y97.912 E0.87465
G1 X130.929 Y98.84 E0.89338
G1 X130.987 Y99.701 E0.9106
G1 X130.996 Y100.021 E0.91699
G1 X131 Y100.33 E0.92316
G1 X130.999 Y119.4 E1.30372
G1 X130.99 Y120.127 E1.31823
G1 X130.939 Y121.064 E1.33696
G1 X130.807 Y121.992 E1.35566
G1 X130.598 Y122.906 E1.37437
G1 X130.311 Y123.799 E1.39309
G1 X129.949 Y124.665 E1.41182
G1 X129.515 Y125.496 E1.43053
G1 X129.011 Y126.287 E1.44925
G1 X128.442 Y127.032 E1.46796
G1 X127.811 Y127.727 E1.48669
G1 X127.124 Y128.365 E1.5054
G1 X126.385 Y128.942 E1.52411
G1 X125.599 Y129.454 E1.54283
G1 X124.773 Y129.897 E1.56154
G1 X123.911 Y130.269 E1.58027
G1 X123.022 Y130.565 E1.59897
G1 X122.11 Y130.785 E1.61769
G1 X121.183 Y130.926 E1.6364
G1 X120.299 Y130.987 E1.65409
G1 X119.978 Y130.996 E1.66049
G1 X119.67 Y131 E1.66664
G1 X100.565 Y130.999 E2.0479
G1 X99.867 Y130.99 E2.06183
G1 X98.931 Y130.938 E2.08054
G1 X98.002 Y130.806 E2.09927
G1 X97.088 Y130.596 E2.11798
G1 X96.195 Y130.309 E2.1367
G1 X95.33 Y129.946 E2.15542
G1 X94.499 Y129.512 E2.17413
G1 X93.708 Y129.008 E2.19285
G1 X92.963 Y128.438 E2.21157
G1 X92.269 Y127.807 E2.23028
G1 X91.632 Y127.12 E2.24898
G1 X91.055 Y126.38 E2.26771
G1 X90.543 Y125.594 E2.28643
G1 X90.1 Y124.767 E2.30515
G1 X89.729 Y123.906 E2.32386
G1 X89.433 Y123.016 E2.34258
G1 X89.214 Y122.104 E2.36129
G1 X89.073 Y121.177 E2.38001
G1 X89.013 Y120.288 E2.39779
G1 X89.004 Y119.955 E2.40443
G1 X89 Y119.658 E2.41036
G1 X89.001 Y100.525 E2.79218
G1 X89.01 Y99.86 E2.80545
G1 X89.063 Y98.924 E2.82416
G1 X89.195 Y97.995 E2.84289
G1 X89.406 Y97.081 E2.86161
G1 X89.694 Y96.189 E2.88031
G1 X90.057 Y95.324 E2.89903
G1 X90.492 Y94.493 E2.91775
G1 X90.996 Y93.703 E2.93645
G1 X91.566 Y92.958 E2.95517
G1 X92.198 Y92.264 E2.9739
G0 F6000 X92.589 Y92.439
G1 F1200 X93.274 Y91.823 E2.99229
G1 X94.01 Y91.27 E3.01066
G1 X94.791 Y90.782 E3.02904
G1 X95.611 Y90.364 E3.0474
G1 X96.465 Y90.019 E3.06579
G1 X97.345 Y89.749 E3.08415
G1 X98.245 Y89.557 E3.10252
G1 X99.159 Y89.443 E3.1209
G1 X99.712 Y89.413 E3.13195
G1 X100.033 Y89.404 E3.13836
G1 X100.33 Y89.4 E3.14429
G1 X119.293 Y89.4 E3.52272
G1 X120.143 Y89.411 E3.53968
G1 X121.062 Y89.464 E3.55805
G1 X121.973 Y89.597 E3.57642
G1 X122.869 Y89.808 E3.59479
G1 X123.743 Y90.096 E3.61316
G1 X124.59 Y90.459 E3.63155
G1 X125.401 Y90.894 E3.64991
G1 X126.171 Y91.398 E3.66828
G1 X126.895 Y91.967 E3.68665
G1 X127.567 Y92.597 E3.70504
G1 X128.182 Y93.282 E3.72341
G1 X128.735 Y94.018 E3.74178
G1 X129.222 Y94.799 E3.76015
G1 X129.639 Y95.62 E3.77852
G1 X129.984 Y96.474 E3.7969
G1 X130.253 Y97.354 E3.81527
G1 X130.445 Y98.255 E3.83365
G1 X130.558 Y99.168 E3.85201
G1 X130.587 Y99.712 E3.86288
G1 X130.596 Y100.032 E3.86927
G1 X130.6 Y100.33 E3.87522
G1 X130.599 Y119.395 E4.25568
G1 X130.59 Y120.122 E4.27019
G1 X130.539 Y121.041 E4.28856
G1 X130.408 Y121.953 E4.30694
G1 X130.198 Y122.849 E4.32531
G1 X129.912 Y123.724 E4.34368
G1 X129.551 Y124.571 E4.36205
G1 X129.117 Y125.383 E4.38043
G1 X128.615 Y126.155 E4.3988
G1 X128.047 Y126.88 E4.41718
G1 X127.419 Y127.553 E4.43555
G1 X126.735 Y128.169 E4.45392
G1 X126 Y128.723 E4.47229
G1 X125.22 Y129.212 E4.49066
G1 X124.4 Y129.631 E4.50904
G1 X123.547 Y129.977 E4.52741
G1 X122.667 Y130.248 E4.54578
G1 X121.767 Y130.441 E4.56415
G1 X120.853 Y130.556 E4.58254
G1 X120.288 Y130.587 E4.59383
G1 X119.967 Y130.596 E4.60024
G1 X119.67 Y130.6 E4.60616
G1 X100.57 Y130.599 E4.98732
G1 X99.872 Y130.59 E5.00125
G1 X98.953 Y130.538 E5.01962
G1 X98.042 Y130.407 E5.03799
G1 X97.146 Y130.197 E5.05636
G1 X96.271 Y129.91 E5.07473
G1 X95.424 Y129.548 E5.09311
G1 X94.612 Y129.114 E5.11149
G1 X93.841 Y128.612 E5.12985
G1 X93.116 Y128.044 E5.14823
G1 X92.443 Y127.415 E5.16661
G1 X91.828 Y126.731 E5.18497
G1 X91.274 Y125.996 E5.20333
G1 X90.786 Y125.215 E5.22171
G1 X90.367 Y124.395 E5.24009
G1 X90.021 Y123.542 E5.25846
G1 X89.751 Y122.662 E5.27683
G1 X89.558 Y121.761 E5.29522
G1 X89.444 Y120.848 E5.31358
G1 X89.413 Y120.277 E5.32499
G1 X89.404 Y119.944 E5.33164
G1 X89.4 Y119.658 E5.33735
G1 X89.401 Y100.531 E5.71905
G1 X89.41 Y99.866 E5.73232
G1 X89.462 Y98.946 E5.75071
G1 X89.594 Y98.035 E5.76908
G1 X89.805 Y97.139 E5.78745
G1 X90.092 Y96.264 E5.80582
G1 X90.455 Y95.418 E5.82419
G1 X90.889 Y94.606 E5.84257
G1 X91.392 Y93.835 E5.86094
G1 X91.961 Y93.111 E5.87932
G1 X92.589 Y92.439 E5.89767
G0 F6000 X92.981 Y92.617
G1 F1200 X93.662 Y92.024 E5.91569
G1 X94.394 Y91.494 E5.93373
G1 X95.169 Y91.031 E5.95174
G1 X95.982 Y90.638 E5.96976
G1 X96.827 Y90.318 E5.98779
G1 X97.696 Y90.075 E6.0058
G1 X98.584 Y89.909 E6.02383
G1 X99.723 Y89.813 E6.04664
G1 X100.044 Y89.804 E6.05305
G1 X100.33 Y89.8 E6.05876
G1 X119.293 Y89.8 E6.43718
G1 X120.137 Y89.811 E6.45403
G1 X121.039 Y89.864 E6.47206
G1 X121.932 Y89.996 E6.49007
G1 X122.81 Y90.207 E6.50809
G1 X123.666 Y90.495 E6.52612
G1 X124.493 Y90.857 E6.54413
G1 X125.285 Y91.292 E6.56216
G1 X126.036 Y91.794 E6.58019
G1 X126.739 Y92.361 E6.59821
G1 X127.389 Y92.988 E6.61624
G1 X127.981 Y93.67 E6.63426
G1 X128.511 Y94.401 E6.65228
G1 X128.973 Y95.177 E6.6703
G1 X129.366 Y95.99 E6.68832
G1 X129.684 Y96.835 E6.70634
G1 X129.927 Y97.705 E6.72437
G1 X130.092 Y98.593 E6.74239
G1 X130.187 Y99.723 E6.76502
G1 X130.196 Y100.043 E6.77141
G1 X130.2 Y100.33 E6.77714
G1 X130.199 Y119.39 E7.1575
G1 X130.19 Y120.117 E7.17201
G1 X130.139 Y121.019 E7.19004
G1 X130.008 Y121.913 E7.20807
G1 X129.799 Y122.791 E7.22608
G1 X129.513 Y123.648 E7.24411
G1 X129.152 Y124.476 E7.26213
G1 X128.72 Y125.268 E7.28014
G1 X128.219 Y126.02 E7.29817
G1 X127.653 Y126.724 E7.3162
G1 X127.028 Y127.375 E7.33421
G1 X126.347 Y127.969 E7.35224
G1 X125.616 Y128.5 E7.37027
G1 X124.842 Y128.964 E7.38828
G1 X124.029 Y129.358 E7.40631
G1 X123.185 Y129.678 E7.42432
G1 X122.315 Y129.923 E7.44236
G1 X121.428 Y130.089 E7.46037
G1 X120.277 Y130.187 E7.48342
G1 X119.956 Y130.196 E7.48983
G1 X119.67 Y130.2 E7.49554
G1 X100.575 Y130.199 E7.8766
G1 X99.877 Y130.19 E7.89053
G1 X98.976 Y130.139 E7.90854
G1 X98.082 Y130.007 E7.92657
G1 X97.204 Y129.798 E7.94458
G1 X96.347 Y129.511 E7.96262
G1 X95.52 Y129.15 E7.98063
G1 X94.727 Y128.717 E7.99866
G1 X93.976 Y128.216 E8.01667
G1 X93.272 Y127.65 E8.0347
G1 X92.621 Y127.024 E8.05272
G1 X92.028 Y126.343 E8.07074
G1 X91.498 Y125.612 E8.08876
G1 X91.034 Y124.837 E8.10679
G1 X90.64 Y124.024 E8.12482
G1 X90.32 Y123.18 E8.14283
G1 X90.076 Y122.31 E8.16086
G1 X89.91 Y121.422 E8.17889
G1 X89.813 Y120.267 E8.20202
G1 X89.804 Y119.934 E8.20867
G1 X89.8 Y119.658 E8.21418
G1 X89.801 Y100.536 E8.59578
G1 X89.81 Y99.871 E8.60905
G1 X89.862 Y98.969 E8.62708
G1 X89.994 Y98.076 E8.64509
G1 X90.204 Y97.198 E8.66311
G1 X90.491 Y96.341 E8.68114
G1 X90.853 Y95.514 E8.69916
G1 X91.286 Y94.722 E8.71717
G1 X91.788 Y93.971 E8.7352
G1 X92.355 Y93.267 E8.75324
G1 X92.981 Y92.617 E8.77125
G1 F1500 E2.27125
;MESH:cube_hole.stl
G0 F6000 X106.202 Y107.909
G0 X104.576 Y107.018
G0 X104.583 Y110.488
G0 X104.808 Y111.624
G0 X105.301 Y112.741
G0 X105.959 Y113.642
G0 X106.794 Y114.395
G0 X107.334 Y114.71
G0 X109.867 Y115.999
;TYPE:WALL-INNER
G1 F1500 E8.77125
G1 F1200 X110.268 Y115.995 E8.77925
G1 X110.677 Y115.963 E8.78744
G1 X111.092 Y115.902 E8.79581
G1 X111.514 Y115.807 E8.80444
G1 X111.931 Y115.681 E8.81313
G1 X112.34 Y115.526 E8.82186
G1 X112.624 Y115.398 E8.82808
G1 X112.89 Y115.257 E8.83409
G1 X113.153 Y115.106 E8.84014
G1 X113.411 Y114.936 E8.8463
G1 X113.66 Y114.755 E8.85245
G1 X113.901 Y114.559 E8.85865
G1 X114.132 Y114.351 E8.86485
G1 X114.351 Y114.132 E8.87103
G1 X114.559 Y113.901 E8.87723
G1 X114.755 Y113.66 E8.88343
G1 X114.936 Y113.411 E8.88958
G1 X115.106 Y113.153 E8.89574
G1 X115.257 Y112.89 E8.90179
G1 X115.398 Y112.624 E8.9078
G1 X115.526 Y112.34 E8.91402
G1 X115.681 Y111.931 E8.92275
G1 X115.807 Y111.514 E8.93144
G1 X115.902 Y111.092 E8.94007
G1 X115.963 Y110.677 E8.94844
G1 X115.995 Y110.273 E8.95653
G1 X116 Y109.994 E8.9621
G1 X115.987 Y109.597 E8.97003
G1 X115.945 Y109.187 E8.97825
G1 X115.874 Y108.769 E8.98671
G1 X115.769 Y108.349 E8.99535
G1 X115.633 Y107.93 E9.00414
G1 X115.464 Y107.52 E9.01299
G1 X115.33 Y107.245 E9.0191
G1 X115.184 Y106.977 E9.02519
G1 X115.022 Y106.716 E9.03132
G1 X114.847 Y106.463 E9.03746
G1 X114.659 Y106.219 E9.0436
G1 X114.457 Y105.982 E9.04982
G1 X114.243 Y105.757 E9.05602
G1 X114.018 Y105.543 E9.06221
G1 X113.781 Y105.341 E9.06843
G1 X113.537 Y105.153 E9.07457
G1 X113.284 Y104.978 E9.08071
G1 X113.024 Y104.816 E9.08683
G1 X112.754 Y104.669 E9.09296
G1 X112.485 Y104.539 E9.09892
G1 X112.203 Y104.419 E9.10504
G1 X111.792 Y104.273 E9.11374
G1 X111.373 Y104.157 E9.12242
G1 X110.952 Y104.075 E9.13098
G1 X110.539 Y104.023 E9.13929
G1 X110.133 Y104.001 E9.1474
G1 X109.732 Y104.005 E9.1554
G1 X109.323 Y104.037 E9.16359
G1 X108.908 Y104.098 E9.17196
G1 X108.486 Y104.193 E9.18059
G1 X108.069 Y104.319 E9.18929
G1 X107.66 Y104.474 E9.19801
G1 X107.376 Y104.602 E9.20423
G1 X107.11 Y104.743 E9.21024
G1 X106.847 Y104.894 E9.21629
G1 X106.589 Y105.064 E9.22246
G1 X106.34 Y105.245 E9.2286
G1 X106.099 Y105.441 E9.2348
G1 X105.868 Y105.649 E9.241
G1 X105.649 Y105.868 E9.24718
G1 X105.441 Y106.099 E9.25339
G1 X105.245 Y106.34 E9.25958
G1 X105.064 Y106.589 E9.26573
G1 X104.894 Y106.847 E9.27189
G1 X104.743 Y107.11 E9.27795
G1 X104.602 Y107.376 E9.28395
G1 X104.474 Y107.66 E9.29017
G1 X104.319 Y108.069 E9.2989
G1 X104.193 Y108.486 E9.30759
G1 X104.098 Y108.908 E9.31622
G1 X104.037 Y109.323 E9.3246
G1 X104.005 Y109.732 E9.33278
G1 X104.001 Y110.133 E9.34078
G1 X104.023 Y110.539 E9.3489
G1 X104.075 Y110.952 E9.35721
G1 X104.157 Y111.373 E9.36577
G1 X104.273 Y111.792 E9.37444
G1 X104.419 Y112.203 E9.38315
G1 X104.539 Y112.485 E9.38926
G1 X104.669 Y112.754 E9.39522
G1 X104.816 Y113.024 E9.40136
G1 X104.978 Y113.284 E9.40747
G1 X105.153 Y113.537 E9.41361
G1 X105.341 Y113.781 E9.41976
G1 X105.543 Y114.018 E9.42597
G1 X105.757 Y114.243 E9.43217
G1 X105.982 Y114.457 E9.43837
G1 X106.219 Y114.659 E9.44458
G1 X106.463 Y114.847 E9.45073
G1 X106.716 Y115.022 E9.45687
G1 X106.976 Y115.184 E9.46298
G1 X107.246 Y115.331 E9.46911
G1 X107.515 Y115.461 E9.47508
G1 X107.797 Y115.581 E9.48119
G1 X108.208 Y115.727 E9.4899
G1 X108.627 Y115.843 E9.49857
G1 X109.048 Y115.925 E9.50713
G1 X109.461 Y115.977 E9.51544
G1 X109.867 Y115.999 E9.52355
G0 F6000 X109.876 Y115.599
G1 F1200 X110.25 Y115.595 E9.53102
G1 X110.632 Y115.565 E9.53866
G1 X111.019 Y115.508 E9.54647
G1 X111.412 Y115.42 E9.55451
G1 X111.802 Y115.302 E9.56264
G1 X112.187 Y115.156 E9.57086
G1 X112.448 Y115.038 E9.57657
G1 X112.697 Y114.907 E9.58219
G1 X112.943 Y114.765 E9.58785
G1 X113.183 Y114.607 E9.59359
G1 X113.416 Y114.438 E9.59933
G1 X113.641 Y114.255 E9.60512
G1 X113.856 Y114.061 E9.6109
G1 X114.061 Y113.856 E9.61669
G1 X114.255 Y113.641 E9.62246
G1 X114.438 Y113.416 E9.62825
G1 X114.607 Y113.183 E9.634
G1 X114.765 Y112.943 E9.63973
G1 X114.907 Y112.697 E9.6454
G1 X115.038 Y112.448 E9.65101
G1 X115.156 Y112.187 E9.65673
G1 X115.302 Y111.802 E9.66495
G1 X115.42 Y111.412 E9.67308
G1 X115.508 Y111.019 E9.68111
G1 X115.565 Y110.632 E9.68892
G1 X115.595 Y110.253 E9.69651
G1 X115.6 Y109.997 E9.70162
G1 X115.588 Y109.624 E9.70907
G1 X115.548 Y109.241 E9.71675
G1 X115.482 Y108.851 E9.72464
G1 X115.384 Y108.459 E9.73271
G1 X115.257 Y108.068 E9.74091
G1 X115.099 Y107.684 E9.7492
G1 X114.974 Y107.428 E9.75488
G1 X114.838 Y107.178 E9.76056
G1 X114.687 Y106.935 E9.76627
G1 X114.524 Y106.699 E9.772
G1 X114.348 Y106.471 E9.77774
G1 X114.16 Y106.25 E9.78353
G1 X113.96 Y106.04 E9.78932
G1 X113.75 Y105.84 E9.79511
G1 X113.529 Y105.652 E9.8009
G1 X113.301 Y105.476 E9.80665
G1 X113.065 Y105.313 E9.81237
G1 X112.822 Y105.162 E9.81808
G1 X112.571 Y105.025 E9.82379
G1 X112.319 Y104.903 E9.82937
G1 X112.058 Y104.792 E9.83503
G1 X111.672 Y104.655 E9.84321
G1 X111.281 Y104.547 E9.8513
G1 X110.889 Y104.47 E9.85927
G1 X110.503 Y104.422 E9.86704
G1 X110.124 Y104.401 E9.87461
G1 X109.75 Y104.405 E9.88208
G1 X109.368 Y104.435 E9.88972
G1 X108.981 Y104.492 E9.89753
G1 X108.588 Y104.58 E9.90557
G1 X108.198 Y104.698 E9.9137
G1 X107.813 Y104.844 E9.92191
G1 X107.552 Y104.962 E9.92763
G1 X107.303 Y105.093 E9.93324
G1 X107.057 Y105.235 E9.93891
G1 X106.817 Y105.393 E9.94465
G1 X106.584 Y105.562 E9.95039
G1 X106.359 Y105.745 E9.95618
G1 X106.144 Y105.939 E9.96196
G1 X105.939 Y106.144 E9.96774
G1 X105.745 Y106.359 E9.97352
G1 X105.562 Y106.584 E9.97931
G1 X105.393 Y106.817 E9.98505
G1 X105.235 Y107.057 E9.99079
G1 X105.093 Y107.303 E9.99646
G1 X104.962 Y107.552 E10.00207
G1 X104.844 Y107.813 E10.00779
G1 X104.698 Y108.198 E10.01601
G1 X104.58 Y108.588 E10.02414
G1 X104.492 Y108.981 E10.03217
G1 X104.435 Y109.368 E10.03998
G1 X104.405 Y109.75 E10.04763
G1 X104.401 Y110.124 E10.05509
G1 X104.422 Y110.503 E10.06267
G1 X104.47 Y110.889 E10.07043
G1 X104.547 Y111.281 E10.0784
G1 X104.655 Y111.672 E10.0865
G1 X104.792 Y112.058 E10.09467
G1 X104.903 Y112.319 E10.10033
G1 X105.025 Y112.571 E10.10592
G1 X105.162 Y112.822 E10.11162
G1 X105.313 Y113.065 E10.11733
G1 X105.476 Y113.301 E10.12306
G1 X105.652 Y113.529 E10.1288
G1 X105.84 Y113.75 E10.13459
G1 X106.04 Y113.96 E10.14038
G1 X106.25 Y114.16 E10.14617
G1 X106.471 Y114.348 E10.15196
G1 X106.699 Y114.524 E10.15771
G1 X106.935 Y114.687 E10.16343
G1 X107.178 Y114.838 E10.16914
G1 X107.429 Y114.975 E10.17485
G1 X107.681 Y115.097 E10.18043
G1 X107.942 Y115.208 E10.18609
G1 X108.328 Y115.345 E10.19427
G1 X108.719 Y115.453 E10.20236
G1 X109.111 Y115.53 E10.21033
G1 X109.497 Y115.578 E10.2181
G1 X109.876 Y115.599 E10.22567
G0 F6000 X109.885 Y115.199
;TYPE:WALL-OUTER
G1 F1200 X110.232 Y115.195 E10.2326
G1 X110.587 Y115.167 E10.2397
G1 X110.946 Y115.114 E10.24695
G1 X111.31 Y115.033 E10.25439
G1 X111.673 Y114.923 E10.26196
G1 X112.033 Y114.787 E10.26964
G1 X112.272 Y114.678 E10.27488
G1 X112.504 Y114.557 E10.2801
G1 X112.733 Y114.424 E10.28538
G1 X112.956 Y114.278 E10.2907
G1 X113.172 Y114.121 E10.29603
G1 X113.381 Y113.951 E10.30141
G1 X113.581 Y113.771 E10.30678
G1 X113.771 Y113.581 E10.31214
G1 X113.951 Y113.381 E10.31751
G1 X114.121 Y113.172 E10.32289
G1 X114.278 Y112.956 E10.32822
G1 X114.424 Y112.733 E10.33353
G1 X114.557 Y112.504 E10.33882
G1 X114.678 Y112.272 E10.34404
G1 X114.787 Y112.033 E10.34928
G1 X114.923 Y111.673 E10.35696
G1 X115.033 Y111.31 E10.36453
G1 X115.114 Y110.946 E10.37197
G1 X115.167 Y110.587 E10.37922
G1 X115.195 Y110.233 E10.3863
G1 X115.2 Y109.999 E10.39097
G1 X115.189 Y109.651 E10.39792
G1 X115.152 Y109.295 E10.40506
G1 X115.09 Y108.933 E10.41239
