;FLAVOR:Marlin
;TIME:2998
;Filament used: 1.4574m
;Layer height: 0.12
;MINX:89
;MINY:89
;MINZ:0.12
;MAXX:131
;MAXY:131
;MAXZ:19.92
;Generated with Cura_SteamEngine 4.8.0
M140 S60
M105
M190 S60
M104 S200
M105
M109 S200
M82 ;absolute extrusion mode
; Ender 3 Custom Start G-code
G92 E0 ; Reset Extruder
G28 ; Home all axes
G1 Z2.0 F3000 ; Move Z Axis up little to prevent scratching of Heat Bed
G1 X0.1 Y20 Z0.3 F5000.0 ; Move to start position
G1 X0.1 Y200.0 Z0.3 F1500.0 E15 ; Draw the first line
G1 X0.4 Y200.0 Z0.3 F5000.0 ; Move to side a little
G1 X0.4 Y20 Z0.3 F1500.0 E30 ; Draw the second line
G92 E0 ; Reset Extruder
G1 Z2.0 F3000 ; Move Z Axis up little to prevent scratching of Heat Bed
G1 X5 Y20 Z0.3 F5000.0 ; Move over to prevent blob squish
G92 E0
G92 E0
G1 F1500 E-6.5
;LAYER_COUNT:166
;LAYER:0
M107
G0 F6000 X92.198 Y92.264 Z0.12
;TYPE:SKIRT
G1 F1500 E0
G1 F1200 X92.886 Y91.627 E0.01871
G1 X93.626 Y91.051 E0.03742
G1 X94.412 Y90.539 E0.05614
G1 X95.239 Y90.097 E0.07486
G1 X96.101 Y89.727 E0.09358
G1 X96.991 Y89.431 E0.11229
G1 X97.903 Y89.213 E0.13101
G1 X98.83 Y89.072 E0.14972
G1 X99.701 Y89.013 E0.16714
G1 X100.022 Y89.004 E0.17355
G1 X100.33 Y89 E0.1797
G1 X119.293 Y89 E0.55812
G1 X120.149 Y89.011 E0.57521
G1 X121.085 Y89.065 E0.59392
G1 X122.013 Y89.197 E0.61262
G1 X122.927 Y89.409 E0.63135
G1 X123.819 Y89.698 E0.65006
G1 X124.684 Y90.061 E0.66878
G1 X125.514 Y90.497 E0.68749
G1 X126.305 Y91.002 E0.70622
G1 X127.049 Y91.573 E0.72493
G1 X127.742 Y92.205 E0.74365
G1 X128.379 Y92.893 E0.76236
G1 X128.954 Y93.634 E0.78108
G1 X129.465 Y94.42 E0.79979
G1 X129.907 Y95.248 E0.81852
G1 X130.276 Y96.11 E0.83723
G1 X130.571 Y97 E0.85594
G1 X130.789 Y97.912 E0.87465
G1 X130.929 Y98.84 E0.89338
G1 X130.987 Y99.701 E0.9106
G1 X130.996 Y100.021 E0.91699
G1 X131 Y100.33 E0.92316
G1 X130.999 Y119.4 E1.30372
G1 X130.99 Y120.127 E1.31823
G1 X130.939 Y121.064 E1.33696
G1 X130.807 Y121.992 E1.35566
G1 X130.598 Y122.906 E1.37437
G1 X130.311 Y123.799 E1.39309
G1 X129.949 Y124.665 E1.41182
G1 X129.515 Y125.496 E1.43053
G1 X129.011 Y126.287 E1.44925
G1 X128.442 Y127.032 E1.46796
G1 X127.811 Y127.727 E1.48669
G1 X127.124 Y128.365 E1.5054
G1 X126.385 Y128.942 E1.52411
G1 X125.599 Y129.454 E1.54283
G1 X124.773 Y129.897 E1.56154
G1 X123.911 Y130.269 E1.58027
G1 X123.022 Y130.565 E1.59897
G1 X122.11 Y130.785 E1.61769
G1 X121.183 Y130.926 E1.6364
G1 X120.299 Y130.987 E1.65409
G1 X119.978 Y130.996 E1.66049
G1 X119.67 Y131 E1.66664
G1 X100.565 Y130.999 E2.0479
G1 X99.867 Y130.99 E2.06183
G1 X98.931 Y130.938 E2.08054
G1 X98.002 Y130.806 E2.09927
G1 X97.088 Y130.596 E2.11798
G1 X96.195 Y130.309 E2.1367
G1 X95.33 Y129.946 E2.15542
G1 X94.499 Y129.512 E2.17413
G1 X93.708 Y129.008 E2.19285
G1 X92.963 Y128.438 E2.21157
G1 X92.269 Y127.807 E2.23028
G1 X91.632 Y127.12 E2.24898
G1 X91.055 Y126.38 E2.26771
G1 X90.543 Y125.594 E2.28643
G1 X90.1 Y124.767 E2.30515
G1 X89.729 Y123.906 E2.32386
G1 X89.433 Y123.016 E2.34258
G1 X89.214 Y122.104 E2.36129
G1 X89.073 Y121.177 E2.38001
G1 X89.013 Y120.288 E2.39779
G1 X89.004 Y119.955 E2.40443
G1 X89 Y119.658 E2.41036
G1 X89.001 Y100.525 E2.79218
G1 X89.01 Y99.86 E2.80545
G1 X89.063 Y98.924 E2.82416
G1 X89.195 Y97.995 E2.84289
G1 X89.406 Y97.081 E2.86161
G1 X89.694 Y96.189 E2.88031
G1 X90.057 Y95.324 E2.89903
G1 X90.492 Y94.493 E2.91775
G1 X90.996 Y93.703 E2.93645
G1 X91.566 Y92.958 E2.95517
G1 X92.198 Y92.264 E2.9739
G0 F6000 X92.589 Y92.439
G1 F1200 X93.274 Y91.823 E2.99229
G1 X94.01 Y91.27 E3.01066
G1 X94.791 Y90.782 E3.02904
G1 X95.611 Y90.364 E3.0474
G1 X96.465 Y90.019 E3.06579
G1 X97.345 Y89.749 E3.08415
G1 X98.245 Y89.557 E3.10252
G1 X99.159 Y89.443 E3.1209
G1 X99.712 Y89.413 E3.13195
G1 X100.033 Y89.404 E3.13836
G1 X100.33 Y89.4 E3.14429
G1 X119.293 Y89.4 E3.52272
G1 X120.143 Y89.411 E3.53968
G1 X121.062 Y89.464 E3.55805
G1 X121.973 Y89.597 E3.57642
G1 X122.869 Y89.808 E3.59479
G1 X123.743 Y90.096 E3.61316
G1 X124.59 Y90.459 E3.63155
G1 X125.401 Y90.894 E3.64991
G1 X126.171 Y91.398 E3.66828
G1 X126.895 Y91.967 E3.68665
G1 X127.567 Y92.597 E3.70504
G1 X128.182 Y93.282 E3.72341
G1 X128.735 Y94.018 E3.74178
G1 X129.222 Y94.799 E3.76015
G1 X129.639 Y95.62 E3.77852
G1 X129.984 Y96.474 E3.7969
G1 X130.253 Y97.354 E3.81527
G1 X130.445 Y98.255 E3.83365
G1 X130.558 Y99.168 E3.85201
G1 X130.587 Y99.712 E3.86288
G1 X130.596 Y100.032 E3.86927
G1 X130.6 Y100.33 E3.87522
G1 X130.599 Y119.395 E4.25568
G1 X130.59 Y120.122 E4.27019
G1 X130.539 Y121.041 E4.28856
G1 X130.408 Y121.953 E4.30694
G1 X130.198 Y122.849 E4.32531
G1 X129.912 Y123.724 E4.34368
G1 X129.551 Y124.571 E4.36205
G1 X129.117 Y125.383 E4.38043
G1 X128.615 Y126.155 E4.3988
G1 X128.047 Y126.88 E4.41718
G1 X127.419 Y127.553 E4.43555
G1 X126.735 Y128.169 E4.45392
G1 X126 Y128.723 E4.47229
G1 X125.22 Y129.212 E4.49066
G1 X124.4 Y129.631 E4.50904
G1 X123.547 Y129.977 E4.52741
G1 X122.667 Y130.248 E4.54578
G1 X121.767 Y130.441 E4.56415
G1 X120.853 Y130.556 E4.58254
G1 X120.288 Y130.587 E4.59383
G1 X119.967 Y130.596 E4.60024
G1 X119.67 Y130.6 E4.60616
G1 X100.57 Y130.599 E4.98732
G1 X99.872 Y130.59 E5.00125
G1 X98.953 Y130.538 E5.01962
G1 X98.042 Y130.407 E5.03799
G1 X97.146 Y130.197 E5.05636
G1 X96.271 Y129.91 E5.07473
G1 X95.424 Y129.548 E5.09311
G1 X94.612 Y129.114 E5.11149
G1 X93.841 Y128.612 E5.12985
G1 X93.116 Y128.044 E5.14823
G1 X92.443 Y127.415 E5.16661
G1 X91.828 Y126.731 E5.18497
G1 X91.274 Y125.996 E5.20333
G1 X90.786 Y125.215 E5.22171
G1 X90.367 Y124.395 E5.24009
G1 X90.021 Y123.542 E5.25846
G1 X89.751 Y122.662 E5.27683
G1 X89.558 Y121.761 E5.29522
G1 X89.444 Y120.848 E5.31358
G1 X89.413 Y120.277 E5.32499
G1 X89.404 Y119.944 E5.33164
G1 X89.4 Y119.658 E5.33735
G1 X89.401 Y100.531 E5.71905
G1 X89.41 Y99.866 E5.73232
G1 X89.462 Y98.946 E5.75071
G1 X89.594 Y98.035 E5.76908
G1 X89.805 Y97.139 E5.78745
G1 X90.092 Y96.264 E5.80582
G1 X90.455 Y95.418 E5.82419
G1 X90.889 Y94.606 E5.84257
G1 X91.392 Y93.835 E5.86094
G1 X91.961 Y93.111 E5.87932
G1 X92.589 Y92.439 E5.89767
G0 F6000 X92.981 Y92.617
G1 F1200 X93.662 Y92.024 E5.91569
G1 X94.394 Y91.494 E5.93373
G1 X95.169 Y91.031 E5.95174
G1 X95.982 Y90.638 E5.96976
G1 X96.827 Y90.318 E5.98779
G1 X97.696 Y90.075 E6.0058
G1 X98.584 Y89.909 E6.02383
G1 X99.723 Y89.813 E6.04664
G1 X100.044 Y89.804 E6.05305
G1 X100.33 Y89.8 E6.05876
G1 X119.293 Y89.8 E6.43718
G1 X120.137 Y89.811 E6.45403
G1 X121.039 Y89.864 E6.47206
G1 X121.932 Y89.996 E6.49007
G1 X122.81 Y90.207 E6.50809
G1 X123.666 Y90.495 E6.52612
G1 X124.493 Y90.857 E6.54413
G1 X125.285 Y91.292 E6.56216
G1 X126.036 Y91.794 E6.58019
G1 X126.739 Y92.361 E6.59821
G1 X127.389 Y92.988 E6.61624
G1 X127.981 Y93.67 E6.63426
G1 X128.511 Y94.401 E6.65228
G1 X128.973 Y95.177 E6.6703
G1 X129.366 Y95.99 E6.68832
G1 X129.684 Y96.835 E6.70634
G1 X129.927 Y97.705 E6.72437
G1 X130.092 Y98.593 E6.74239
G1 X130.187 Y99.723 E6.76502
G1 X130.196 Y100.043 E6.77141
G1 X130.2 Y100.33 E6.77714
G1 X130.199 Y119.39 E7.1575
G1 X130.19 Y120.117 E7.17201
G1 X130.139 Y121.019 E7.19004
G1 X130.008 Y121.913 E7.20807
G1 X129.799 Y122.791 E7.22608
G1 X129.513 Y123.648 E7.24411
G1 X129.152 Y124.476 E7.26213
G1 X128.72 Y125.268 E7.28014
G1 X128.219 Y126.02 E7.29817
G1 X127.653 Y126.724 E7.3162
G1 X127.028 Y127.375 E7.33421
G1 X126.347 Y127.969 E7.35224
G1 X125.616 Y128.5 E7.37027
G1 X124.842 Y128.964 E7.38828
G1 X124.029 Y129.358 E7.40631
G1 X123.185 Y129.678 E7.42432
G1 X122.315 Y129.923 E7.44236
G1 X121.428 Y130.089 E7.46037
G1 X120.277 Y130.187 E7.48342
G1 X119.956 Y130.196 E7.48983
G1 X119.67 Y130.2 E7.49554
G1 X100.575 Y130.199 E7.8766
G1 X99.877 Y130.19 E7.89053
G1 X98.976 Y130.139 E7.90854
G1 X98.082 Y130.007 E7.92657
G1 X97.204 Y129.798 E7.94458
G1 X96.347 Y129.511 E7.96262
G1 X95.52 Y129.15 E7.98063
G1 X94.727 Y128.717 E7.99866
G1 X93.976 Y128.216 E8.01667
G1 X93.272 Y127.65 E8.0347
G1 X92.621 Y127.024 E8.05272
G1 X92.028 Y126.343 E8.07074
G1 X91.498 Y125.612 E8.08876
G1 X91.034 Y124.837 E8.10679
G1 X90.64 Y124.024 E8.12482
G1 X90.32 Y123.18 E8.14283
G1 X90.076 Y122.31 E8.16086
G1 X89.91 Y121.422 E8.17889
G1 X89.813 Y120.267 E8.20202
G1 X89.804 Y119.934 E8.20867
G1 X89.8 Y119.658 E8.21418
G1 X89.801 Y100.536 E8.59578
G1 X89.81 Y99.871 E8.60905
G1 X89.862 Y98.969 E8.62708
G1 X89.994 Y98.076 E8.64509
G1 X90.204 Y97.198 E8.66311
G1 X90.491 Y96.341 E8.68114
G1 X90.853 Y95.514 E8.69916
G1 X91.286 Y94.722 E8.71717
G1 X91.788 Y93.971 E8.7352
G1 X92.355 Y93.267 E8.75324
G1 X92.981 Y92.617 E8.77125
G1 F1500 E2.27125
;MESH:cube.stl
G0 F6000 X100.414 Y99.335
G0 X100.414 Y100.414
G0 X118.818 Y101.182
G0 X119 Y119
;TYPE:WALL-INNER
G1 F1500 E8.77125
G1 F1200 X101 Y119 E9.13046
G1 X101 Y101 E9.48967
G1 X119 Y101 E9.84888
G1 X119 Y119 E10.20809
G0 F6000 X119.4 Y119.4
G1 F1200 X100.6 Y119.4 E10.58326
G1 X100.6 Y100.6 E10.95843
G1 X119.4 Y100.6 E11.33361
G1 X119.4 Y119.4 E11.70878
G0 F6000 X119.8 Y119.8
;TYPE:WALL-OUTER
G1 F1200 X100.2 Y119.8 E12.09992
G1 X100.2 Y100.2 E12.49106
G1 X119.8 Y100.2 E12.8822
G1 X119.8 Y119.8 E13.27334
G0 F6000 X119.53 Y119.53
G0 X118.89 Y118.61
G0 X118.61 Y118.61
;TYPE:SKIN
G1 F1200 X101.39 Y118.61 E13.61698
G1 X101.39 Y101.39 E13.96063
G1 X118.61 Y101.39 E14.30427
G1 X118.61 Y118.61 E14.64791
G0 F6000 X118.89 Y118.61
G0 X118.89 Y102.044
G0 X118.449 Y102.044
G1 F1200 X117.954 Y101.549 E14.66188
G0 F6000 X117.388 Y101.549
G1 F1200 X118.449 Y102.61 E14.69183
G0 F6000 X118.449 Y103.176
G1 F1200 X116.823 Y101.549 E14.73773
G0 F6000 X116.257 Y101.549
G1 F1200 X118.449 Y103.741 E14.79959
G0 F6000 X118.449 Y104.307
G1 F1200 X115.691 Y101.549 E14.87743
G0 F6000 X115.126 Y101.549
G1 F1200 X118.449 Y104.873 E14.97123
G0 F6000 X118.449 Y105.438
G1 F1200 X114.56 Y101.549 E15.08098
G0 F6000 X113.994 Y101.549
G1 F1200 X118.449 Y106.004 E15.20671
G0 F6000 X118.449 Y106.57
G1 F1200 X113.429 Y101.549 E15.3484
G0 F6000 X112.863 Y101.549
G1 F1200 X118.449 Y107.135 E15.50605
G0 F6000 X118.449 Y107.701
G1 F1200 X112.297 Y101.549 E15.67967
G0 F6000 X111.732 Y101.549
G1 F1200 X118.449 Y108.267 E15.86926
G0 F6000 X118.449 Y108.832
G1 F1200 X111.166 Y101.549 E16.0748
G0 F6000 X110.6 Y101.549
G1 F1200 X118.449 Y109.398 E16.29631
G0 F6000 X118.449 Y109.964
G1 F1200 X110.035 Y101.549 E16.53379
G0 F6000 X109.469 Y101.549
G1 F1200 X118.449 Y110.529 E16.78722
G0 F6000 X118.449 Y111.095
G1 F1200 X108.903 Y101.549 E17.05663
G0 F6000 X108.337 Y101.549
G1 F1200 X118.449 Y111.661 E17.34202
G0 F6000 X118.449 Y112.227
G1 F1200 X107.772 Y101.549 E17.64336
G0 F6000 X107.206 Y101.549
G1 F1200 X118.449 Y112.792 E17.96066
G0 F6000 X118.449 Y113.358
G1 F1200 X106.64 Y101.549 E18.29393
G0 F6000 X106.075 Y101.549
G1 F1200 X118.449 Y113.924 E18.64317
G0 F6000 X118.449 Y114.489
G1 F1200 X105.509 Y101.549 E19.00836
G0 F6000 X104.943 Y101.549
G1 F1200 X118.449 Y115.055 E19.38953
G0 F6000 X118.449 Y115.621
G1 F1200 X104.378 Y101.549 E19.78666
G0 F6000 X103.812 Y101.549
G1 F1200 X118.449 Y116.186 E20.19975
G0 F6000 X118.449 Y116.752
G1 F1200 X103.246 Y101.549 E20.62881
G0 F6000 X102.681 Y101.549
G1 F1200 X118.449 Y117.318 E21.07383
G0 F6000 X118.449 Y117.883
G1 F1200 X102.115 Y101.549 E21.53481
G0 F6000 X101.549 Y101.549
G1 F1200 X118.449 Y118.449 E22.01177
G0 F6000 X117.883 Y118.449
G1 F1200 X101.549 Y102.115 E22.47275
G0 F6000 X101.549 Y102.681
G1 F1200 X117.318 Y118.449 E22.91777
G0 F6000 X116.752 Y118.449
G1 F1200 X101.549 Y103.246 E23.34683
G0 F6000 X101.549 Y103.812
G1 F1200 X116.186 Y118.449 E23.75992
G0 F6000 X115.621 Y118.449
G1 F1200 X101.549 Y104.378 E24.15705
G0 F6000 X101.549 Y104.943
G1 F1200 X115.055 Y118.449 E24.53821
G0 F6000 X114.489 Y118.449
G1 F1200 X101.549 Y105.509 E24.90341
G0 F6000 X101.549 Y106.075
G1 F1200 X113.924 Y118.449 E25.25264
G0 F6000 X113.358 Y118.449
G1 F1200 X101.549 Y106.64 E25.58592
G0 F6000 X101.549 Y107.206
G1 F1200 X112.792 Y118.449 E25.90322
G0 F6000 X112.227 Y118.449
G1 F1200 X101.549 Y107.772 E26.20456
G0 F6000 X101.549 Y108.337
G1 F1200 X111.661 Y118.449 E26.48995
G0 F6000 X111.095 Y118.449
G1 F1200 X101.549 Y108.903 E26.75936
G0 F6000 X101.549 Y109.469
G1 F1200 X110.529 Y118.449 E27.01279
G0 F6000 X109.964 Y118.449
G1 F1200 X101.549 Y110.035 E27.25027
G0 F6000 X101.549 Y110.6
G1 F1200 X109.398 Y118.449 E27.47178
G0 F6000 X108.832 Y118.449
G1 F1200 X101.549 Y111.166 E27.67732
G0 F6000 X101.549 Y111.732
G1 F1200 X108.267 Y118.449 E27.86691
G0 F6000 X107.701 Y118.449
G1 F1200 X101.549 Y112.297 E28.04053
G0 F6000 X101.549 Y112.863
G1 F1200 X107.135 Y118.449 E28.19818
G0 F6000 X106.57 Y118.449
G1 F1200 X101.549 Y113.429 E28.33987
G0 F6000 X101.549 Y113.994
G1 F1200 X106.004 Y118.449 E28.4656
G0 F6000 X105.438 Y118.449
G1 F1200 X101.549 Y114.56 E28.57535
G0 F6000 X101.549 Y115.126
G1 F1200 X104.873 Y118.449 E28.66915
G0 F6000 X104.307 Y118.449
G1 F1200 X101.549 Y115.691 E28.74699
G0 F6000 X101.549 Y116.257
G1 F1200 X103.741 Y118.449 E28.80885
G0 F6000 X103.176 Y118.449
G1 F1200 X101.549 Y116.823 E28.85475
G0 F6000 X101.549 Y117.388
G1 F1200 X102.61 Y118.449 E28.8847
G0 F6000 X102.044 Y118.449
G1 F1200 X101.549 Y117.954 E28.89867
G0 F6000 X100.81 Y117.954
;MESH:NONMESH
G0 F300 X100.81 Y117.954 Z0.24
G0 F6000 X101.182 Y118.818
G0 X119 Y119
;TIME_ELAPSED:84.175334
;LAYER:1
M106 S85
;TYPE:WALL-INNER
;MESH:cube.stl
G1 F1350 X101 Y119 E29.25788
G1 X101 Y101 E29.61708
G1 X119 Y101 E29.97629
G1 X119 Y119 E30.3355
G0 F7500 X119.4 Y119.4
G1 F1350 X100.6 Y119.4 E30.71068
G1 X100.6 Y100.6 E31.08585
G1 X119.4 Y100.6 E31.46103
G1 X119.4 Y119.4 E31.8362
G0 F7500 X119.8 Y119.8
;TYPE:WALL-OUTER
G1 F1350 X100.2 Y119.8 E32.22734
G1 X100.2 Y100.2 E32.61848
G1 X119.8 Y100.2 E33.00962
G1 X119.8 Y119.8 E33.40076
G0 F7500 X119.53 Y119.53
G0 X118.89 Y118.61
G0 X118.61 Y118.61
;TYPE:SKIN
G1 F1350 X101.39 Y118.61 E33.7444
G1 X101.39 Y101.39 E34.08805
G1 X118.61 Y101.39 E34.43169
G1 X118.61 Y118.61 E34.77533
G0 F7500 X118.006 Y118.449
G1 F1350 X118.449 Y118.006 E34.78783
G0 F7500 X118.449 Y117.441
G1 F1350 X117.441 Y118.449 E34.81628
G0 F7500 X116.875 Y118.449
G1 F1350 X118.449 Y116.875 E34.8607
G0 F7500 X118.449 Y116.309
G1 F1350 X116.309 Y118.449 E34.9211
G0 F7500 X115.744 Y118.449
G1 F1350 X118.449 Y115.744 E34.99744
G0 F7500 X118.449 Y115.178
G1 F1350 X115.178 Y118.449 E35.08976
G0 F7500 X114.612 Y118.449
G1 F1350 X118.449 Y114.612 E35.19804
G0 F7500 X118.449 Y114.047
G1 F1350 X114.047 Y118.449 E35.32228
G0 F7500 X113.481 Y118.449
G1 F1350 X118.449 Y113.481 E35.46249
G0 F7500 X118.449 Y112.915
G1 F1350 X112.915 Y118.449 E35.61867
G0 F7500 X112.35 Y118.449
G1 F1350 X118.449 Y112.35 E35.79079
G0 F7500 X118.449 Y111.784
G1 F1350 X111.784 Y118.449 E35.97889
G0 F7500 X111.218 Y118.449
G1 F1350 X118.449 Y111.218 E36.18297
G0 F7500 X118.449 Y110.653
G1 F1350 X110.653 Y118.449 E36.40299
G0 F7500 X110.087 Y118.449
G1 F1350 X118.449 Y110.087 E36.63898
G0 F7500 X118.449 Y109.521
G1 F1350 X109.521 Y118.449 E36.89095
G0 F7500 X108.955 Y118.449
G1 F1350 X118.449 Y108.955 E37.15889
G0 F7500 X118.449 Y108.39
G1 F1350 X108.39 Y118.449 E37.44278
G0 F7500 X107.824 Y118.449
G1 F1350 X118.449 Y107.824 E37.74264
G0 F7500 X118.449 Y107.258
G1 F1350 X107.258 Y118.449 E38.05847
G0 F7500 X106.693 Y118.449
G1 F1350 X118.449 Y106.693 E38.39025
G0 F7500 X118.449 Y106.127
G1 F1350 X106.127 Y118.449 E38.73801
G0 F7500 X105.561 Y118.449
G1 F1350 X118.449 Y105.561 E39.10173
G0 F7500 X118.449 Y104.996
G1 F1350 X104.996 Y118.449 E39.48141
G0 F7500 X104.43 Y118.449
G1 F1350 X118.449 Y104.43 E39.87705
G0 F7500 X118.449 Y103.864
G1 F1350 X103.864 Y118.449 E40.28867
G0 F7500 X103.299 Y118.449
G1 F1350 X118.449 Y103.299 E40.71624
G0 F7500 X118.449 Y102.733
G1 F1350 X102.733 Y118.449 E41.15978
G0 F7500 X102.167 Y118.449
G1 F1350 X118.449 Y102.167 E41.61929
G0 F7500 X118.449 Y101.602
G1 F1350 X101.602 Y118.449 E42.09475
G0 F7500 X101.549 Y117.936
G1 F1350 X117.936 Y101.549 E42.55723
G0 F7500 X117.37 Y101.549
G1 F1350 X101.549 Y117.37 E43.00373
G0 F7500 X101.549 Y116.804
G1 F1350 X116.804 Y101.549 E43.43426
G0 F7500 X116.239 Y101.549
G1 F1350 X101.549 Y116.239 E43.84884
G0 F7500 X101.549 Y115.673
G1 F1350 X115.673 Y101.549 E44.24745
G0 F7500 X115.107 Y101.549
G1 F1350 X101.549 Y115.107 E44.63009
G0 F7500 X101.549 Y114.542
