;FLAVOR:Marlin
;TIME:1687
;Filament used: 1.0168m
;Layer height: 0.2
;MINX:89
;MINY:89
;MINZ:0.2
;MAXX:131
;MAXY:131
;MAXZ:20
;Generated with Cura_SteamEngine 4.8.0
M140 S60
M105
M190 S60
M104 S200
M105
M109 S200
M82 ;absolute extrusion mode
; Ender 3 Custom Start G-code
G92 E0 ; Reset Extruder
G28 ; Home all axes
G1 Z2.0 F3000 ; Move Z Axis up little to prevent scratching of Heat Bed
G1 X0.1 Y20 Z0.3 F5000.0 ; Move to start position
G1 X0.1 Y200.0 Z0.3 F1500.0 E15 ; Draw the first line
G1 X0.4 Y200.0 Z0.3 F5000.0 ; Move to side a little
G1 X0.4 Y20 Z0.3 F1500.0 E30 ; Draw the second line
G92 E0 ; Reset Extruder
G1 Z2.0 F3000 ; Move Z Axis up little to prevent scratching of Heat Bed
G1 X5 Y20 Z0.3 F5000.0 ; Move over to prevent blob squish
G92 E0
G92 E0
G1 F1500 E-6.5
;LAYER_COUNT:100
;LAYER:0
M107
G0 F6000 X92.198 Y92.264 Z0.2
;TYPE:SKIRT
G1 F1500 E0
G1 F1200 X92.886 Y91.627 E0.03119
G1 X93.626 Y91.051 E0.06237
G1 X94.412 Y90.539 E0.09357
G1 X95.239 Y90.097 E0.12476
G1 X96.101 Y89.727 E0.15596
G1 X96.991 Y89.431 E0.18716
G1 X97.903 Y89.213 E0.21835
G1 X98.83 Y89.072 E0.24953
G1 X99.701 Y89.013 E0.27857
G1 X100.022 Y89.004 E0.28925
G1 X100.33 Y89 E0.29949
G1 X119.293 Y89 E0.93021
G1 X120.149 Y89.011 E0.95868
G1 X121.085 Y89.065 E0.98986
G1 X122.013 Y89.197 E1.02104
G1 X122.927 Y89.409 E1.05225
G1 X123.819 Y89.698 E1.08343
G1 X124.684 Y90.061 E1.11463
G1 X125.514 Y90.497 E1.14582
G1 X126.305 Y91.002 E1.17703
G1 X127.049 Y91.573 E1.20822
G1 X127.742 Y92.205 E1.23942
G1 X128.379 Y92.893 E1.2706
G1 X128.954 Y93.634 E1.3018
G1 X129.465 Y94.42 E1.33298
G1 X129.907 Y95.248 E1.3642
G1 X130.276 Y96.11 E1.39538
G1 X130.571 Y97 E1.42657
G1 X130.789 Y97.912 E1.45776
G1 X130.929 Y98.84 E1.48897
G1 X130.987 Y99.701 E1.51767
G1 X130.996 Y100.021 E1.52832
G1 X131 Y100.33 E1.5386
G1 X130.999 Y119.4 E2.17287
G1 X130.99 Y120.127 E2.19705
G1 X130.939 Y121.064 E2.22826
G1 X130.807 Y121.992 E2.25944
G1 X130.598 Y122.906 E2.29062
G1 X130.311 Y123.799 E2.32182
G1 X129.949 Y124.665 E2.35304
G1 X129.515 Y125.496 E2.38422
G1 X129.011 Y126.287 E2.41542
G1 X128.442 Y127.032 E2.4466
G1 X127.811 Y127.727 E2.47782
G1 X127.124 Y128.365 E2.509
G1 X126.385 Y128.942 E2.54018
G1 X125.599 Y129.454 E2.57138
G1 X124.773 Y129.897 E2.60256
G1 X123.911 Y130.269 E2.63378
G1 X123.022 Y130.565 E2.66495
G1 X122.11 Y130.785 E2.69615
G1 X121.183 Y130.926 E2.72734
G1 X120.299 Y130.987 E2.75681
G1 X119.978 Y130.996 E2.76749
G1 X119.67 Y131 E2.77774
G1 X100.565 Y130.999 E3.41317
G1 X99.867 Y130.99 E3.43639
G1 X98.931 Y130.938 E3.46757
G1 X98.002 Y130.806 E3.49878
G1 X97.088 Y130.596 E3.52997
G1 X96.195 Y130.309 E3.56117
G1 X95.33 Y129.946 E3.59237
G1 X94.499 Y129.512 E3.62355
G1 X93.708 Y129.008 E3.65474
G1 X92.963 Y128.438 E3.68594
G1 X92.269 Y127.807 E3.71714
G1 X91.632 Y127.12 E3.7483
G1 X91.055 Y126.38 E3.77951
G1 X90.543 Y125.594 E3.81071
G1 X90.1 Y124.767 E3.84192
G1 X89.729 Y123.906 E3.8731
G1 X89.433 Y123.016 E3.90429
G1 X89.214 Y122.104 E3.93549
G1 X89.073 Y121.177 E3.96668
G1 X89.013 Y120.288 E3.99631
G1 X89.004 Y119.955 E4.00739
G1 X89 Y119.658 E4.01727
G1 X89.001 Y100.525 E4.65364
G1 X89.01 Y99.86 E4.67576
G1 X89.063 Y98.924 E4.70694
G1 X89.195 Y97.995 E4.73815
G1 X89.406 Y97.081 E4.76935
G1 X89.694 Y96.189 E4.80052
G1 X90.057 Y95.324 E4.83172
G1 X90.492 Y94.493 E4.86292
G1 X90.996 Y93.703 E4.89409
G1 X91.566 Y92.958 E4.92529
G1 X92.198 Y92.264 E4.95651
G0 F6000 X92.589 Y92.439
G1 F1200 X93.274 Y91.823 E4.98715
G1 X94.01 Y91.27 E5.01777
G1 X94.791 Y90.782 E5.0484
G1 X95.611 Y90.364 E5.07901
G1 X96.465 Y90.019 E5.10964
G1 X97.345 Y89.749 E5.14026
G1 X98.245 Y89.557 E5.17087
G1 X99.159 Y89.443 E5.2015
G1 X99.712 Y89.413 E5.21992
G1 X100.033 Y89.404 E5.2306
G1 X100.33 Y89.4 E5.24048
G1 X119.293 Y89.4 E5.87119
G1 X120.143 Y89.411 E5.89947
G1 X121.062 Y89.464 E5.93008
G1 X121.973 Y89.597 E5.9607
G1 X122.869 Y89.808 E5.99132
G1 X123.743 Y90.096 E6.02193
G1 X124.59 Y90.459 E6.05258
G1 X125.401 Y90.894 E6.08319
G1 X126.171 Y91.398 E6.1138
G1 X126.895 Y91.967 E6.14442
G1 X127.567 Y92.597 E6.17506
G1 X128.182 Y93.282 E6.20568
G1 X128.735 Y94.018 E6.2363
G1 X129.222 Y94.799 E6.26691
G1 X129.639 Y95.62 E6.29754
G1 X129.984 Y96.474 E6.32817
G1 X130.253 Y97.354 E6.35878
G1 X130.445 Y98.255 E6.38942
G1 X130.558 Y99.168 E6.42001
G1 X130.587 Y99.712 E6.43813
G1 X130.596 Y100.032 E6.44878
G1 X130.6 Y100.33 E6.45869
G1 X130.599 Y119.395 E7.0928
G1 X130.59 Y120.122 E7.11698
G1 X130.539 Y121.041 E7.14759
G1 X130.408 Y121.953 E7.17824
G1 X130.198 Y122.849 E7.20885
G1 X129.912 Y123.724 E7.23946
G1 X129.551 Y124.571 E7.27009
G1 X129.117 Y125.383 E7.30071
G1 X128.615 Y126.155 E7.33134
G1 X128.047 Y126.88 E7.36197
G1 X127.419 Y127.553 E7.39259
G1 X126.735 Y128.169 E7.4232
G1 X126 Y128.723 E7.45382
G1 X125.22 Y129.212 E7.48444
G1 X124.4 Y129.631 E7.51506
G1 X123.547 Y129.977 E7.54568
G1 X122.667 Y130.248 E7.5763
G1 X121.767 Y130.441 E7.60692
G1 X120.853 Y130.556 E7.63756
G1 X120.288 Y130.587 E7.65638
G1 X119.967 Y130.596 E7.66706
G1 X119.67 Y130.6 E7.67694
G1 X100.57 Y130.599 E8.31221
G1 X99.872 Y130.59 E8.33542
G1 X98.953 Y130.538 E8.36604
G1 X98.042 Y130.407 E8.39665
G1 X97.146 Y130.197 E8.42726
G1 X96.271 Y129.91 E8.45789
G1 X95.424 Y129.548 E8.48852
G1 X94.612 Y129.114 E8.51915
G1 X93.841 Y128.612 E8.54975
G1 X93.116 Y128.044 E8.58038
G1 X92.443 Y127.415 E8.61102
G1 X91.828 Y126.731 E8.64161
G1 X91.274 Y125.996 E8.67222
G1 X90.786 Y125.215 E8.70285
G1 X90.367 Y124.395 E8.73348
G1 X90.021 Y123.542 E8.7641
G1 X89.751 Y122.662 E8.79471
G1 X89.558 Y121.761 E8.82536
G1 X89.444 Y120.848 E8.85596
G1 X89.413 Y120.277 E8.87498
G1 X89.404 Y119.944 E8.88606
G1 X89.4 Y119.658 E8.89558
G1 X89.401 Y100.531 E9.53174
G1 X89.41 Y99.866 E9.55386
G1 X89.462 Y98.946 E9.58451
G1 X89.594 Y98.035 E9.61513
G1 X89.805 Y97.139 E9.64574
G1 X90.092 Y96.264 E9.67637
G1 X90.455 Y95.418 E9.70699
G1 X90.889 Y94.606 E9.73761
G1 X91.392 Y93.835 E9.76823
G1 X91.961 Y93.111 E9.79886
G1 X92.589 Y92.439 E9.82945
G0 F6000 X92.981 Y92.617
G1 F1200 X93.662 Y92.024 E9.85948
G1 X94.394 Y91.494 E9.88954
G1 X95.169 Y91.031 E9.91957
G1 X95.982 Y90.638 E9.9496
G1 X96.827 Y90.318 E9.97966
G1 X97.696 Y90.075 E10.00967
G1 X98.584 Y89.909 E10.03971
G1 X99.723 Y89.813 E10.07773
G1 X100.044 Y89.804 E10.08841
G1 X100.33 Y89.8 E10.09793
G1 X119.293 Y89.8 E10.72864
G1 X120.137 Y89.811 E10.75671
G1 X121.039 Y89.864 E10.78676
G1 X121.932 Y89.996 E10.81679
G1 X122.81 Y90.207 E10.84682
G1 X123.666 Y90.495 E10.87686
G1 X124.493 Y90.857 E10.90689
G1 X125.285 Y91.292 E10.93694
G1 X126.036 Y91.794 E10.96698
G1 X126.739 Y92.361 E10.99702
G1 X127.389 Y92.988 E11.02706
G1 X127.981 Y93.67 E11.0571
G1 X128.511 Y94.401 E11.08713
G1 X128.973 Y95.177 E11.11717
G1 X129.366 Y95.99 E11.1472
G1 X129.684 Y96.835 E11.17723
G1 X129.927 Y97.705 E11.20728
G1 X130.092 Y98.593 E11.23732
G1 X130.187 Y99.723 E11.27503
G1 X130.196 Y100.043 E11.28568
G1 X130.2 Y100.33 E11.29523
G1 X130.199 Y119.39 E11.92916
G1 X130.19 Y120.117 E11.95335
G1 X130.139 Y121.019 E11.9834
G1 X130.008 Y121.913 E12.01345
G1 X129.799 Y122.791 E12.04347
G1 X129.513 Y123.648 E12.07351
G1 X129.152 Y124.476 E12.10356
G1 X128.72 Y125.268 E12.13356
G1 X128.219 Y126.02 E12.16362
G1 X127.653 Y126.724 E12.19366
G1 X127.028 Y127.375 E12.22368
G1 X126.347 Y127.969 E12.25373
G1 X125.616 Y128.5 E12.28378
G1 X124.842 Y128.964 E12.3138
G1 X124.029 Y129.358 E12.34385
G1 X123.185 Y129.678 E12.37387
G1 X122.315 Y129.923 E12.40393
G1 X121.428 Y130.089 E12.43394
G1 X120.277 Y130.187 E12.47237
G1 X119.956 Y130.196 E12.48305
G1 X119.67 Y130.2 E12.49256
G1 X100.575 Y130.199 E13.12766
G1 X99.877 Y130.19 E13.15088
G1 X98.976 Y130.139 E13.1809
G1 X98.082 Y130.007 E13.21095
G1 X97.204 Y129.798 E13.24097
G1 X96.347 Y129.511 E13.27103
G1 X95.52 Y129.15 E13.30104
G1 X94.727 Y128.717 E13.33109
G1 X93.976 Y128.216 E13.36112
G1 X93.272 Y127.65 E13.39116
G1 X92.621 Y127.024 E13.4212
G1 X92.028 Y126.343 E13.45124
G1 X91.498 Y125.612 E13.48127
G1 X91.034 Y124.837 E13.51131
G1 X90.64 Y124.024 E13.54136
G1 X90.32 Y123.18 E13.57138
G1 X90.076 Y122.31 E13.60143
G1 X89.91 Y121.422 E13.63148
G1 X89.813 Y120.267 E13.67003
G1 X89.804 Y119.934 E13.68111
G1 X89.8 Y119.658 E13.69029
G1 X89.801 Y100.536 E14.32629
G1 X89.81 Y99.871 E14.34841
G1 X89.862 Y98.969 E14.37846
G1 X89.994 Y98.076 E14.40849
G1 X90.204 Y97.198 E14.43851
G1 X90.491 Y96.341 E14.46857
G1 X90.853 Y95.514 E14.4986
G1 X91.286 Y94.722 E14.52862
G1 X91.788 Y93.971 E14.55867
G1 X92.355 Y93.267 E14.58873
G1 X92.981 Y92.617 E14.61875
G1 F1500 E8.11875
;MESH:cube_hole.stl
G0 F6000 X106.009 Y108.306
G0 X105.037 Y107.894
G0 X104.695 Y109.398
G0 X104.682 Y110.479
G0 X104.904 Y111.593
G0 X105.388 Y112.69
G0 X106.034 Y113.575
G0 X106.853 Y114.314
G0 X107.79 Y114.86
G0 X108.779 Y115.198
G0 X109.409 Y115.272
G0 X109.879 Y115.309
G0 X109.885 Y115.199
;TYPE:WALL-OUTER
G1 F1500 E14.61875
G1 F1200 X110.232 Y115.195 E14.63029
G1 X110.587 Y115.167 E14.64213
G1 X110.946 Y115.114 E14.6542
G1 X111.31 Y115.033 E14.6666
G1 X111.673 Y114.923 E14.67922
G1 X112.033 Y114.787 E14.69202
G1 X112.272 Y114.678 E14.70076
G1 X112.504 Y114.557 E14.70946
G1 X112.733 Y114.424 E14.71827
G1 X112.956 Y114.278 E14.72713
G1 X113.172 Y114.121 E14.73601
G1 X113.381 Y113.951 E14.74497
G1 X113.581 Y113.771 E14.75392
G1 X113.771 Y113.581 E14.76286
G1 X113.951 Y113.381 E14.77181
G1 X114.121 Y113.172 E14.78077
G1 X114.278 Y112.956 E14.78965
G1 X114.424 Y112.733 E14.79852
G1 X114.557 Y112.504 E14.80733
G1 X114.678 Y112.272 E14.81603
G1 X114.787 Y112.033 E14.82476
G1 X114.923 Y111.673 E14.83756
G1 X115.033 Y111.31 E14.85018
G1 X115.114 Y110.946 E14.86258
G1 X115.167 Y110.587 E14.87465
G1 X115.195 Y110.233 E14.88646
G1 X115.2 Y109.999 E14.89425
G1 X115.189 Y109.651 E14.90583
G1 X115.152 Y109.295 E14.91773
G1 X115.09 Y108.933 E14.92995
G1 X114.999 Y108.569 E14.94243
G1 X114.881 Y108.206 E14.95512
G1 X114.734 Y107.848 E14.96799
G1 X114.619 Y107.612 E14.97673
G1 X114.492 Y107.38 E14.98552
G1 X114.352 Y107.154 E14.99437
G1 X114.201 Y106.935 E15.00321
G1 X114.037 Y106.723 E15.01213
G1 X113.863 Y106.518 E15.02107
G1 X113.677 Y106.323 E15.03003
G1 X113.482 Y106.137 E15.039
G1 X113.277 Y105.963 E15.04794
G1 X113.065 Y105.799 E15.05686
G1 X112.846 Y105.648 E15.0657
G1 X112.62 Y105.508 E15.07454
G1 X112.388 Y105.381 E15.08334
G1 X112.153 Y105.267 E15.09203
G1 X111.913 Y105.165 E15.1007
G1 X111.552 Y105.037 E15.11344
G1 X111.189 Y104.937 E15.12597
G1 X110.826 Y104.865 E15.13827
G1 X110.467 Y104.821 E15.1503
G1 X110.115 Y104.801 E15.16203
G1 X109.768 Y104.805 E15.17357
G1 X109.413 Y104.833 E15.18542
G1 X109.054 Y104.886 E15.19749
G1 X108.69 Y104.967 E15.20989
G1 X108.327 Y105.077 E15.2225
G1 X107.967 Y105.213 E15.2353
G1 X107.728 Y105.322 E15.24404
G1 X107.496 Y105.443 E15.25274
G1 X107.267 Y105.576 E15.26155
G1 X107.044 Y105.722 E15.27042
G1 X106.828 Y105.879 E15.2793
G1 X106.619 Y106.049 E15.28826
G1 X106.419 Y106.229 E15.29721
G1 X106.229 Y106.419 E15.30615
G1 X106.049 Y106.619 E15.31509
G1 X105.879 Y106.828 E15.32405
G1 X105.722 Y107.044 E15.33294
G1 X105.576 Y107.267 E15.3418
G1 X105.443 Y107.496 E15.35061
G1 X105.322 Y107.728 E15.35931
G1 X105.213 Y107.967 E15.36805
G1 X105.077 Y108.327 E15.38085
G1 X104.967 Y108.69 E15.39346
G1 X104.886 Y109.054 E15.40587
G1 X104.833 Y109.413 E15.41794
G1 X104.805 Y109.768 E15.42978
G1 X104.801 Y110.115 E15.44132
G1 X104.821 Y110.467 E15.45305
G1 X104.865 Y110.826 E15.46508
G1 X104.937 Y111.189 E15.47739
G1 X105.037 Y111.552 E15.48991
G1 X105.165 Y111.913 E15.50265
G1 X105.267 Y112.153 E15.51132
G1 X105.381 Y112.388 E15.52001
G1 X105.508 Y112.62 E15.52881
G1 X105.648 Y112.846 E15.53765
G1 X105.799 Y113.065 E15.5465
G1 X105.963 Y113.277 E15.55541
G1 X106.137 Y113.482 E15.56436
G1 X106.323 Y113.677 E15.57332
G1 X106.518 Y113.863 E15.58228
G1 X106.723 Y114.037 E15.59123
G1 X106.935 Y114.201 E15.60014
G1 X107.154 Y114.352 E15.60899
G1 X107.38 Y114.492 E15.61783
G1 X107.612 Y114.619 E15.62663
G1 X107.847 Y114.733 E15.63531
G1 X108.087 Y114.835 E15.64399
G1 X108.448 Y114.963 E15.65673
G1 X108.811 Y115.063 E15.66925
G1 X109.174 Y115.135 E15.68156
G1 X109.533 Y115.179 E15.69359
G1 X109.885 Y115.199 E15.70531
G0 F6000 X109.876 Y115.638
G1 F1500 E9.20531
G0 F6000 X109.881 Y115.398
G0 X111.735 Y115.104
G0 X111.405 Y114.102
G0 X111.735 Y120.665
G0 X111.735 Y119.59
G0 X119.66 Y119.66
G0 X119.8 Y119.8
G1 F1500 E15.70531
G1 F1200 X100.2 Y119.8 E16.35721
G1 X100.2 Y100.2 E17.00911
G1 X119.8 Y100.2 E17.66101
G1 X119.8 Y119.8 E18.31291
G0 F6000 X119.41 Y119.41
;TYPE:SKIN
G1 F1200 X100.59 Y119.41 E18.93886
G1 X100.59 Y100.59 E19.56482
G1 X119.41 Y100.59 E20.19078
G1 X119.41 Y119.41 E20.81673
G1 F1500 E14.31673
G0 F6000 X119.6 Y119.41
G0 X113.718 Y119.59
G0 X113.718 Y120.665
G0 X112.648 Y113.433
G0 X113.505 Y114.096
G0 X113.718 Y113.916
G0 X113.85 Y114.054
G1 F1500 E20.81673
G1 F1200 X114.054 Y113.85 E20.82633
G1 X114.247 Y113.635 E20.83594
G1 X114.431 Y113.41 E20.8456
G1 X114.6 Y113.178 E20.85515
G1 X114.756 Y112.938 E20.86467
G1 X114.898 Y112.693 E20.87409
G1 X115.029 Y112.443 E20.88348
G1 X115.148 Y112.183 E20.89299
G1 X115.292 Y111.798 E20.90666
G1 X115.411 Y111.409 E20.92019
G1 X115.498 Y111.016 E20.93358
G1 X115.555 Y110.631 E20.94652
G1 X115.585 Y110.252 E20.95917
G1 X115.59 Y109.997 E20.96765
G1 X115.579 Y109.624 E20.98006
G1 X115.538 Y109.242 E20.99284
G1 X115.472 Y108.853 E21.00596
G1 X115.374 Y108.462 E21.01937
G1 X115.248 Y108.072 E21.033
G1 X115.09 Y107.688 E21.04681
G1 X114.966 Y107.433 E21.05624
G1 X114.829 Y107.183 E21.06572
G1 X114.678 Y106.941 E21.07521
G1 X114.517 Y106.705 E21.08471
G1 X114.34 Y106.477 E21.09431
G1 X114.153 Y106.257 E21.10392
G1 X113.952 Y106.048 E21.11356
G1 X113.743 Y105.847 E21.12321
G1 X113.523 Y105.66 E21.13281
G1 X113.295 Y105.483 E21.14241
G1 X113.059 Y105.322 E21.15191
G1 X112.817 Y105.171 E21.1614
G1 X112.567 Y105.034 E21.17088
G1 X112.314 Y104.912 E21.18022
G1 X112.055 Y104.802 E21.18958
G1 X111.669 Y104.665 E21.20321
G1 X111.279 Y104.557 E21.21666
G1 X110.888 Y104.479 E21.22993
G1 X110.502 Y104.433 E21.24285
G1 X110.124 Y104.411 E21.25545
G1 X109.75 Y104.415 E21.26789
G1 X109.37 Y104.445 E21.28057
G1 X108.984 Y104.502 E21.29354
G1 X108.591 Y104.589 E21.30693
G1 X108.202 Y104.708 E21.32046
G1 X107.817 Y104.852 E21.33413
G1 X107.557 Y104.971 E21.34364
G1 X107.307 Y105.102 E21.35303
G1 X107.062 Y105.244 E21.36245
G1 X106.822 Y105.4 E21.37197
G1 X106.59 Y105.569 E21.38152
G1 X106.365 Y105.753 E21.39118
G1 X106.15 Y105.946 E21.40079
G1 X105.946 Y106.15 E21.41039
G1 X105.753 Y106.365 E21.42
G1 X105.569 Y106.59 E21.42967
G1 X105.4 Y106.822 E21.43921
G1 X105.244 Y107.062 E21.44873
G1 X105.102 Y107.307 E21.45815
G1 X104.971 Y107.557 E21.46754
G1 X104.852 Y107.817 E21.47705
G1 X104.708 Y108.202 E21.49072
G1 X104.589 Y108.591 E21.50425
G1 X104.502 Y108.984 E21.51764
G1 X104.445 Y109.37 E21.53062
G1 X104.415 Y109.75 E21.54329
G1 X104.411 Y110.124 E21.55573
G1 X104.433 Y110.502 E21.56833
G1 X104.479 Y110.888 E21.58126
G1 X104.557 Y111.279 E21.59452
G1 X104.665 Y111.669 E21.60798
G1 X104.802 Y112.055 E21.6216
G1 X104.912 Y112.314 E21.63096
G1 X105.034 Y112.567 E21.6403
G1 X105.171 Y112.817 E21.64978
G1 X105.322 Y113.059 E21.65927
G1 X105.483 Y113.295 E21.66877
G1 X105.66 Y113.523 E21.67837
G1 X105.847 Y113.743 E21.68798
G1 X106.048 Y113.952 E21.69762
G1 X106.257 Y114.153 E21.70727
G1 X106.477 Y114.34 E21.71687
G1 X106.705 Y114.517 E21.72647
G1 X106.941 Y114.678 E21.73597
G1 X107.183 Y114.829 E21.74546
G1 X107.433 Y114.966 E21.75494
G1 X107.686 Y115.088 E21.76428
G1 X107.945 Y115.198 E21.77364
G1 X108.331 Y115.335 E21.78726
G1 X108.721 Y115.443 E21.80072
G1 X109.112 Y115.521 E21.81399
G1 X109.498 Y115.567 E21.82691
G1 X109.876 Y115.589 E21.83951
G1 X110.25 Y115.585 E21.85195
G1 X110.63 Y115.555 E21.86463
G1 X111.016 Y115.498 E21.8776
G1 X111.409 Y115.411 E21.89099
G1 X111.798 Y115.292 E21.90452
G1 X112.183 Y115.148 E21.91819
G1 X112.443 Y115.029 E21.9277
G1 X112.693 Y114.898 E21.93709
G1 X112.938 Y114.756 E21.94651
G1 X113.178 Y114.6 E21.95603
G1 X113.41 Y114.431 E21.96558
G1 X113.635 Y114.247 E21.97524
G1 X113.85 Y114.054 E21.98485
G1 F1500 E15.48485
