;FLAVOR:Marlin
;TIME:3984
;Filament used: 3.65806m
;Layer height: 0.2
;MINX:84
;MINY:84
;MINZ:0.2
;MAXX:136
;MAXY:136
;MAXZ:30
;Generated with Cura_SteamEngine 4.8.0
M140 S60
M105
M190 S60
M104 S200
M105
M109 S200
M82 ;absolute extrusion mode
; Ender 3 Custom Start G-code
G92 E0 ; Reset Extruder
G28 ; Home all axes
G1 Z2.0 F3000 ; Move Z Axis up little to prevent scratching of Heat Bed
G1 X0.1 Y20 Z0.3 F5000.0 ; Move to start position
G1 X0.1 Y200.0 Z0.3 F1500.0 E15 ; Draw the first line
G1 X0.4 Y200.0 Z0.3 F5000.0 ; Move to side a little
G1 X0.4 Y20 Z0.3 F1500.0 E30 ; Draw the second line
G92 E0 ; Reset Extruder
G1 Z2.0 F3000 ; Move Z Axis up little to prevent scratching of Heat Bed
G1 X5 Y20 Z0.3 F5000.0 ; Move over to prevent blob squish
G92 E0
G92 E0
G1 F1500 E-6.5
;LAYER_COUNT:150
;LAYER:0
M107
G0 F6000 X87.198 Y87.264 Z0.2
;TYPE:SKIRT
G1 F1500 E0
G1 F1200 X87.886 Y86.627 E0.03119
G1 X88.626 Y86.051 E0.06237
G1 X89.412 Y85.539 E0.09357
G1 X90.239 Y85.097 E0.12476
G1 X91.101 Y84.727 E0.15596
G1 X91.991 Y84.431 E0.18716
G1 X92.903 Y84.213 E0.21835
G1 X93.83 Y84.072 E0.24953
G1 X94.701 Y84.013 E0.27857
G1 X95.022 Y84.004 E0.28925
G1 X95.33 Y84 E0.29949
G1 X124.293 Y84 E1.26281
G1 X125.149 Y84.011 E1.29128
G1 X126.085 Y84.065 E1.32246
G1 X127.013 Y84.197 E1.35364
G1 X127.927 Y84.409 E1.38485
G1 X128.819 Y84.698 E1.41603
G1 X129.684 Y85.061 E1.44723
G1 X130.514 Y85.497 E1.47842
G1 X131.305 Y86.002 E1.50963
G1 X132.049 Y86.573 E1.54082
G1 X132.742 Y87.205 E1.57202
G1 X133.379 Y87.893 E1.6032
G1 X133.954 Y88.634 E1.6344
G1 X134.465 Y89.42 E1.66558
G1 X134.907 Y90.248 E1.6968
G1 X135.276 Y91.11 E1.72798
G1 X135.571 Y92 E1.75917
G1 X135.789 Y92.912 E1.79036
G1 X135.929 Y93.84 E1.82157
G1 X135.987 Y94.701 E1.85027
G1 X135.996 Y95.021 E1.86092
G1 X136 Y95.33 E1.8712
G1 X135.999 Y124.4 E2.83807
G1 X135.99 Y125.127 E2.86225
G1 X135.939 Y126.064 E2.89347
G1 X135.807 Y126.992 E2.92464
G1 X135.598 Y127.906 E2.95583
G1 X135.311 Y128.799 E2.98702
G1 X134.949 Y129.665 E3.01824
G1 X134.515 Y130.496 E3.04942
G1 X134.011 Y131.287 E3.08062
G1 X133.442 Y132.032 E3.1118
G1 X132.811 Y132.727 E3.14302
G1 X132.124 Y133.365 E3.1742
G1 X131.385 Y133.942 E3.20539
G1 X130.599 Y134.454 E3.23659
G1 X129.773 Y134.897 E3.26776
G1 X128.911 Y135.269 E3.29899
G1 X128.022 Y135.565 E3.33015
G1 X127.11 Y135.785 E3.36135
G1 X126.183 Y135.926 E3.39254
G1 X125.299 Y135.987 E3.42201
G1 X124.978 Y135.996 E3.43269
G1 X124.67 Y136 E3.44294
G1 X95.565 Y135.999 E4.41098
G1 X94.867 Y135.99 E4.43419
G1 X93.931 Y135.938 E4.46537
G1 X93.002 Y135.806 E4.49658
G1 X92.088 Y135.596 E4.52777
G1 X91.195 Y135.309 E4.55897
G1 X90.33 Y134.946 E4.59017
G1 X89.499 Y134.512 E4.62135
G1 X88.708 Y134.008 E4.65255
G1 X87.963 Y133.438 E4.68375
G1 X87.269 Y132.807 E4.71494
G1 X86.632 Y132.12 E4.74611
G1 X86.055 Y131.38 E4.77732
G1 X85.543 Y130.594 E4.80852
G1 X85.1 Y129.767 E4.83972
G1 X84.729 Y128.906 E4.8709
G1 X84.433 Y128.016 E4.9021
G1 X84.214 Y127.104 E4.93329
G1 X84.073 Y126.177 E4.96448
G1 X84.013 Y125.288 E4.99412
G1 X84.004 Y124.955 E5.00519
G1 X84 Y124.658 E5.01507
G1 X84.001 Y95.525 E5.98404
G1 X84.01 Y94.86 E6.00616
G1 X84.063 Y93.924 E6.03734
G1 X84.195 Y92.995 E6.06855
G1 X84.406 Y92.081 E6.09975
G1 X84.694 Y91.189 E6.13093
G1 X85.057 Y90.324 E6.16213
G1 X85.492 Y89.493 E6.19333
G1 X85.996 Y88.703 E6.22449
G1 X86.566 Y87.958 E6.25569
G1 X87.198 Y87.264 E6.28691
G0 F6000 X87.589 Y87.439
G1 F1200 X88.274 Y86.823 E6.31755
G1 X89.01 Y86.27 E6.34817
G1 X89.791 Y85.782 E6.3788
G1 X90.611 Y85.364 E6.40941
G1 X91.465 Y85.019 E6.44005
G1 X92.345 Y84.749 E6.47066
G1 X93.245 Y84.557 E6.50127
G1 X94.159 Y84.443 E6.53191
G1 X94.712 Y84.413 E6.55033
G1 X95.033 Y84.404 E6.56101
G1 X95.33 Y84.4 E6.57089
G1 X124.293 Y84.4 E7.5342
G1 X125.143 Y84.411 E7.56247
G1 X126.062 Y84.464 E7.59309
G1 X126.973 Y84.597 E7.62371
G1 X127.869 Y84.808 E7.65433
G1 X128.743 Y85.096 E7.68493
G1 X129.59 Y85.459 E7.71558
G1 X130.401 Y85.894 E7.74619
G1 X131.171 Y86.398 E7.7768
G1 X131.895 Y86.967 E7.80743
G1 X132.567 Y87.597 E7.83807
G1 X133.182 Y88.282 E7.86868
G1 X133.735 Y89.018 E7.8993
G1 X134.222 Y89.799 E7.92992
G1 X134.639 Y90.62 E7.96054
G1 X134.984 Y91.474 E7.99118
G1 X135.253 Y92.354 E8.02178
G1 X135.445 Y93.255 E8.05242
G1 X135.558 Y94.168 E8.08302
G1 X135.587 Y94.712 E8.10114
G1 X135.596 Y95.032 E8.11179
G1 X135.6 Y95.33 E8.1217
G1 X135.599 Y124.395 E9.08841
G1 X135.59 Y125.122 E9.11259
G1 X135.539 Y126.041 E9.1432
G1 X135.408 Y126.953 E9.17385
G1 X135.198 Y127.849 E9.20445
G1 X134.912 Y128.724 E9.23507
G1 X134.551 Y129.571 E9.2657
G1 X134.117 Y130.383 E9.29632
G1 X133.615 Y131.155 E9.32695
G1 X133.047 Y131.88 E9.35758
G1 X132.419 Y132.553 E9.3882
G1 X131.735 Y133.169 E9.41881
G1 X131 Y133.723 E9.44942
G1 X130.22 Y134.212 E9.48004
G1 X129.4 Y134.631 E9.51067
G1 X128.547 Y134.977 E9.54129
G1 X127.667 Y135.248 E9.57191
G1 X126.767 Y135.441 E9.60253
G1 X125.853 Y135.556 E9.63317
G1 X125.288 Y135.587 E9.65199
G1 X124.967 Y135.596 E9.66267
G1 X124.67 Y135.6 E9.67255
G1 X95.57 Y135.599 E10.64042
G1 X94.872 Y135.59 E10.66363
G1 X93.953 Y135.538 E10.69425
G1 X93.042 Y135.407 E10.72486
G1 X92.146 Y135.197 E10.75547
G1 X91.271 Y134.91 E10.7861
G1 X90.424 Y134.548 E10.81673
G1 X89.612 Y134.114 E10.84736
G1 X88.841 Y133.612 E10.87796
G1 X88.116 Y133.044 E10.90859
G1 X87.443 Y132.415 E10.93923
G1 X86.828 Y131.731 E10.96982
G1 X86.274 Y130.996 E11.00043
G1 X85.786 Y130.215 E11.03106
G1 X85.367 Y129.395 E11.06169
G1 X85.021 Y128.542 E11.09231
G1 X84.751 Y127.662 E11.12292
G1 X84.558 Y126.761 E11.15357
G1 X84.444 Y125.848 E11.18417
G1 X84.413 Y125.277 E11.20319
G1 X84.404 Y124.944 E11.21427
G1 X84.4 Y124.658 E11.22379
G1 X84.401 Y95.531 E12.19255
G1 X84.41 Y94.866 E12.21467
G1 X84.462 Y93.946 E12.24532
G1 X84.594 Y93.035 E12.27594
G1 X84.805 Y92.139 E12.30655
G1 X85.092 Y91.264 E12.33718
G1 X85.455 Y90.418 E12.3678
G1 X85.889 Y89.606 E12.39842
G1 X86.392 Y88.835 E12.42904
G1 X86.961 Y88.111 E12.45967
G1 X87.589 Y87.439 E12.49026
G0 F6000 X87.981 Y87.617
G1 F1200 X88.662 Y87.024 E12.5203
G1 X89.394 Y86.494 E12.55035
G1 X90.169 Y86.031 E12.58038
G1 X90.982 Y85.638 E12.61041
G1 X91.827 Y85.318 E12.64047
G1 X92.696 Y85.075 E12.67048
G1 X93.584 Y84.909 E12.70052
G1 X94.723 Y84.813 E12.73854
G1 X95.044 Y84.804 E12.74922
G1 X95.33 Y84.8 E12.75874
G1 X124.293 Y84.8 E13.72205
G1 X125.137 Y84.811 E13.75012
G1 X126.039 Y84.864 E13.78018
G1 X126.932 Y84.996 E13.8102
G1 X127.81 Y85.207 E13.84023
G1 X128.666 Y85.495 E13.87027
G1 X129.493 Y85.857 E13.9003
G1 X130.285 Y86.292 E13.93035
G1 X131.036 Y86.794 E13.9604
G1 X131.739 Y87.361 E13.99044
G1 X132.389 Y87.988 E14.02047
G1 X132.981 Y88.67 E14.05051
G1 X133.511 Y89.401 E14.08054
G1 X133.973 Y90.177 E14.11058
G1 X134.366 Y90.99 E14.14061
G1 X134.684 Y91.835 E14.17064
G1 X134.927 Y92.705 E14.20069
G1 X135.092 Y93.593 E14.23073
G1 X135.187 Y94.723 E14.26844
G1 X135.196 Y95.043 E14.27909
G1 X135.2 Y95.33 E14.28864
G1 X135.199 Y124.39 E15.25518
G1 X135.19 Y125.117 E15.27936
G1 X135.139 Y126.019 E15.30941
G1 X135.008 Y126.913 E15.33946
G1 X134.799 Y127.791 E15.36948
G1 X134.513 Y128.648 E15.39953
G1 X134.152 Y129.476 E15.42957
G1 X133.72 Y130.268 E15.45958
G1 X133.219 Y131.02 E15.48963
G1 X132.653 Y131.724 E15.51968
G1 X132.028 Y132.375 E15.54969
G1 X131.347 Y132.969 E15.57975
G1 X130.616 Y133.5 E15.6098
G1 X129.842 Y133.964 E15.63981
G1 X129.029 Y134.358 E15.66986
G1 X128.185 Y134.678 E15.69988
G1 X127.315 Y134.923 E15.72994
G1 X126.428 Y135.089 E15.75996
G1 X125.277 Y135.187 E15.79838
G1 X124.956 Y135.196 E15.80906
G1 X124.67 Y135.2 E15.81857
G1 X95.575 Y135.199 E16.78628
G1 X94.877 Y135.19 E16.80949
G1 X93.976 Y135.139 E16.83951
G1 X93.082 Y135.007 E16.86957
G1 X92.204 Y134.798 E16.89959
G1 X91.347 Y134.511 E16.92965
G1 X90.52 Y134.15 E16.95966
G1 X89.727 Y133.717 E16.98971
G1 X88.976 Y133.216 E17.01973
G1 X88.272 Y132.65 E17.04978
G1 X87.621 Y132.024 E17.07982
G1 X87.028 Y131.343 E17.10985
G1 X86.498 Y130.612 E17.13988
G1 X86.034 Y129.837 E17.16993
G1 X85.64 Y129.024 E17.19998
G1 X85.32 Y128.18 E17.23
G1 X85.076 Y127.31 E17.26005
G1 X84.91 Y126.422 E17.2901
G1 X84.813 Y125.267 E17.32865
G1 X84.804 Y124.934 E17.33973
G1 X84.8 Y124.658 E17.34891
G1 X84.801 Y95.536 E18.31751
G1 X84.81 Y94.871 E18.33963
G1 X84.862 Y93.969 E18.36968
G1 X84.994 Y93.076 E18.3997
G1 X85.204 Y92.198 E18.42973
G1 X85.491 Y91.341 E18.45979
G1 X85.853 Y90.514 E18.48982
G1 X86.286 Y89.722 E18.51984
G1 X86.788 Y88.971 E18.54988
G1 X87.355 Y88.267 E18.57995
G1 X87.981 Y87.617 E18.60996
G1 F1500 E12.10996
;MESH:cube_3cm.stl
G0 F6000 X95.42 Y94.335
G0 X95.42 Y95.42
G0 X124.218 Y95.782
G0 X124.4 Y124.4
;TYPE:WALL-INNER
G1 F1500 E18.60996
G1 F1200 X95.6 Y124.4 E19.56785
G1 X95.6 Y95.6 E20.52575
G1 X124.4 Y95.6 E21.48364
G1 X124.4 Y124.4 E22.44153
G0 F6000 X124.8 Y124.8
;TYPE:WALL-OUTER
G1 F1200 X95.2 Y124.8 E23.42603
G1 X95.2 Y95.2 E24.41053
G1 X124.8 Y95.2 E25.39503
G1 X124.8 Y124.8 E26.37953
G1 F1500 E19.87953
G0 F6000 X124.5 Y124.53
G0 X110.4 Y124.19
G0 X110.4 Y110.4
;TYPE:SKIN
G1 F1500 E26.37953
G1 F1200 X109.6 Y110.4 E26.40614
G1 X109.6 Y109.6 E26.43275
G1 X110.4 Y109.6 E26.45935
G1 X110.4 Y110.4 E26.48596
G0 F6000 X110.8 Y110.8
G1 F1200 X109.2 Y110.8 E26.53918
G1 X109.2 Y109.2 E26.59239
G1 X110.8 Y109.2 E26.64561
G1 X110.8 Y110.8 E26.69883
G0 F6000 X111.2 Y111.2
G1 F1200 X108.8 Y111.2 E26.77865
G1 X108.8 Y108.8 E26.85848
G1 X111.2 Y108.8 E26.9383
G1 X111.2 Y111.2 E27.01812
G0 F6000 X111.6 Y111.6
G1 F1200 X108.4 Y111.6 E27.12456
G1 X108.4 Y108.4 E27.23099
G1 X111.6 Y108.4 E27.33742
G1 X111.6 Y111.6 E27.44385
G0 F6000 X112 Y112
G1 F1200 X108 Y112 E27.57689
G1 X108 Y108 E27.70993
G1 X112 Y108 E27.84298
G1 X112 Y112 E27.97602
G0 F6000 X112.4 Y112.4
G1 F1200 X107.6 Y112.4 E28.13566
G1 X107.6 Y107.6 E28.29531
G1 X112.4 Y107.6 E28.45496
G1 X112.4 Y112.4 E28.61461
G0 F6000 X112.8 Y112.8
G1 F1200 X107.2 Y112.8 E28.80087
G1 X107.2 Y107.2 E28.98712
G1 X112.8 Y107.2 E29.17338
G1 X112.8 Y112.8 E29.35964
G0 F6000 X113.2 Y113.2
G1 F1200 X106.8 Y113.2 E29.5725
G1 X106.8 Y106.8 E29.78537
G1 X113.2 Y106.8 E29.99823
G1 X113.2 Y113.2 E30.2111
G0 F6000 X113.6 Y113.6
G1 F1200 X106.4 Y113.6 E30.45057
G1 X106.4 Y106.4 E30.69004
G1 X113.6 Y106.4 E30.92952
G1 X113.6 Y113.6 E31.16899
G0 F6000 X114 Y114
G1 F1200 X106 Y114 E31.43507
G1 X106 Y106 E31.70115
G1 X114 Y106 E31.96723
G1 X114 Y114 E32.23331
G0 F6000 X114.4 Y114.4
G1 F1200 X105.6 Y114.4 E32.526
G1 X105.6 Y105.6 E32.81869
G1 X114.4 Y105.6 E33.11138
G1 X114.4 Y114.4 E33.40407
G0 F6000 X114.8 Y114.8
G1 F1200 X105.2 Y114.8 E33.72337
G1 X105.2 Y105.2 E34.04266
G1 X114.8 Y105.2 E34.36196
G1 X114.8 Y114.8 E34.68126
G0 F6000 X115.2 Y115.2
G1 F1200 X104.8 Y115.2 E35.02716
G1 X104.8 Y104.8 E35.37307
G1 X115.2 Y104.8 E35.71898
G1 X115.2 Y115.2 E36.06488
G0 F6000 X115.6 Y115.6
G1 F1200 X104.4 Y115.6 E36.43739
G1 X104.4 Y104.4 E36.80991
G1 X115.6 Y104.4 E37.18242
G1 X115.6 Y115.6 E37.55493
G0 F6000 X116 Y116
G1 F1200 X104 Y116 E37.95406
G1 X104 Y104 E38.35318
G1 X116 Y104 E38.7523
G1 X116 Y116 E39.15142
G0 F6000 X116.4 Y116.4
G1 F1200 X103.6 Y116.4 E39.57715
G1 X103.6 Y103.6 E40.00288
G1 X116.4 Y103.6 E40.42861
G1 X116.4 Y116.4 E40.85434
G0 F6000 X116.8 Y116.8
G1 F1200 X103.2 Y116.8 E41.30668
G1 X103.2 Y103.2 E41.75902
G1 X116.8 Y103.2 E42.21135
G1 X116.8 Y116.8 E42.66369
G0 F6000 X117.2 Y117.2
G1 F1200 X102.8 Y117.2 E43.14264
G1 X102.8 Y102.8 E43.62158
G1 X117.2 Y102.8 E44.10053
G1 X117.2 Y117.2 E44.57948
G0 F6000 X117.6 Y117.6
G1 F1200 X102.4 Y117.6 E45.08503
G1 X102.4 Y102.4 E45.59058
G1 X117.6 Y102.4 E46.09614
G1 X117.6 Y117.6 E46.60169
G0 F6000 X118 Y118
G1 F1200 X102 Y118 E47.13385
G1 X102 Y102 E47.66602
G1 X118 Y102 E48.19818
G1 X118 Y118 E48.73034
G0 F6000 X118.4 Y118.4
G1 F1200 X101.6 Y118.4 E49.28911
G1 X101.6 Y101.6 E49.84788
G1 X118.4 Y101.6 E50.40665
G1 X118.4 Y118.4 E50.96542
G0 F6000 X118.8 Y118.8
G1 F1200 X101.2 Y118.8 E51.5508
G1 X101.2 Y101.2 E52.13618
G1 X118.8 Y101.2 E52.72156
G1 X118.8 Y118.8 E53.30693
G0 F6000 X119.2 Y119.2
G1 F1200 X100.8 Y119.2 E53.91892
G1 X100.8 Y100.8 E54.53091
G1 X119.2 Y100.8 E55.14289
G1 X119.2 Y119.2 E55.75488
G0 F6000 X119.6 Y119.6
G1 F1200 X100.4 Y119.6 E56.39348
G1 X100.4 Y100.4 E57.03207
G1 X119.6 Y100.4 E57.67066
G1 X119.6 Y119.6 E58.30926
G0 F6000 X120 Y120
G1 F1200 X100 Y120 E58.97446
G1 X100 Y100 E59.63966
G1 X120 Y100 E60.30487
G1 X120 Y120 E60.97007
G0 F6000 X120.4 Y120.4
G1 F1200 X99.6 Y120.4 E61.66188
G1 X99.6 Y99.6 E62.35369
G1 X120.4 Y99.6 E63.0455
G1 X120.4 Y120.4 E63.73731
G0 F6000 X120.8 Y120.8
G1 F1200 X99.2 Y120.8 E64.45573
G1 X99.2 Y99.2 E65.17415
G1 X120.8 Y99.2 E65.89257
G1 X120.8 Y120.8 E66.61099
G0 F6000 X121.2 Y121.2
G1 F1200 X98.8 Y121.2 E67.35602
G1 X98.8 Y98.8 E68.10104
G1 X121.2 Y98.8 E68.84607
G1 X121.2 Y121.2 E69.5911
G0 F6000 X121.6 Y121.6
G1 F1200 X98.4 Y121.6 E70.36273
G1 X98.4 Y98.4 E71.13437
G1 X121.6 Y98.4 E71.906
G1 X121.6 Y121.6 E72.67764
G0 F6000 X122 Y122
G1 F1200 X98 Y122 E73.47588
G1 X98 Y98 E74.27412
G1 X122 Y98 E75.07237
G1 X122 Y122 E75.87061
G0 F6000 X122.4 Y122.4
G1 F1200 X97.6 Y122.4 E76.69546
G1 X97.6 Y97.6 E77.52031
G1 X122.4 Y97.6 E78.34516
G1 X122.4 Y122.4 E79.17002
G0 F6000 X122.8 Y122.8
G1 F1200 X97.2 Y122.8 E80.02148
G1 X97.2 Y97.2 E80.87293
G1 X122.8 Y97.2 E81.72439
G1 X122.8 Y122.8 E82.57585
G0 F6000 X123.2 Y123.2
G1 F1200 X96.8 Y123.2 E83.45392
G1 X96.8 Y96.8 E84.33199
G1 X123.2 Y96.8 E85.21006
G1 X123.2 Y123.2 E86.08812
G0 F6000 X123.6 Y123.6
G1 F1200 X96.4 Y123.6 E86.9928
G1 X96.4 Y96.4 E87.89748
G1 X123.6 Y96.4 E88.80215
G1 X123.6 Y123.6 E89.70683
G0 F6000 X124 Y124
G1 F1200 X96 Y124 E90.63811
G1 X96 Y96 E91.56939
G1 X124 Y96 E92.50068
G1 X124 Y124 E93.43196
G1 F1500 E86.93196
G0 F6000 X124.29 Y124
G0 X124.19 Y110.184
G0 X110.184 Y110.184
;TYPE:SKIN
G1 F1500 E93.43196
G1 F1200 X109.814 Y109.814 E93.44066
G0 F6000 X109.814 Y110.097
G1 F1200 X109.901 Y110.184 E93.44271
G0 F6000 X110.184 Y109.902
G1 F1200 X110.097 Y109.815 E93.44476
G1 F1500 E86.94476
;MESH:NONMESH
G0 F300 X110.097 Y109.815 Z0.4
G0 F6000 X124.19 Y109.815
G0 X124.4 Y124.4
;TIME_ELAPSED:154.821333
;LAYER:1
M106 S85
;TYPE:WALL-INNER
;MESH:cube_3cm.stl
G1 F1500 E93.44476
G1 F1350 X95.6 Y124.4 E94.40265
G1 X95.6 Y95.6 E95.36054
G1 X124.4 Y95.6 E96.31843
G1 X124.4 Y124.4 E97.27632
G0 F7500 X124.8 Y124.8
;TYPE:WALL-OUTER
G1 F1350 X95.2 Y124.8 E98.26082
G1 X95.2 Y95.2 E99.24532
G1 X124.8 Y95.2 E100.22982
G1 X124.8 Y124.8 E101.21432
G1 F1500 E94.71432
G0 F7500 X124.5 Y124.53
G0 X110.4 Y124.19
G0 X110.4 Y110.4
;TYPE:SKIN
G1 F1500 E101.21432
G1 F1350 X109.6 Y110.4 E101.24093
G1 X109.6 Y109.6 E101.26754
G1 X110.4 Y109.6 E101.29415
G1 X110.4 Y110.4 E101.32076
G0 F7500 X110.8 Y110.8
G1 F1350 X109.2 Y110.8 E101.37397
G1 X109.2 Y109.2 E101.42719
G1 X110.8 Y109.2 E101.4804
G1 X110.8 Y110.8 E101.53362
G0 F7500 X111.2 Y111.2
G1 F1350 X108.8 Y111.2 E101.61344
G1 X108.8 Y108.8 E101.69327
G1 X111.2 Y108.8 E101.77309
G1 X111.2 Y111.2 E101.85292
G0 F7500 X111.6 Y111.6
G1 F1350 X108.4 Y111.6 E101.95935
G1 X108.4 Y108.4 E102.06578
G1 X111.6 Y108.4 E102.17222
G1 X111.6 Y111.6 E102.27865
G0 F7500 X112 Y112
G1 F1350 X108 Y112 E102.41169
G1 X108 Y108 E102.54473
G1 X112 Y108 E102.67777
G1 X112 Y112 E102.81081
G0 F7500 X112.4 Y112.4
G1 F1350 X107.6 Y112.4 E102.97046
G1 X107.6 Y107.6 E103.13011
G1 X112.4 Y107.6 E103.28976
G1 X112.4 Y112.4 E103.4494
G0 F7500 X112.8 Y112.8
G1 F1350 X107.2 Y112.8 E103.63566
G1 X107.2 Y107.2 E103.82192
G1 X112.8 Y107.2 E104.00817
G1 X112.8 Y112.8 E104.19443
G0 F7500 X113.2 Y113.2
G1 F1350 X106.8 Y113.2 E104.4073
G1 X106.8 Y106.8 E104.62016
G1 X113.2 Y106.8 E104.83303
G1 X113.2 Y113.2 E105.04589
G0 F7500 X113.6 Y113.6
G1 F1350 X106.4 Y113.6 E105.28536
G1 X106.4 Y106.4 E105.52484
G1 X113.6 Y106.4 E105.76431
G1 X113.6 Y113.6 E106.00378
G0 F7500 X114 Y114
G1 F1350 X106 Y114 E106.26986
G1 X106 Y106 E106.53594
G1 X114 Y106 E106.80203
G1 X114 Y114 E107.06811
G0 F7500 X114.4 Y114.4
G1 F1350 X105.6 Y114.4 E107.3608
G1 X105.6 Y105.6 E107.65349
G1 X114.4 Y105.6 E107.94617
G1 X114.4 Y114.4 E108.23886
G0 F7500 X114.8 Y114.8
G1 F1350 X105.2 Y114.8 E108.55816
G1 X105.2 Y105.2 E108.87746
