;FLAVOR:Marlin
;TIME:1209
;Filament used: 1.35651m
;Layer height: 0.28
;MINX:89
;MINY:89
;MINZ:0.28
;MAXX:131
;MAXY:131
;MAXZ:19.88
;Generated with Cura_SteamEngine 4.8.0
M140 S60
M105
M190 S60
M104 S200
M105
M109 S200
M82 ;absolute extrusion mode
; Ender 3 Custom Start G-code
G92 E0 ; Reset Extruder
G28 ; Home all axes
G1 Z2.0 F3000 ; Move Z Axis up little to prevent scratching of Heat Bed
G1 X0.1 Y20 Z0.3 F5000.0 ; Move to start position
G1 X0.1 Y200.0 Z0.3 F1500.0 E15 ; Draw the first line
G1 X0.4 Y200.0 Z0.3 F5000.0 ; Move to side a little
G1 X0.4 Y20 Z0.3 F1500.0 E30 ; Draw the second line
G92 E0 ; Reset Extruder
G1 Z2.0 F3000 ; Move Z Axis up little to prevent scratching of Heat Bed
G1 X5 Y20 Z0.3 F5000.0 ; Move over to prevent blob squish
G92 E0
G92 E0
G1 F1500 E-6.5
;LAYER_COUNT:71
;LAYER:0
M107
G0 F6000 X92.198 Y92.264 Z0.28
;TYPE:SKIRT
G1 F1500 E0
G1 F1200 X92.886 Y91.627 E0.04366
G1 X93.626 Y91.051 E0.08732
G1 X94.412 Y90.539 E0.131
G1 X95.239 Y90.097 E0.17467
G1 X96.101 Y89.727 E0.21835
G1 X96.991 Y89.431 E0.26202
G1 X97.903 Y89.213 E0.30568
G1 X98.83 Y89.072 E0.34935
G1 X99.701 Y89.013 E0.39
G1 X100.022 Y89.004 E0.40495
G1 X100.33 Y89 E0.41929
G1 X119.293 Y89 E1.30229
G1 X120.149 Y89.011 E1.34215
G1 X121.085 Y89.065 E1.38581
G1 X122.013 Y89.197 E1.42945
G1 X122.927 Y89.409 E1.47314
G1 X123.819 Y89.698 E1.5168
G1 X124.684 Y90.061 E1.56049
G1 X125.514 Y90.497 E1.60414
G1 X126.305 Y91.002 E1.64784
G1 X127.049 Y91.573 E1.69151
G1 X127.742 Y92.205 E1.73518
G1 X128.379 Y92.893 E1.77884
G1 X128.954 Y93.634 E1.82252
G1 X129.465 Y94.42 E1.86617
G1 X129.907 Y95.248 E1.90988
G1 X130.276 Y96.11 E1.95354
G1 X130.571 Y97 E1.9972
G1 X130.789 Y97.912 E2.04086
G1 X130.929 Y98.84 E2.08456
G1 X130.987 Y99.701 E2.12474
G1 X130.996 Y100.021 E2.13965
G1 X131 Y100.33 E2.15404
G1 X130.999 Y119.4 E3.04202
G1 X130.99 Y120.127 E3.07587
G1 X130.939 Y121.064 E3.11957
G1 X130.807 Y121.992 E3.16321
G1 X130.598 Y122.906 E3.20687
G1 X130.311 Y123.799 E3.25055
G1 X129.949 Y124.665 E3.29425
G1 X129.515 Y125.496 E3.33791
G1 X129.011 Y126.287 E3.38158
G1 X128.442 Y127.032 E3.42523
G1 X127.811 Y127.727 E3.46894
G1 X127.124 Y128.365 E3.5126
G1 X126.385 Y128.942 E3.55626
G1 X125.599 Y129.454 E3.59994
G1 X124.773 Y129.897 E3.64358
G1 X123.911 Y130.269 E3.6873
G1 X123.022 Y130.565 E3.73093
G1 X122.11 Y130.785 E3.77461
G1 X121.183 Y130.926 E3.81827
G1 X120.299 Y130.987 E3.85953
G1 X119.978 Y130.996 E3.87449
G1 X119.67 Y131 E3.88883
G1 X100.565 Y130.999 E4.77844
G1 X99.867 Y130.99 E4.81094
G1 X98.931 Y130.938 E4.8546
G1 X98.002 Y130.806 E4.89829
G1 X97.088 Y130.596 E4.94196
G1 X96.195 Y130.309 E4.98563
G1 X95.33 Y129.946 E5.02931
G1 X94.499 Y129.512 E5.07297
G1 X93.708 Y129.008 E5.11664
G1 X92.963 Y128.438 E5.16032
G1 X92.269 Y127.807 E5.204
G1 X91.632 Y127.12 E5.24762
G1 X91.055 Y126.38 E5.29132
G1 X90.543 Y125.594 E5.335
G1 X90.1 Y124.767 E5.37868
G1 X89.729 Y123.906 E5.42234
G1 X89.433 Y123.016 E5.46601
G1 X89.214 Y122.104 E5.50968
G1 X89.073 Y121.177 E5.55335
G1 X89.013 Y120.288 E5.59484
G1 X89.004 Y119.955 E5.61035
G1 X89 Y119.658 E5.62418
G1 X89.001 Y100.525 E6.51509
G1 X89.01 Y99.86 E6.54606
G1 X89.063 Y98.924 E6.58971
G1 X89.195 Y97.995 E6.63341
G1 X89.406 Y97.081 E6.67708
G1 X89.694 Y96.189 E6.72073
G1 X90.057 Y95.324 E6.76441
G1 X90.492 Y94.493 E6.80809
G1 X90.996 Y93.703 E6.85172
G1 X91.566 Y92.958 E6.8954
G1 X92.198 Y92.264 E6.93911
G0 F6000 X92.589 Y92.439
G1 F1200 X93.274 Y91.823 E6.98201
G1 X94.01 Y91.27 E7.02487
G1 X94.791 Y90.782 E7.06775
G1 X95.611 Y90.364 E7.11061
G1 X96.465 Y90.019 E7.1535
G1 X97.345 Y89.749 E7.19636
G1 X98.245 Y89.557 E7.23921
G1 X99.159 Y89.443 E7.2821
G1 X99.712 Y89.413 E7.30789
G1 X100.033 Y89.404 E7.32284
G1 X100.33 Y89.4 E7.33667
G1 X119.293 Y89.4 E8.21967
G1 X120.143 Y89.411 E8.25925
G1 X121.062 Y89.464 E8.30212
G1 X121.973 Y89.597 E8.34499
G1 X122.869 Y89.808 E8.38785
G1 X123.743 Y90.096 E8.4307
G1 X124.59 Y90.459 E8.47361
G1 X125.401 Y90.894 E8.51646
G1 X126.171 Y91.398 E8.55931
G1 X126.895 Y91.967 E8.60219
G1 X127.567 Y92.597 E8.64508
G1 X128.182 Y93.282 E8.68795
G1 X128.735 Y94.018 E8.73082
G1 X129.222 Y94.799 E8.77367
G1 X129.639 Y95.62 E8.81655
G1 X129.984 Y96.474 E8.85944
G1 X130.253 Y97.354 E8.90229
G1 X130.445 Y98.255 E8.94518
G1 X130.558 Y99.168 E8.98802
G1 X130.587 Y99.712 E9.01339
G1 X130.596 Y100.032 E9.02829
G1 X130.6 Y100.33 E9.04217
G1 X130.599 Y119.395 E9.92992
G1 X130.59 Y120.122 E9.96377
G1 X130.539 Y121.041 E10.00663
G1 X130.408 Y121.953 E10.04953
G1 X130.198 Y122.849 E10.09239
G1 X129.912 Y123.724 E10.13525
G1 X129.551 Y124.571 E10.17812
G1 X129.117 Y125.383 E10.22099
G1 X128.615 Y126.155 E10.26387
G1 X128.047 Y126.88 E10.30676
G1 X127.419 Y127.553 E10.34962
G1 X126.735 Y128.169 E10.39248
G1 X126 Y128.723 E10.43534
G1 X125.22 Y129.212 E10.47821
G1 X124.4 Y129.631 E10.52109
G1 X123.547 Y129.977 E10.56395
G1 X122.667 Y130.248 E10.60683
G1 X121.767 Y130.441 E10.64969
G1 X120.853 Y130.556 E10.69258
G1 X120.288 Y130.587 E10.71893
G1 X119.967 Y130.596 E10.73388
G1 X119.67 Y130.6 E10.74771
G1 X100.57 Y130.599 E11.63709
G1 X99.872 Y130.59 E11.66959
G1 X98.953 Y130.538 E11.71246
G1 X98.042 Y130.407 E11.75531
G1 X97.146 Y130.197 E11.79816
G1 X96.271 Y129.91 E11.84104
G1 X95.424 Y129.548 E11.88393
G1 X94.612 Y129.114 E11.92681
G1 X93.841 Y128.612 E11.96965
G1 X93.116 Y128.044 E12.01253
G1 X92.443 Y127.415 E12.05543
G1 X91.828 Y126.731 E12.09826
G1 X91.274 Y125.996 E12.14111
G1 X90.786 Y125.215 E12.184
G1 X90.367 Y124.395 E12.22688
G1 X90.021 Y123.542 E12.26974
G1 X89.751 Y122.662 E12.3126
G1 X89.558 Y121.761 E12.35551
G1 X89.444 Y120.848 E12.39835
G1 X89.413 Y120.277 E12.42498
G1 X89.404 Y119.944 E12.44049
G1 X89.4 Y119.658 E12.45381
G1 X89.401 Y100.531 E13.34444
G1 X89.41 Y99.866 E13.37541
G1 X89.462 Y98.946 E13.41832
G1 X89.594 Y98.035 E13.46118
G1 X89.805 Y97.139 E13.50404
G1 X90.092 Y96.264 E13.54692
G1 X90.455 Y95.418 E13.58979
G1 X90.889 Y94.606 E13.63266
G1 X91.392 Y93.835 E13.67552
G1 X91.961 Y93.111 E13.7184
G1 X92.589 Y92.439 E13.76123
G0 F6000 X92.981 Y92.617
G1 F1200 X93.662 Y92.024 E13.80328
G1 X94.394 Y91.494 E13.84536
G1 X95.169 Y91.031 E13.8874
G1 X95.982 Y90.638 E13.92944
G1 X96.827 Y90.318 E13.97152
G1 X97.696 Y90.075 E14.01353
G1 X98.584 Y89.909 E14.0556
G1 X99.723 Y89.813 E14.10882
G1 X100.044 Y89.804 E14.12378
G1 X100.33 Y89.8 E14.1371
G1 X119.293 Y89.8 E15.02009
G1 X120.137 Y89.811 E15.0594
G1 X121.039 Y89.864 E15.10147
G1 X121.932 Y89.996 E15.1435
G1 X122.81 Y90.207 E15.18555
G1 X123.666 Y90.495 E15.2276
G1 X124.493 Y90.857 E15.26964
G1 X125.285 Y91.292 E15.31172
G1 X126.036 Y91.794 E15.35378
G1 X126.739 Y92.361 E15.39583
G1 X127.389 Y92.988 E15.43789
G1 X127.981 Y93.67 E15.47994
G1 X128.511 Y94.401 E15.52198
G1 X128.973 Y95.177 E15.56404
G1 X129.366 Y95.99 E15.60608
G1 X129.684 Y96.835 E15.64812
G1 X129.927 Y97.705 E15.69019
G1 X130.092 Y98.593 E15.73224
G1 X130.187 Y99.723 E15.78505
G1 X130.196 Y100.043 E15.79995
G1 X130.2 Y100.33 E15.81332
G1 X130.199 Y119.39 E16.70083
G1 X130.19 Y120.117 E16.73469
G1 X130.139 Y121.019 E16.77675
G1 X130.008 Y121.913 E16.81883
G1 X129.799 Y122.791 E16.86085
G1 X129.513 Y123.648 E16.90292
G1 X129.152 Y124.476 E16.94498
G1 X128.72 Y125.268 E16.98699
G1 X128.219 Y126.02 E17.02906
G1 X127.653 Y126.724 E17.07113
G1 X127.028 Y127.375 E17.11315
G1 X126.347 Y127.969 E17.15523
G1 X125.616 Y128.5 E17.1973
G1 X124.842 Y128.964 E17.23932
G1 X124.029 Y129.358 E17.28139
G1 X123.185 Y129.678 E17.32342
G1 X122.315 Y129.923 E17.3655
G1 X121.428 Y130.089 E17.40752
G1 X120.277 Y130.187 E17.46131
G1 X119.956 Y130.196 E17.47627
G1 X119.67 Y130.2 E17.48958
G1 X100.575 Y130.199 E18.37873
G1 X99.877 Y130.19 E18.41123
G1 X98.976 Y130.139 E18.45325
G1 X98.082 Y130.007 E18.49533
G1 X97.204 Y129.798 E18.53736
G1 X96.347 Y129.511 E18.57944
G1 X95.52 Y129.15 E18.62146
G1 X94.727 Y128.717 E18.66353
G1 X93.976 Y128.216 E18.70557
G1 X93.272 Y127.65 E18.74763
G1 X92.621 Y127.024 E18.78968
G1 X92.028 Y126.343 E18.83173
G1 X91.498 Y125.612 E18.87378
G1 X91.034 Y124.837 E18.91584
G1 X90.64 Y124.024 E18.9579
G1 X90.32 Y123.18 E18.99993
G1 X90.076 Y122.31 E19.04201
G1 X89.91 Y121.422 E19.08407
G1 X89.813 Y120.267 E19.13804
G1 X89.804 Y119.934 E19.15356
G1 X89.8 Y119.658 E19.16641
G1 X89.801 Y100.536 E20.05681
G1 X89.81 Y99.871 E20.08778
G1 X89.862 Y98.969 E20.12985
G1 X89.994 Y98.076 E20.17188
G1 X90.204 Y97.198 E20.21392
G1 X90.491 Y96.341 E20.256
G1 X90.853 Y95.514 E20.29804
G1 X91.286 Y94.722 E20.34007
G1 X91.788 Y93.971 E20.38213
G1 X92.355 Y93.267 E20.42422
G1 X92.981 Y92.617 E20.46624
G1 F1500 E13.96624
;MESH:cube.stl
G0 F6000 X100.414 Y99.335
G0 X100.414 Y100.414
G0 X119.218 Y100.782
G0 X119.4 Y119.4
;TYPE:WALL-INNER
G1 F1500 E20.46624
G1 F1200 X100.6 Y119.4 E21.34165
G1 X100.6 Y100.6 E22.21706
G1 X119.4 Y100.6 E23.09246
G1 X119.4 Y119.4 E23.96787
G0 F6000 X119.8 Y119.8
;TYPE:WALL-OUTER
G1 F1200 X100.2 Y119.8 E24.88053
G1 X100.2 Y100.2 E25.79319
G1 X119.8 Y100.2 E26.70585
G1 X119.8 Y119.8 E27.6185
G0 F6000 X119.53 Y119.53
G0 X119.29 Y119.01
G0 X119.01 Y119.01
;TYPE:SKIN
G1 F1200 X100.99 Y119.01 E28.45759
G1 X100.99 Y100.99 E29.29668
G1 X119.01 Y100.99 E30.13576
G1 X119.01 Y119.01 E30.97485
G0 F6000 X119.29 Y119.01
G0 X119.29 Y101.313
G0 X118.849 Y101.313
G1 F1200 X118.686 Y101.15 E30.98558
G0 F6000 X118.12 Y101.15
G1 F1200 X118.849 Y101.879 E31.03359
G0 F6000 X118.849 Y102.444
G1 F1200 X117.555 Y101.15 E31.1188
G0 F6000 X116.989 Y101.15
G1 F1200 X118.849 Y103.01 E31.24129
G0 F6000 X118.849 Y103.576
G1 F1200 X116.423 Y101.15 E31.40104
G0 F6000 X115.858 Y101.15
G1 F1200 X118.849 Y104.141 E31.598
G0 F6000 X118.849 Y104.707
G1 F1200 X115.292 Y101.15 E31.83224
G0 F6000 X114.726 Y101.15
G1 F1200 X118.849 Y105.273 E32.10375
G0 F6000 X118.849 Y105.839
G1 F1200 X114.16 Y101.15 E32.41252
G0 F6000 X113.595 Y101.15
G1 F1200 X118.849 Y106.404 E32.75851
G0 F6000 X118.849 Y106.97
G1 F1200 X113.029 Y101.15 E33.14177
G0 F6000 X112.463 Y101.15
G1 F1200 X118.849 Y107.536 E33.5623
G0 F6000 X118.849 Y108.101
G1 F1200 X111.898 Y101.15 E34.02003
G0 F6000 X111.332 Y101.15
G1 F1200 X118.849 Y108.667 E34.51504
G0 F6000 X118.849 Y109.233
G1 F1200 X110.766 Y101.15 E35.04732
G0 F6000 X110.201 Y101.15
G1 F1200 X118.849 Y109.798 E35.6168
G0 F6000 X118.849 Y110.364
G1 F1200 X109.635 Y101.15 E36.22356
G0 F6000 X109.069 Y101.15
G1 F1200 X118.849 Y110.93 E36.86759
G0 F6000 X118.849 Y111.495
G1 F1200 X108.504 Y101.15 E37.54883
G0 F6000 X107.938 Y101.15
G1 F1200 X118.849 Y112.061 E38.26733
G0 F6000 X118.849 Y112.627
G1 F1200 X107.372 Y101.15 E39.02311
G0 F6000 X106.807 Y101.15
G1 F1200 X118.849 Y113.192 E39.8161
G0 F6000 X118.849 Y113.758
G1 F1200 X106.241 Y101.15 E40.64636
G0 F6000 X105.675 Y101.15
G1 F1200 X118.849 Y114.324 E41.51389
G0 F6000 X118.849 Y114.89
G1 F1200 X105.11 Y101.15 E42.41866
G0 F6000 X104.544 Y101.15
G1 F1200 X118.849 Y115.455 E43.36067
G0 F6000 X118.849 Y116.021
G1 F1200 X103.978 Y101.15 E44.33995
G0 F6000 X103.412 Y101.15
G1 F1200 X118.849 Y116.587 E45.3565
G0 F6000 X118.849 Y117.152
G1 F1200 X102.847 Y101.15 E46.41026
G0 F6000 X102.281 Y101.15
G1 F1200 X118.849 Y117.718 E47.50129
G0 F6000 X118.849 Y118.284
G1 F1200 X101.715 Y101.15 E48.62959
G0 F6000 X101.149 Y101.149
G1 F1200 X118.849 Y118.849 E49.79517
G0 F6000 X118.283 Y118.849
G1 F1200 X101.149 Y101.715 E50.92347
G0 F6000 X101.149 Y102.28
G1 F1200 X117.717 Y118.849 E52.01454
G0 F6000 X117.152 Y118.849
G1 F1200 X101.149 Y102.846 E53.06836
G0 F6000 X101.149 Y103.412
G1 F1200 X116.586 Y118.849 E54.08491
G0 F6000 X116.02 Y118.849
G1 F1200 X101.149 Y103.977 E55.06423
G0 F6000 X101.149 Y104.543
G1 F1200 X115.454 Y118.849 E56.00627
G0 F6000 X114.889 Y118.849
G1 F1200 X101.149 Y105.109 E56.91107
G0 F6000 X101.149 Y105.674
G1 F1200 X114.323 Y118.849 E57.77864
G0 F6000 X113.757 Y118.849
G1 F1200 X101.149 Y106.24 E58.60893
G0 F6000 X101.149 Y106.806
G1 F1200 X113.192 Y118.849 E59.40198
G0 F6000 X112.626 Y118.849
G1 F1200 X101.149 Y107.372 E60.15776
G0 F6000 X101.149 Y107.937
G1 F1200 X112.06 Y118.849 E60.8763
G0 F6000 X111.495 Y118.849
G1 F1200 X101.149 Y108.503 E61.5576
G0 F6000 X101.149 Y109.069
G1 F1200 X110.929 Y118.849 E62.20163
G0 F6000 X110.363 Y118.849
G1 F1200 X101.149 Y109.634 E62.80842
G0 F6000 X101.149 Y110.2
G1 F1200 X109.798 Y118.849 E63.37797
G0 F6000 X109.232 Y118.849
G1 F1200 X101.149 Y110.766 E63.91025
G0 F6000 X101.149 Y111.331
G1 F1200 X108.666 Y118.849 E64.40529
G0 F6000 X108.101 Y118.849
G1 F1200 X101.149 Y111.897 E64.86309
G0 F6000 X101.149 Y112.463
G1 F1200 X107.535 Y118.849 E65.28362
G0 F6000 X106.969 Y118.849
G1 F1200 X101.149 Y113.028 E65.66691
G0 F6000 X101.149 Y113.594
G1 F1200 X106.404 Y118.849 E66.01296
G0 F6000 X105.838 Y118.849
G1 F1200 X101.149 Y114.16 E66.32174
G0 F6000 X101.149 Y114.725
G1 F1200 X105.272 Y118.849 E66.59328
G0 F6000 X104.706 Y118.849
G1 F1200 X101.149 Y115.291 E66.82755
G0 F6000 X101.149 Y115.857
G1 F1200 X104.141 Y118.849 E67.02458
G0 F6000 X103.575 Y118.849
G1 F1200 X101.149 Y116.423 E67.18433
G0 F6000 X101.149 Y116.988
G1 F1200 X103.009 Y118.849 E67.30685
G0 F6000 X102.444 Y118.849
G1 F1200 X101.149 Y117.554 E67.39213
G0 F6000 X101.149 Y118.12
G1 F1200 X101.878 Y118.849 E67.44013
G0 F6000 X101.312 Y118.849
G1 F1200 X101.149 Y118.685 E67.4509
G0 F6000 X100.8 Y118.685
;MESH:NONMESH
G0 F300 X100.8 Y118.685 Z0.56
G0 F6000 X100.71 Y118.685
G0 X100.782 Y119.218
G0 X119.4 Y119.4
;TIME_ELAPSED:84.357268
;LAYER:1
M106 S85
;TYPE:WALL-INNER
;MESH:cube.stl
G1 F1350 X100.6 Y119.4 E68.32631
G1 X100.6 Y100.6 E69.20171
G1 X119.4 Y100.6 E70.07712
G1 X119.4 Y119.4 E70.95253
G0 F7500 X119.8 Y119.8
;TYPE:WALL-OUTER
G1 F1350 X100.2 Y119.8 E71.86519
G1 X100.2 Y100.2 E72.77784
G1 X119.8 Y100.2 E73.6905
G1 X119.8 Y119.8 E74.60316
G0 F7500 X119.53 Y119.53
G0 X119.29 Y119.01
G0 X119.01 Y119.01
;TYPE:SKIN
G1 F1350 X100.99 Y119.01 E75.44225
G1 X100.99 Y100.99 E76.28133
G1 X119.01 Y100.99 E77.12042
G1 X119.01 Y119.01 E77.95951
G0 F7500 X118.738 Y118.849
G1 F1350 X118.849 Y118.738 E77.96682
G0 F7500 X118.849 Y118.173
G1 F1350 X118.172 Y118.849 E78.01137
G0 F7500 X117.606 Y118.849
G1 F1350 X118.849 Y117.607 E78.09319
G0 F7500 X118.849 Y117.041
G1 F1350 X117.041 Y118.849 E78.21225
G0 F7500 X116.475 Y118.849
G1 F1350 X118.849 Y116.476 E78.36855
G0 F7500 X118.849 Y115.91
G1 F1350 X115.909 Y118.849 E78.56212
G0 F7500 X115.343 Y118.849
G1 F1350 X118.849 Y115.344 E78.79296
G0 F7500 X118.849 Y114.778
G1 F1350 X114.778 Y118.849 E79.06104
G0 F7500 X114.212 Y118.849
G1 F1350 X118.849 Y114.213 E79.36636
G0 F7500 X118.849 Y113.647
G1 F1350 X113.646 Y118.849 E79.70896
G0 F7500 X113.081 Y118.849
G1 F1350 X118.849 Y113.081 E80.08879
G0 F7500 X118.849 Y112.516
G1 F1350 X112.515 Y118.849 E80.50586
G0 F7500 X111.949 Y118.849
G1 F1350 X118.849 Y111.95 E80.96021
G0 F7500 X118.849 Y111.384
G1 F1350 X111.384 Y118.849 E81.45179
G0 F7500 X110.818 Y118.849
G1 F1350 X118.849 Y110.819 E81.98061
G0 F7500 X118.849 Y110.253
G1 F1350 X110.252 Y118.849 E82.5467
G0 F7500 X109.687 Y118.849
G1 F1350 X118.849 Y109.687 E83.15004
G0 F7500 X118.849 Y109.122
G1 F1350 X109.121 Y118.849 E83.79061
G0 F7500 X108.555 Y118.849
G1 F1350 X118.849 Y108.556 E84.46845
G0 F7500 X118.849 Y107.99
G1 F1350 X107.99 Y118.849 E85.18354
G0 F7500 X107.424 Y118.849
G1 F1350 X118.849 Y107.425 E85.93586
G0 F7500 X118.849 Y106.859
G1 F1350 X106.858 Y118.849 E86.72546
G0 F7500 X106.292 Y118.849
G1 F1350 X118.849 Y106.293 E87.55232
G0 F7500 X118.849 Y105.728
G1 F1350 X105.727 Y118.849 E88.4164
G0 F7500 X105.161 Y118.849
G1 F1350 X118.849 Y105.162 E89.31774
G0 F7500 X118.849 Y104.596
G1 F1350 X104.595 Y118.849 E90.25636
G0 F7500 X104.03 Y118.849
G1 F1350 X118.849 Y104.03 E91.23222
G0 F7500 X118.849 Y103.465
G1 F1350 X103.464 Y118.849 E92.24531
G0 F7500 X102.898 Y118.849
G1 F1350 X118.849 Y102.899 E93.29568
G0 F7500 X118.849 Y102.333
G1 F1350 X102.333 Y118.849 E94.38329
G0 F7500 X101.767 Y118.849
G1 F1350 X118.849 Y101.768 E95.50813
G0 F7500 X118.849 Y101.202
G1 F1350 X101.201 Y118.849 E96.67025
G0 F7500 X101.15 Y118.335
G1 F1350 X118.336 Y101.149 E97.80198
G0 F7500 X117.77 Y101.149
G1 F1350 X101.15 Y117.77 E98.89647
G0 F7500 X101.15 Y117.204
