;FLAVOR:Marlin
;TIME:1571
;Filament used: 1.28463m
;Layer height: 0.2
;MINX:89
;MINY:89
;MINZ:0.2
;MAXX:131
;MAXY:131
;MAXZ:20
;Generated with Cura_SteamEngine 4.8.0
M140 S60
M105
M190 S60
M104 S200
M105
M109 S200
M82 ;absolute extrusion mode
; Ender 3 Custom Start G-code
G92 E0 ; Reset Extruder
G28 ; Home all axes
G1 Z2.0 F3000 ; Move Z Axis up little to prevent scratching of Heat Bed
G1 X0.1 Y20 Z0.3 F5000.0 ; Move to start position
G1 X0.1 Y200.0 Z0.3 F1500.0 E15 ; Draw the first line
G1 X0.4 Y200.0 Z0.3 F5000.0 ; Move to side a little
G1 X0.4 Y20 Z0.3 F1500.0 E30 ; Draw the second line
G92 E0 ; Reset Extruder
G1 Z2.0 F3000 ; Move Z Axis up little to prevent scratching of Heat Bed
G1 X5 Y20 Z0.3 F5000.0 ; Move over to prevent blob squish
G92 E0
G92 E0
G1 F1500 E-6.5
;LAYER_COUNT:100
;LAYER:0
M107
G0 F6000 X92.198 Y92.264 Z0.2
;TYPE:SKIRT
G1 F1500 E0
G1 F1200 X92.886 Y91.627 E0.03119
G1 X93.626 Y91.051 E0.06237
G1 X94.412 Y90.539 E0.09357
G1 X95.239 Y90.097 E0.12476
G1 X96.101 Y89.727 E0.15596
G1 X96.991 Y89.431 E0.18716
G1 X97.903 Y89.213 E0.21835
G1 X98.83 Y89.072 E0.24953
G1 X99.701 Y89.013 E0.27857
G1 X100.022 Y89.004 E0.28925
G1 X100.33 Y89 E0.29949
G1 X119.293 Y89 E0.93021
G1 X120.149 Y89.011 E0.95868
G1 X121.085 Y89.065 E0.98986
G1 X122.013 Y89.197 E1.02104
G1 X122.927 Y89.409 E1.05225
G1 X123.819 Y89.698 E1.08343
G1 X124.684 Y90.061 E1.11463
G1 X125.514 Y90.497 E1.14582
G1 X126.305 Y91.002 E1.17703
G1 X127.049 Y91.573 E1.20822
G1 X127.742 Y92.205 E1.23942
G1 X128.379 Y92.893 E1.2706
G1 X128.954 Y93.634 E1.3018
G1 X129.465 Y94.42 E1.33298
G1 X129.907 Y95.248 E1.3642
G1 X130.276 Y96.11 E1.39538
G1 X130.571 Y97 E1.42657
G1 X130.789 Y97.912 E1.45776
G1 X130.929 Y98.84 E1.48897
G1 X130.987 Y99.701 E1.51767
G1 X130.996 Y100.021 E1.52832
G1 X131 Y100.33 E1.5386
G1 X130.999 Y119.4 E2.17287
G1 X130.99 Y120.127 E2.19705
G1 X130.939 Y121.064 E2.22826
G1 X130.807 Y121.992 E2.25944
G1 X130.598 Y122.906 E2.29062
G1 X130.311 Y123.799 E2.32182
G1 X129.949 Y124.665 E2.35304
G1 X129.515 Y125.496 E2.38422
G1 X129.011 Y126.287 E2.41542
G1 X128.442 Y127.032 E2.4466
G1 X127.811 Y127.727 E2.47782
G1 X127.124 Y128.365 E2.509
G1 X126.385 Y128.942 E2.54018
G1 X125.599 Y129.454 E2.57138
G1 X124.773 Y129.897 E2.60256
G1 X123.911 Y130.269 E2.63378
G1 X123.022 Y130.565 E2.66495
G1 X122.11 Y130.785 E2.69615
G1 X121.183 Y130.926 E2.72734
G1 X120.299 Y130.987 E2.75681
G1 X119.978 Y130.996 E2.76749
G1 X119.67 Y131 E2.77774
G1 X100.565 Y130.999 E3.41317
G1 X99.867 Y130.99 E3.43639
G1 X98.931 Y130.938 E3.46757
G1 X98.002 Y130.806 E3.49878
G1 X97.088 Y130.596 E3.52997
G1 X96.195 Y130.309 E3.56117
G1 X95.33 Y129.946 E3.59237
G1 X94.499 Y129.512 E3.62355
G1 X93.708 Y129.008 E3.65474
G1 X92.963 Y128.438 E3.68594
G1 X92.269 Y127.807 E3.71714
G1 X91.632 Y127.12 E3.7483
G1 X91.055 Y126.38 E3.77951
G1 X90.543 Y125.594 E3.81071
G1 X90.1 Y124.767 E3.84192
G1 X89.729 Y123.906 E3.8731
G1 X89.433 Y123.016 E3.90429
G1 X89.214 Y122.104 E3.93549
G1 X89.073 Y121.177 E3.96668
G1 X89.013 Y120.288 E3.99631
G1 X89.004 Y119.955 E4.00739
G1 X89 Y119.658 E4.01727
G1 X89.001 Y100.525 E4.65364
G1 X89.01 Y99.86 E4.67576
G1 X89.063 Y98.924 E4.70694
G1 X89.195 Y97.995 E4.73815
G1 X89.406 Y97.081 E4.76935
G1 X89.694 Y96.189 E4.80052
G1 X90.057 Y95.324 E4.83172
G1 X90.492 Y94.493 E4.86292
G1 X90.996 Y93.703 E4.89409
G1 X91.566 Y92.958 E4.92529
G1 X92.198 Y92.264 E4.95651
G0 F6000 X92.589 Y92.439
G1 F1200 X93.274 Y91.823 E4.98715
G1 X94.01 Y91.27 E5.01777
G1 X94.791 Y90.782 E5.0484
G1 X95.611 Y90.364 E5.07901
G1 X96.465 Y90.019 E5.10964
G1 X97.345 Y89.749 E5.14026
G1 X98.245 Y89.557 E5.17087
G1 X99.159 Y89.443 E5.2015
G1 X99.712 Y89.413 E5.21992
G1 X100.033 Y89.404 E5.2306
G1 X100.33 Y89.4 E5.24048
G1 X119.293 Y89.4 E5.87119
G1 X120.143 Y89.411 E5.89947
G1 X121.062 Y89.464 E5.93008
G1 X121.973 Y89.597 E5.9607
G1 X122.869 Y89.808 E5.99132
G1 X123.743 Y90.096 E6.02193
G1 X124.59 Y90.459 E6.05258
G1 X125.401 Y90.894 E6.08319
G1 X126.171 Y91.398 E6.1138
G1 X126.895 Y91.967 E6.14442
G1 X127.567 Y92.597 E6.17506
G1 X128.182 Y93.282 E6.20568
G1 X128.735 Y94.018 E6.2363
G1 X129.222 Y94.799 E6.26691
G1 X129.639 Y95.62 E6.29754
G1 X129.984 Y96.474 E6.32817
G1 X130.253 Y97.354 E6.35878
G1 X130.445 Y98.255 E6.38942
G1 X130.558 Y99.168 E6.42001
G1 X130.587 Y99.712 E6.43813
G1 X130.596 Y100.032 E6.44878
G1 X130.6 Y100.33 E6.45869
G1 X130.599 Y119.395 E7.0928
G1 X130.59 Y120.122 E7.11698
G1 X130.539 Y121.041 E7.14759
G1 X130.408 Y121.953 E7.17824
G1 X130.198 Y122.849 E7.20885
G1 X129.912 Y123.724 E7.23946
G1 X129.551 Y124.571 E7.27009
G1 X129.117 Y125.383 E7.30071
G1 X128.615 Y126.155 E7.33134
G1 X128.047 Y126.88 E7.36197
G1 X127.419 Y127.553 E7.39259
G1 X126.735 Y128.169 E7.4232
G1 X126 Y128.723 E7.45382
G1 X125.22 Y129.212 E7.48444
G1 X124.4 Y129.631 E7.51506
G1 X123.547 Y129.977 E7.54568
G1 X122.667 Y130.248 E7.5763
G1 X121.767 Y130.441 E7.60692
G1 X120.853 Y130.556 E7.63756
G1 X120.288 Y130.587 E7.65638
G1 X119.967 Y130.596 E7.66706
G1 X119.67 Y130.6 E7.67694
G1 X100.57 Y130.599 E8.31221
G1 X99.872 Y130.59 E8.33542
G1 X98.953 Y130.538 E8.36604
G1 X98.042 Y130.407 E8.39665
G1 X97.146 Y130.197 E8.42726
G1 X96.271 Y129.91 E8.45789
G1 X95.424 Y129.548 E8.48852
G1 X94.612 Y129.114 E8.51915
G1 X93.841 Y128.612 E8.54975
G1 X93.116 Y128.044 E8.58038
G1 X92.443 Y127.415 E8.61102
G1 X91.828 Y126.731 E8.64161
G1 X91.274 Y125.996 E8.67222
G1 X90.786 Y125.215 E8.70285
G1 X90.367 Y124.395 E8.73348
G1 X90.021 Y123.542 E8.7641
G1 X89.751 Y122.662 E8.79471
G1 X89.558 Y121.761 E8.82536
G1 X89.444 Y120.848 E8.85596
G1 X89.413 Y120.277 E8.87498
G1 X89.404 Y119.944 E8.88606
G1 X89.4 Y119.658 E8.89558
G1 X89.401 Y100.531 E9.53174
G1 X89.41 Y99.866 E9.55386
G1 X89.462 Y98.946 E9.58451
G1 X89.594 Y98.035 E9.61513
G1 X89.805 Y97.139 E9.64574
G1 X90.092 Y96.264 E9.67637
G1 X90.455 Y95.418 E9.70699
G1 X90.889 Y94.606 E9.73761
G1 X91.392 Y93.835 E9.76823
G1 X91.961 Y93.111 E9.79886
G1 X92.589 Y92.439 E9.82945
G0 F6000 X92.981 Y92.617
G1 F1200 X93.662 Y92.024 E9.85948
G1 X94.394 Y91.494 E9.88954
G1 X95.169 Y91.031 E9.91957
G1 X95.982 Y90.638 E9.9496
G1 X96.827 Y90.318 E9.97966
G1 X97.696 Y90.075 E10.00967
G1 X98.584 Y89.909 E10.03971
G1 X99.723 Y89.813 E10.07773
G1 X100.044 Y89.804 E10.08841
G1 X100.33 Y89.8 E10.09793
G1 X119.293 Y89.8 E10.72864
G1 X120.137 Y89.811 E10.75671
G1 X121.039 Y89.864 E10.78676
G1 X121.932 Y89.996 E10.81679
G1 X122.81 Y90.207 E10.84682
G1 X123.666 Y90.495 E10.87686
G1 X124.493 Y90.857 E10.90689
G1 X125.285 Y91.292 E10.93694
G1 X126.036 Y91.794 E10.96698
G1 X126.739 Y92.361 E10.99702
G1 X127.389 Y92.988 E11.02706
G1 X127.981 Y93.67 E11.0571
G1 X128.511 Y94.401 E11.08713
G1 X128.973 Y95.177 E11.11717
G1 X129.366 Y95.99 E11.1472
G1 X129.684 Y96.835 E11.17723
G1 X129.927 Y97.705 E11.20728
G1 X130.092 Y98.593 E11.23732
G1 X130.187 Y99.723 E11.27503
G1 X130.196 Y100.043 E11.28568
G1 X130.2 Y100.33 E11.29523
G1 X130.199 Y119.39 E11.92916
G1 X130.19 Y120.117 E11.95335
G1 X130.139 Y121.019 E11.9834
G1 X130.008 Y121.913 E12.01345
G1 X129.799 Y122.791 E12.04347
G1 X129.513 Y123.648 E12.07351
G1 X129.152 Y124.476 E12.10356
G1 X128.72 Y125.268 E12.13356
G1 X128.219 Y126.02 E12.16362
G1 X127.653 Y126.724 E12.19366
G1 X127.028 Y127.375 E12.22368
G1 X126.347 Y127.969 E12.25373
G1 X125.616 Y128.5 E12.28378
G1 X124.842 Y128.964 E12.3138
G1 X124.029 Y129.358 E12.34385
G1 X123.185 Y129.678 E12.37387
G1 X122.315 Y129.923 E12.40393
G1 X121.428 Y130.089 E12.43394
G1 X120.277 Y130.187 E12.47237
G1 X119.956 Y130.196 E12.48305
G1 X119.67 Y130.2 E12.49256
G1 X100.575 Y130.199 E13.12766
G1 X99.877 Y130.19 E13.15088
G1 X98.976 Y130.139 E13.1809
G1 X98.082 Y130.007 E13.21095
G1 X97.204 Y129.798 E13.24097
G1 X96.347 Y129.511 E13.27103
G1 X95.52 Y129.15 E13.30104
G1 X94.727 Y128.717 E13.33109
G1 X93.976 Y128.216 E13.36112
G1 X93.272 Y127.65 E13.39116
G1 X92.621 Y127.024 E13.4212
G1 X92.028 Y126.343 E13.45124
G1 X91.498 Y125.612 E13.48127
G1 X91.034 Y124.837 E13.51131
G1 X90.64 Y124.024 E13.54136
G1 X90.32 Y123.18 E13.57138
G1 X90.076 Y122.31 E13.60143
G1 X89.91 Y121.422 E13.63148
G1 X89.813 Y120.267 E13.67003
G1 X89.804 Y119.934 E13.68111
G1 X89.8 Y119.658 E13.69029
G1 X89.801 Y100.536 E14.32629
G1 X89.81 Y99.871 E14.34841
G1 X89.862 Y98.969 E14.37846
G1 X89.994 Y98.076 E14.40849
G1 X90.204 Y97.198 E14.43851
G1 X90.491 Y96.341 E14.46857
G1 X90.853 Y95.514 E14.4986
G1 X91.286 Y94.722 E14.52862
G1 X91.788 Y93.971 E14.55867
G1 X92.355 Y93.267 E14.58873
G1 X92.981 Y92.617 E14.61875
G1 F1500 E8.11875
;MESH:cube.stl
G0 F6000 X100.414 Y99.335
G0 X100.414 Y100.414
G0 X119.218 Y100.782
G0 X119.4 Y119.4
;TYPE:WALL-INNER
G1 F1500 E14.61875
G1 F1200 X100.6 Y119.4 E15.24404
G1 X100.6 Y100.6 E15.86933
G1 X119.4 Y100.6 E16.49462
G1 X119.4 Y119.4 E17.11991
G0 F6000 X119.8 Y119.8
;TYPE:WALL-OUTER
G1 F1200 X100.2 Y119.8 E17.77181
G1 X100.2 Y100.2 E18.42371
G1 X119.8 Y100.2 E19.0756
G1 X119.8 Y119.8 E19.7275
G0 F6000 X119.53 Y119.53
G0 X119.29 Y119.01
G0 X119.01 Y119.01
;TYPE:SKIN
G1 F1200 X100.99 Y119.01 E20.32685
G1 X100.99 Y100.99 E20.9262
G1 X119.01 Y100.99 E21.52555
G1 X119.01 Y119.01 E22.12489
G0 F6000 X119.29 Y119.01
G0 X119.29 Y101.313
G0 X118.849 Y101.313
G1 F1200 X118.686 Y101.15 E22.13256
G0 F6000 X118.12 Y101.15
G1 F1200 X118.849 Y101.879 E22.16685
G0 F6000 X118.849 Y102.444
G1 F1200 X117.555 Y101.15 E22.22772
G0 F6000 X116.989 Y101.15
G1 F1200 X118.849 Y103.01 E22.3152
G0 F6000 X118.849 Y103.576
G1 F1200 X116.423 Y101.15 E22.42932
G0 F6000 X115.858 Y101.15
G1 F1200 X118.849 Y104.141 E22.57
G0 F6000 X118.849 Y104.707
G1 F1200 X115.292 Y101.15 E22.73731
G0 F6000 X114.726 Y101.15
G1 F1200 X118.849 Y105.273 E22.93125
G0 F6000 X118.849 Y105.839
G1 F1200 X114.16 Y101.15 E23.1518
G0 F6000 X113.595 Y101.15
G1 F1200 X118.849 Y106.404 E23.39894
G0 F6000 X118.849 Y106.97
G1 F1200 X113.029 Y101.15 E23.67269
G0 F6000 X112.463 Y101.15
G1 F1200 X118.849 Y107.536 E23.97307
G0 F6000 X118.849 Y108.101
G1 F1200 X111.898 Y101.15 E24.30002
G0 F6000 X111.332 Y101.15
G1 F1200 X118.849 Y108.667 E24.6536
G0 F6000 X118.849 Y109.233
G1 F1200 X110.766 Y101.15 E25.0338
G0 F6000 X110.201 Y101.15
G1 F1200 X118.849 Y109.798 E25.44057
G0 F6000 X118.849 Y110.364
G1 F1200 X109.635 Y101.15 E25.87397
G0 F6000 X109.069 Y101.15
G1 F1200 X118.849 Y110.93 E26.33399
G0 F6000 X118.849 Y111.495
G1 F1200 X108.504 Y101.15 E26.82059
G0 F6000 X107.938 Y101.15
G1 F1200 X118.849 Y112.061 E27.33381
G0 F6000 X118.849 Y112.627
G1 F1200 X107.372 Y101.15 E27.87365
G0 F6000 X106.807 Y101.15
G1 F1200 X118.849 Y113.192 E28.44007
G0 F6000 X118.849 Y113.758
G1 F1200 X106.241 Y101.15 E29.03311
G0 F6000 X105.675 Y101.15
G1 F1200 X118.849 Y114.324 E29.65278
G0 F6000 X118.849 Y114.89
G1 F1200 X105.11 Y101.15 E30.29904
G0 F6000 X104.544 Y101.15
G1 F1200 X118.849 Y115.455 E30.97191
G0 F6000 X118.849 Y116.021
G1 F1200 X103.978 Y101.15 E31.67139
G0 F6000 X103.412 Y101.15
G1 F1200 X118.849 Y116.587 E32.3975
G0 F6000 X118.849 Y117.152
G1 F1200 X102.847 Y101.15 E33.15019
G0 F6000 X102.281 Y101.15
G1 F1200 X118.849 Y117.718 E33.92949
G0 F6000 X118.849 Y118.284
G1 F1200 X101.715 Y101.15 E34.73542
G0 F6000 X101.149 Y101.149
G1 F1200 X118.849 Y118.849 E35.56798
G0 F6000 X118.283 Y118.849
G1 F1200 X101.149 Y101.715 E36.37391
G0 F6000 X101.149 Y102.28
G1 F1200 X117.717 Y118.849 E37.15324
G0 F6000 X117.152 Y118.849
G1 F1200 X101.149 Y102.846 E37.90597
G0 F6000 X101.149 Y103.412
G1 F1200 X116.586 Y118.849 E38.63208
G0 F6000 X116.02 Y118.849
G1 F1200 X101.149 Y103.977 E39.33159
G0 F6000 X101.149 Y104.543
G1 F1200 X115.454 Y118.849 E40.00448
G0 F6000 X114.889 Y118.849
G1 F1200 X101.149 Y105.109 E40.65077
G0 F6000 X101.149 Y105.674
G1 F1200 X114.323 Y118.849 E41.27045
G0 F6000 X113.757 Y118.849
G1 F1200 X101.149 Y106.24 E41.86352
G0 F6000 X101.149 Y106.806
G1 F1200 X113.192 Y118.849 E42.42998
G0 F6000 X112.626 Y118.849
G1 F1200 X101.149 Y107.372 E42.96983
G0 F6000 X101.149 Y107.937
G1 F1200 X112.06 Y118.849 E43.48307
G0 F6000 X111.495 Y118.849
G1 F1200 X101.149 Y108.503 E43.96972
G0 F6000 X101.149 Y109.069
G1 F1200 X110.929 Y118.849 E44.42974
G0 F6000 X110.363 Y118.849
G1 F1200 X101.149 Y109.634 E44.86316
G0 F6000 X101.149 Y110.2
G1 F1200 X109.798 Y118.849 E45.26998
G0 F6000 X109.232 Y118.849
G1 F1200 X101.149 Y110.766 E45.65018
G0 F6000 X101.149 Y111.331
G1 F1200 X108.666 Y118.849 E46.00378
G0 F6000 X108.101 Y118.849
G1 F1200 X101.149 Y111.897 E46.33078
G0 F6000 X101.149 Y112.463
G1 F1200 X107.535 Y118.849 E46.63116
G0 F6000 X106.969 Y118.849
G1 F1200 X101.149 Y113.028 E46.90494
G0 F6000 X101.149 Y113.594
G1 F1200 X106.404 Y118.849 E47.15212
G0 F6000 X105.838 Y118.849
G1 F1200 X101.149 Y114.16 E47.37267
G0 F6000 X101.149 Y114.725
G1 F1200 X105.272 Y118.849 E47.56663
G0 F6000 X104.706 Y118.849
G1 F1200 X101.149 Y115.291 E47.73396
G0 F6000 X101.149 Y115.857
G1 F1200 X104.141 Y118.849 E47.8747
G0 F6000 X103.575 Y118.849
G1 F1200 X101.149 Y116.423 E47.98881
G0 F6000 X101.149 Y116.988
G1 F1200 X103.009 Y118.849 E48.07632
G0 F6000 X102.444 Y118.849
G1 F1200 X101.149 Y117.554 E48.13723
G0 F6000 X101.149 Y118.12
G1 F1200 X101.878 Y118.849 E48.17152
G0 F6000 X101.312 Y118.849
G1 F1200 X101.149 Y118.685 E48.17922
G0 F6000 X100.8 Y118.685
;MESH:NONMESH
G0 F300 X100.8 Y118.685 Z0.4
G0 F6000 X100.71 Y118.685
G0 X100.782 Y119.218
G0 X119.4 Y119.4
;TIME_ELAPSED:84.348936
;LAYER:1
M106 S85
;TYPE:WALL-INNER
;MESH:cube.stl
G1 F1350 X100.6 Y119.4 E48.80451
G1 X100.6 Y100.6 E49.4298
G1 X119.4 Y100.6 E50.05509
G1 X119.4 Y119.4 E50.68038
G0 F7500 X119.8 Y119.8
;TYPE:WALL-OUTER
G1 F1350 X100.2 Y119.8 E51.33228
G1 X100.2 Y100.2 E51.98417
G1 X119.8 Y100.2 E52.63607
G1 X119.8 Y119.8 E53.28797
G0 F7500 X119.53 Y119.53
G0 X119.29 Y119.01
G0 X119.01 Y119.01
;TYPE:SKIN
G1 F1350 X100.99 Y119.01 E53.88732
G1 X100.99 Y100.99 E54.48667
G1 X119.01 Y100.99 E55.08601
G1 X119.01 Y119.01 E55.68536
G0 F7500 X118.738 Y118.849
G1 F1350 X118.849 Y118.738 E55.69058
G0 F7500 X118.849 Y118.173
G1 F1350 X118.172 Y118.849 E55.7224
G0 F7500 X117.606 Y118.849
G1 F1350 X118.849 Y117.607 E55.78085
G0 F7500 X118.849 Y117.041
G1 F1350 X117.041 Y118.849 E55.86589
G0 F7500 X116.475 Y118.849
G1 F1350 X118.849 Y116.476 E55.97753
G0 F7500 X118.849 Y115.91
G1 F1350 X115.909 Y118.849 E56.1158
G0 F7500 X115.343 Y118.849
G1 F1350 X118.849 Y115.344 E56.28069
G0 F7500 X118.849 Y114.778
G1 F1350 X114.778 Y118.849 E56.47217
G0 F7500 X114.212 Y118.849
G1 F1350 X118.849 Y114.213 E56.69026
G0 F7500 X118.849 Y113.647
G1 F1350 X113.646 Y118.849 E56.93497
G0 F7500 X113.081 Y118.849
G1 F1350 X118.849 Y113.081 E57.20628
G0 F7500 X118.849 Y112.516
G1 F1350 X112.515 Y118.849 E57.50419
G0 F7500 X111.949 Y118.849
G1 F1350 X118.849 Y111.95 E57.82872
G0 F7500 X118.849 Y111.384
G1 F1350 X111.384 Y118.849 E58.17985
G0 F7500 X110.818 Y118.849
G1 F1350 X118.849 Y110.819 E58.55758
G0 F7500 X118.849 Y110.253
G1 F1350 X110.252 Y118.849 E58.96193
G0 F7500 X109.687 Y118.849
G1 F1350 X118.849 Y109.687 E59.39288
G0 F7500 X118.849 Y109.122
G1 F1350 X109.121 Y118.849 E59.85044
G0 F7500 X108.555 Y118.849
G1 F1350 X118.849 Y108.556 E60.33461
G0 F7500 X118.849 Y107.99
G1 F1350 X107.99 Y118.849 E60.84538
G0 F7500 X107.424 Y118.849
G1 F1350 X118.849 Y107.425 E61.38276
G0 F7500 X118.849 Y106.859
G1 F1350 X106.858 Y118.849 E61.94675
G0 F7500 X106.292 Y118.849
G1 F1350 X118.849 Y106.293 E62.53737
G0 F7500 X118.849 Y105.728
G1 F1350 X105.727 Y118.849 E63.15457
G0 F7500 X105.161 Y118.849
G1 F1350 X118.849 Y105.162 E63.79839
G0 F7500 X118.849 Y104.596
G1 F1350 X104.595 Y118.849 E64.46883
G0 F7500 X104.03 Y118.849
G1 F1350 X118.849 Y104.03 E65.16587
G0 F7500 X118.849 Y103.465
G1 F1350 X103.464 Y118.849 E65.88951
G0 F7500 X102.898 Y118.849
G1 F1350 X118.849 Y102.899 E66.63977
G0 F7500 X118.849 Y102.333
G1 F1350 X102.333 Y118.849 E67.41663
G0 F7500 X101.767 Y118.849
G1 F1350 X118.849 Y101.768 E68.22009
G0 F7500 X118.849 Y101.202
G1 F1350 X101.201 Y118.849 E69.05018
G0 F7500 X101.15 Y118.335
G1 F1350 X118.336 Y101.149 E69.85855
G0 F7500 X117.77 Y101.149
G1 F1350 X101.15 Y117.77 E70.64033
G0 F7500 X101.15 Y117.204
G1 F1350 X117.205 Y101.149 E71.39551
G0 F7500 X116.639 Y101.149
