;FLAVOR:Marlin
;TIME:2162
;Filament used: 2.64441m
;Layer height: 0.28
;MINX:84.006
;MINY:84.006
;MINZ:0.28
;MAXX:135.993
;MAXY:135.993
;MAXZ:29.96
;Generated with Cura_SteamEngine 4.8.0
M140 S60
M105
M190 S60
M104 S200
M105
M109 S200
M82 ;absolute extrusion mode
; Ender 3 Custom Start G-code
G92 E0 ; Reset Extruder
G28 ; Home all axes
G1 Z2.0 F3000 ; Move Z Axis up little to prevent scratching of Heat Bed
G1 X0.1 Y20 Z0.3 F5000.0 ; Move to start position
G1 X0.1 Y200.0 Z0.3 F1500.0 E15 ; Draw the first line
G1 X0.4 Y200.0 Z0.3 F5000.0 ; Move to side a little
G1 X0.4 Y20 Z0.3 F1500.0 E30 ; Draw the second line
G92 E0 ; Reset Extruder
G1 Z2.0 F3000 ; Move Z Axis up little to prevent scratching of Heat Bed
G1 X5 Y20 Z0.3 F5000.0 ; Move over to prevent blob squish
G92 E0
G92 E0
G1 F1500 E-6.5
;LAYER_COUNT:107
;LAYER:0
M107
G0 F6000 X91.733 Y91.506 Z0.28
;TYPE:SKIRT
G1 F1500 E0
G1 F1200 X92.066 Y91.184 E0.02157
G1 X92.498 Y90.782 E0.04905
G1 X92.704 Y90.596 E0.06197
G1 X92.942 Y90.387 E0.07672
G1 X93.448 Y89.958 E0.10761
G1 X93.669 Y89.776 E0.12094
G1 X93.926 Y89.571 E0.13625
G1 X94.393 Y89.212 E0.16368
G1 X94.759 Y88.943 E0.18483
G1 X95.173 Y88.649 E0.20847
G1 X95.455 Y88.456 E0.22438
G1 X95.734 Y88.271 E0.23997
G1 X96.183 Y87.982 E0.26484
G1 X96.464 Y87.808 E0.28023
G1 X96.763 Y87.628 E0.29648
G1 X97.176 Y87.391 E0.31865
G1 X97.964 Y86.962 E0.36043
G1 X98.384 Y86.745 E0.38244
G1 X98.684 Y86.598 E0.398
G1 X98.928 Y86.482 E0.41058
G1 X99.302 Y86.31 E0.42974
G1 X99.543 Y86.203 E0.44202
G1 X99.877 Y86.059 E0.45896
G1 X100.356 Y85.862 E0.48308
G1 X100.602 Y85.765 E0.49539
G1 X100.953 Y85.632 E0.51287
G1 X101.187 Y85.546 E0.52448
G1 X101.538 Y85.422 E0.54181
G1 X102.073 Y85.244 E0.56806
G1 X102.548 Y85.097 E0.59122
G1 X102.818 Y85.018 E0.60432
G1 X103.309 Y84.882 E0.62804
G1 X103.566 Y84.814 E0.64042
G1 X103.789 Y84.758 E0.65113
G1 X104.055 Y84.695 E0.66385
G1 X104.575 Y84.58 E0.68865
G1 X104.966 Y84.499 E0.70725
G1 X105.26 Y84.442 E0.72119
G1 X105.657 Y84.371 E0.73997
G1 X105.991 Y84.316 E0.75573
G1 X106.257 Y84.277 E0.76825
G1 X106.871 Y84.196 E0.79709
G1 X107.275 Y84.149 E0.81603
G1 X107.526 Y84.124 E0.82777
G1 X107.924 Y84.089 E0.84638
G1 X108.173 Y84.07 E0.858
G1 X108.48 Y84.05 E0.87233
G1 X108.752 Y84.036 E0.88501
G1 X109.149 Y84.02 E0.90351
G1 X109.43 Y84.012 E0.9166
G1 X109.965 Y84.006 E0.94152
G1 X110.293 Y84.007 E0.95679
G1 X110.599 Y84.012 E0.97104
G1 X111.139 Y84.031 E0.9962
G1 X111.494 Y84.049 E1.01275
G1 X111.777 Y84.067 E1.02596
G1 X112.393 Y84.116 E1.05473
G1 X112.841 Y84.162 E1.0757
G1 X113.517 Y84.245 E1.10741
G1 X114.019 Y84.318 E1.13104
G1 X114.584 Y84.414 E1.15772
G1 X115.098 Y84.511 E1.18208
G1 X115.512 Y84.597 E1.20177
G1 X115.785 Y84.658 E1.21479
G1 X116.354 Y84.794 E1.24203
G1 X116.823 Y84.917 E1.26461
G1 X117.38 Y85.076 E1.29158
G1 X117.654 Y85.159 E1.30491
G1 X118.155 Y85.318 E1.32939
G1 X118.605 Y85.472 E1.35154
G1 X119.42 Y85.772 E1.39198
G1 X119.592 Y85.839 E1.40057
G1 X119.882 Y85.957 E1.41515
G1 X120.27 Y86.121 E1.43476
G1 X120.693 Y86.308 E1.4563
G1 X120.928 Y86.416 E1.46834
G1 X121.397 Y86.639 E1.49252
G1 X121.724 Y86.8 E1.5095
G1 X121.995 Y86.939 E1.52368
G1 X122.341 Y87.123 E1.54193
G1 X122.595 Y87.262 E1.55541
G1 X123.171 Y87.59 E1.58627
G1 X123.556 Y87.821 E1.60718
G1 X123.892 Y88.031 E1.62563
G1 X124.098 Y88.163 E1.63702
G1 X124.421 Y88.375 E1.65501
G1 X124.642 Y88.524 E1.66742
G1 X124.963 Y88.746 E1.6856
G1 X125.29 Y88.98 E1.70432
G1 X125.503 Y89.137 E1.71664
G1 X125.923 Y89.456 E1.7412
G1 X126.133 Y89.62 E1.75361
G1 X126.523 Y89.933 E1.77689
G1 X126.643 Y90.032 E1.78414
G1 X126.895 Y90.246 E1.79953
G1 X127.325 Y90.623 E1.82616
G1 X127.555 Y90.831 E1.8406
G1 X127.888 Y91.14 E1.86175
G1 X128.229 Y91.47 E1.88385
G1 X128.795 Y92.045 E1.92142
G1 X128.941 Y92.198 E1.93127
G1 X129.117 Y92.387 E1.94329
G1 X129.32 Y92.61 E1.95733
G1 X129.507 Y92.82 E1.97043
G1 X129.801 Y93.16 E1.99136
G1 X130.067 Y93.478 E2.01066
G1 X130.238 Y93.688 E2.02327
G1 X130.581 Y94.122 E2.04903
G1 X130.779 Y94.381 E2.06421
G1 X131.032 Y94.724 E2.08406
G1 X131.176 Y94.925 E2.09557
G1 X131.337 Y95.155 E2.10864
G1 X131.702 Y95.693 E2.13892
G1 X131.96 Y96.092 E2.16104
G1 X132.205 Y96.489 E2.18276
G1 X132.348 Y96.728 E2.19573
G1 X132.556 Y97.085 E2.21497
G1 X132.678 Y97.299 E2.22644
G1 X132.855 Y97.619 E2.24347
G1 X133.056 Y97.996 E2.26336
G1 X133.192 Y98.261 E2.27723
G1 X133.458 Y98.802 E2.3053
G1 X133.577 Y99.055 E2.31832
G1 X133.692 Y99.308 E2.33126
G1 X133.908 Y99.799 E2.35624
G1 X134.047 Y100.128 E2.37287
G1 X134.154 Y100.395 E2.38627
G1 X134.376 Y100.973 E2.4151
G1 X134.539 Y101.428 E2.4376
G1 X134.746 Y102.047 E2.46799
G1 X134.842 Y102.348 E2.48271
G1 X134.936 Y102.665 E2.4981
G1 X135.067 Y103.125 E2.52037
G1 X135.136 Y103.377 E2.53254
G1 X135.252 Y103.835 E2.55454
G1 X135.344 Y104.226 E2.57324
G1 X135.401 Y104.484 E2.58555
G1 X135.472 Y104.822 E2.60163
G1 X135.521 Y105.071 E2.61345
G1 X135.627 Y105.648 E2.64076
G1 X135.694 Y106.071 E2.6607
G1 X135.789 Y106.75 E2.69263
G1 X135.843 Y107.205 E2.71397
G1 X135.893 Y107.717 E2.73792
G1 X135.919 Y108.023 E2.75222
G1 X135.942 Y108.354 E2.76767
G1 X135.956 Y108.601 E2.77919
G1 X135.973 Y108.963 E2.79606
G1 X135.982 Y109.223 E2.80818
G1 X135.99 Y109.566 E2.82415
G1 X135.993 Y109.822 E2.83607
G1 X135.991 Y110.405 E2.86322
G1 X135.984 Y110.736 E2.87864
G1 X135.974 Y111.026 E2.89215
G1 X135.957 Y111.383 E2.90879
G1 X135.92 Y111.957 E2.93558
G1 X135.896 Y112.253 E2.9494
G1 X135.858 Y112.654 E2.96816
G1 X135.826 Y112.949 E2.98198
G1 X135.791 Y113.233 E2.9953
G1 X135.699 Y113.897 E3.02651
G1 X135.631 Y114.328 E3.04683
G1 X135.531 Y114.883 E3.07309
G1 X135.483 Y115.13 E3.08481
G1 X135.409 Y115.487 E3.10178
G1 X135.338 Y115.807 E3.11705
G1 X135.194 Y116.402 E3.14555
G1 X135.084 Y116.815 E3.16545
G1 X134.897 Y117.47 E3.19717
G1 X134.848 Y117.633 E3.2051
G1 X134.743 Y117.965 E3.22131
G1 X134.536 Y118.582 E3.25162
G1 X134.374 Y119.031 E3.27384
G1 X134.078 Y119.796 E3.31204
G1 X133.9 Y120.221 E3.33349
G1 X133.683 Y120.712 E3.35849
G1 X133.503 Y121.103 E3.37853
G1 X133.372 Y121.375 E3.39259
G1 X133.063 Y121.991 E3.42468
G1 X132.95 Y122.207 E3.43603
G1 X132.809 Y122.468 E3.44985
G1 X132.585 Y122.865 E3.47107
G1 X132.358 Y123.255 E3.49208
G1 X132.191 Y123.532 E3.50714
G1 X131.903 Y123.995 E3.53253
G1 X131.657 Y124.373 E3.55353
G1 X131.327 Y124.858 E3.58085
G1 X131.154 Y125.106 E3.59493
G1 X130.916 Y125.433 E3.61376
G1 X130.777 Y125.62 E3.62461
G1 X130.591 Y125.864 E3.6389
G1 X130.261 Y126.283 E3.66373
G1 X129.95 Y126.662 E3.68656
G1 X129.811 Y126.826 E3.69657
G1 X129.504 Y127.181 E3.71843
G1 X129.332 Y127.376 E3.73053
G1 X128.962 Y127.78 E3.75604
G1 X128.649 Y128.105 E3.77705
G1 X128.218 Y128.54 E3.80557
G1 X127.899 Y128.849 E3.82625
G1 X127.566 Y129.159 E3.84743
G1 X127.312 Y129.389 E3.86339
G1 X126.882 Y129.765 E3.88999
G1 X126.563 Y130.034 E3.90942
G1 X126.389 Y130.177 E3.9199
G1 X126.135 Y130.38 E3.93504
G1 X125.918 Y130.549 E3.94785
G1 X125.503 Y130.864 E3.97211
G1 X125.149 Y131.123 E3.99254
G1 X124.948 Y131.265 E4.004
G1 X124.626 Y131.487 E4.02221
G1 X124.424 Y131.623 E4.03355
G1 X124.103 Y131.834 E4.05143
G1 X123.899 Y131.965 E4.06272
G1 X123.57 Y132.171 E4.0808
G1 X123.232 Y132.375 E4.09918
G1 X123.017 Y132.499 E4.11074
G1 X122.537 Y132.769 E4.13638
G1 X122.299 Y132.899 E4.14901
G1 X121.807 Y133.158 E4.1749
G1 X121.387 Y133.367 E4.19674
G1 X120.9 Y133.597 E4.22182
G1 X120.474 Y133.789 E4.24358
G1 X120.258 Y133.883 E4.25455
G1 X119.869 Y134.047 E4.27421
G1 X119.609 Y134.153 E4.28728
G1 X119.438 Y134.22 E4.29583
G1 X119.185 Y134.315 E4.30842
G1 X118.539 Y134.55 E4.34043
G1 X118.076 Y134.707 E4.36319
G1 X117.391 Y134.92 E4.39659
G1 X116.801 Y135.089 E4.42517
G1 X116.668 Y135.125 E4.43159
G1 X116.342 Y135.208 E4.44725
G1 X115.775 Y135.343 E4.47439
G1 X115.336 Y135.44 E4.49533
G1 X115.103 Y135.488 E4.5064
G1 X114.829 Y135.541 E4.5194
G1 X114.554 Y135.59 E4.53241
G1 X113.95 Y135.691 E4.56092
G1 X113.471 Y135.761 E4.58346
G1 X112.833 Y135.839 E4.61339
G1 X112.376 Y135.885 E4.63478
G1 X111.814 Y135.93 E4.66103
G1 X111.491 Y135.951 E4.6761
G1 X110.919 Y135.978 E4.70277
G1 X110.595 Y135.988 E4.71786
G1 X110.29 Y135.993 E4.73207
G1 X109.767 Y135.993 E4.75642
G1 X109.428 Y135.988 E4.77221
G1 X109.146 Y135.98 E4.78534
G1 X108.75 Y135.964 E4.8038
G1 X108.484 Y135.95 E4.8162
G1 X107.921 Y135.911 E4.84248
G1 X107.523 Y135.876 E4.86108
G1 X107.081 Y135.829 E4.88178
G1 X106.873 Y135.804 E4.89153
G1 X106.258 Y135.723 E4.92042
G1 X105.887 Y135.668 E4.93788
G1 X105.651 Y135.628 E4.94903
G1 X105.255 Y135.557 E4.96776
G1 X104.982 Y135.505 E4.9807
G1 X104.583 Y135.423 E4.99967
G1 X104.035 Y135.301 E5.02581
G1 X103.787 Y135.242 E5.03768
G1 X103.564 Y135.186 E5.04839
G1 X103.292 Y135.114 E5.06149
G1 X102.8 Y134.977 E5.08527
G1 X102.327 Y134.837 E5.10824
G1 X102.048 Y134.749 E5.12186
G1 X101.546 Y134.581 E5.14651
G1 X101.194 Y134.457 E5.16389
G1 X100.935 Y134.362 E5.17674
G1 X100.583 Y134.228 E5.19427
G1 X100.105 Y134.037 E5.21824
G1 X99.883 Y133.945 E5.22943
G1 X99.539 Y133.797 E5.24687
G1 X99.286 Y133.684 E5.25977
G1 X98.945 Y133.527 E5.27725
G1 X98.688 Y133.405 E5.2905
G1 X98.371 Y133.249 E5.30695
G1 X98.003 Y133.06 E5.32622
G1 X97.768 Y132.935 E5.33861
G1 X97.197 Y132.621 E5.36895
G1 X96.934 Y132.472 E5.38303
G1 X96.723 Y132.348 E5.39442
G1 X96.442 Y132.178 E5.40972
G1 X96.21 Y132.034 E5.42243
G1 X95.758 Y131.745 E5.44741
G1 X95.41 Y131.514 E5.46686
G1 X95.158 Y131.339 E5.48115
G1 X94.585 Y130.929 E5.51396
G1 X94.18 Y130.626 E5.53751
G1 X93.906 Y130.413 E5.55367
G1 X93.484 Y130.072 E5.57893
G1 X93.282 Y129.904 E5.59117
G1 X92.921 Y129.595 E5.61329
G1 X92.704 Y129.404 E5.62675
G1 X92.362 Y129.093 E5.64828
G1 X92.075 Y128.825 E5.66656
G1 X91.851 Y128.61 E5.68102
G1 X91.521 Y128.28 E5.70275
G1 X91.194 Y127.943 E5.72462
G1 X91.015 Y127.755 E5.7367
G1 X90.669 Y127.378 E5.76053
G1 X90.42 Y127.098 E5.77798
G1 X90.223 Y126.87 E5.79201
G1 X89.879 Y126.458 E5.817
G1 X89.677 Y126.207 E5.83201
G1 X89.262 Y125.671 E5.86357
G1 X89.132 Y125.5 E5.87357
G1 X88.967 Y125.277 E5.88649
G1 X88.781 Y125.017 E5.90138
G1 X88.451 Y124.54 E5.92838
G1 X88.271 Y124.27 E5.94349
G1 X88.125 Y124.045 E5.95598
G1 X87.9 Y123.689 E5.97559
G1 X87.654 Y123.282 E5.99774
G1 X87.281 Y122.63 E6.03271
G1 X87.066 Y122.238 E6.05353
G1 X86.939 Y121.995 E6.0663
G1 X86.636 Y121.395 E6.0976
G1 X86.534 Y121.184 E6.10851
G1 X86.413 Y120.924 E6.12187
G1 X86.203 Y120.459 E6.14562
G1 X86.049 Y120.105 E6.1636
G1 X85.95 Y119.866 E6.17565
G1 X85.778 Y119.435 E6.19725
G1 X85.598 Y118.958 E6.22099
G1 X85.509 Y118.711 E6.23322
G1 X85.376 Y118.326 E6.25219
G1 X85.2 Y117.786 E6.27863
G1 X85.122 Y117.534 E6.29092
G1 X85.005 Y117.138 E6.31014
G1 X84.897 Y116.752 E6.32881
G1 X84.829 Y116.488 E6.3415
G1 X84.698 Y115.955 E6.36706
G1 X84.633 Y115.674 E6.38049
G1 X84.544 Y115.259 E6.40025
G1 X84.487 Y114.976 E6.41369
G1 X84.433 Y114.69 E6.42725
G1 X84.35 Y114.213 E6.44979
G1 X84.306 Y113.939 E6.46271
G1 X84.232 Y113.428 E6.48676
G1 X84.196 Y113.147 E6.49995
G1 X84.166 Y112.884 E6.51227
G1 X84.104 Y112.268 E6.5411
G1 X84.076 Y111.925 E6.55713
G1 X84.039 Y111.33 E6.58489
G1 X84.026 Y111.054 E6.59775
G1 X84.015 Y110.724 E6.61313
G1 X84.006 Y110.123 E6.64111
G1 X84.006 Y109.877 E6.65257
G1 X84.015 Y109.277 E6.68051
G1 X84.026 Y108.945 E6.69598
G1 X84.039 Y108.669 E6.70884
G1 X84.076 Y108.074 E6.7366
G1 X84.104 Y107.73 E6.75267
G1 X84.128 Y107.475 E6.7646
G1 X84.167 Y107.103 E6.78202
G1 X84.198 Y106.839 E6.7944
G1 X84.263 Y106.348 E6.81746
G1 X84.312 Y106.018 E6.83299
G1 X84.358 Y105.734 E6.84639
G1 X84.435 Y105.295 E6.86714
G1 X84.479 Y105.059 E6.87832
G1 X84.537 Y104.766 E6.89223
G1 X84.642 Y104.282 E6.91529
G1 X84.696 Y104.05 E6.92638
G1 X84.831 Y103.499 E6.9528
G1 X84.913 Y103.185 E6.96791
G1 X85.005 Y102.859 E6.98368
G1 X85.122 Y102.463 E7.00291
G1 X85.204 Y102.197 E7.01587
G1 X85.31 Y101.869 E7.03192
G1 X85.384 Y101.648 E7.04277
G1 X85.513 Y101.276 E7.06111
G1 X85.6 Y101.035 E7.07304
G1 X85.7 Y100.767 E7.08636
G1 X85.791 Y100.531 E7.09814
G1 X85.952 Y100.128 E7.11834
G1 X86.116 Y99.737 E7.13809
G1 X86.225 Y99.49 E7.15066
G1 X86.51 Y98.868 E7.18252
G1 X86.658 Y98.561 E7.19839
G1 X86.785 Y98.307 E7.21161
G1 X86.982 Y97.924 E7.23166
G1 X87.161 Y97.588 E7.24939
G1 X87.276 Y97.381 E7.26042
G1 X87.557 Y96.887 E7.28688
G1 X87.776 Y96.517 E7.3069
G1 X87.919 Y96.284 E7.31963
G1 X88.242 Y95.778 E7.34759
G1 X88.423 Y95.503 E7.36292
G1 X88.591 Y95.256 E7.37682
G1 X88.792 Y94.968 E7.39318
G1 X88.955 Y94.739 E7.40627
G1 X89.12 Y94.515 E7.41922
G1 X89.279 Y94.305 E7.43149
G1 X89.695 Y93.771 E7.46301
G1 X89.915 Y93.499 E7.4793
G1 X90.226 Y93.127 E7.50187
G1 X90.412 Y92.912 E7.51511
G1 X90.662 Y92.63 E7.53266
G1 X90.831 Y92.443 E7.5444
G1 X91.038 Y92.22 E7.55856
G1 X91.519 Y91.721 E7.59084
G1 X91.733 Y91.506 E7.60496
G0 F6000 X92.012 Y91.792
G1 F1200 X92.34 Y91.476 E7.62617
G1 X92.766 Y91.078 E7.65332
G1 X92.972 Y90.892 E7.66624
G1 X93.201 Y90.692 E7.6804
G1 X93.566 Y90.381 E7.70273
G1 X93.924 Y90.085 E7.72436
G1 X94.171 Y89.887 E7.7391
G1 X94.631 Y89.533 E7.76613
G1 X94.991 Y89.27 E7.78689
G1 X95.405 Y88.976 E7.81053
G1 X95.676 Y88.789 E7.82586
G1 X95.951 Y88.608 E7.84119
G1 X96.4 Y88.319 E7.86605
G1 X96.67 Y88.151 E7.88086
G1 X96.969 Y87.971 E7.89711
G1 X97.368 Y87.742 E7.91853
G1 X98.156 Y87.313 E7.96031
G1 X98.56 Y87.104 E7.98149
G1 X98.86 Y86.957 E7.99705
G1 X99.095 Y86.846 E8.00915
G1 X99.469 Y86.674 E8.02832
G1 X99.701 Y86.57 E8.04016
G1 X100.035 Y86.426 E8.05709
G1 X100.506 Y86.232 E8.08081
G1 X100.744 Y86.139 E8.09271
G1 X101.32 Y85.923 E8.12136
G1 X101.671 Y85.799 E8.13869
G1 X102.197 Y85.624 E8.1645
G1 X102.665 Y85.479 E8.18732
G1 X102.924 Y85.404 E8.19987
G1 X103.415 Y85.268 E8.2236
G1 X103.663 Y85.202 E8.23555
G1 X103.886 Y85.146 E8.24625
G1 X104.143 Y85.085 E8.25855
G1 X104.656 Y84.971 E8.28302
G1 X105.047 Y84.89 E8.30162
G1 X105.331 Y84.836 E8.31508
G1 X105.951 Y84.727 E8.34439
G1 X106.31 Y84.674 E8.36129
G1 X106.924 Y84.593 E8.39013
G1 X107.319 Y84.547 E8.40864
G1 X107.561 Y84.523 E8.41997
G1 X108.199 Y84.469 E8.44978
G1 X108.506 Y84.449 E8.46411
G1 X108.768 Y84.436 E8.47632
G1 X109.165 Y84.42 E8.49482
G1 X109.436 Y84.412 E8.50745
G1 X109.963 Y84.406 E8.53199
G1 X110.291 Y84.407 E8.54726
G1 X110.587 Y84.412 E8.56105
G1 X110.91 Y84.422 E8.57609
G1 X111.474 Y84.449 E8.60238
G1 X111.746 Y84.466 E8.61507
G1 X112.357 Y84.514 E8.64361
G1 X112.792 Y84.559 E8.66398
G1 X113.468 Y84.642 E8.69569
G1 X113.952 Y84.713 E8.71847
G1 X114.517 Y84.809 E8.74515
G1 X115.022 Y84.904 E8.76908
G1 X115.429 Y84.988 E8.78843
G1 X115.692 Y85.047 E8.80098
G1 X116.261 Y85.183 E8.82823
G1 X116.718 Y85.303 E8.85023
G1 X117.269 Y85.461 E8.87692
G1 X117.533 Y85.541 E8.88976
G1 X118.034 Y85.7 E8.91424
G1 X118.468 Y85.848 E8.93559
G1 X119.067 Y86.067 E8.96529
G1 X119.446 Y86.212 E8.98418
G1 X119.726 Y86.325 E8.99824
G1 X120.114 Y86.489 E9.01786
G1 X120.53 Y86.673 E9.03904
G1 X120.756 Y86.777 E9.05062
G1 X121.389 Y87.08 E9.0833
G1 X121.546 Y87.158 E9.09146
G1 X121.807 Y87.292 E9.10512
G1 X122.153 Y87.476 E9.12337
G1 X122.398 Y87.61 E9.13637
G1 X122.822 Y87.85 E9.15906
G1 X123.094 Y88.009 E9.17373
G1 X123.344 Y88.16 E9.18733
G1 X123.68 Y88.37 E9.20578
G1 X123.878 Y88.497 E9.21674
G1 X124.201 Y88.709 E9.23473
G1 X124.414 Y88.853 E9.2467
G1 X124.912 Y89.2 E9.27496
G1 X125.261 Y89.456 E9.29511
G1 X125.681 Y89.775 E9.31967
G1 X125.884 Y89.932 E9.33162
G1 X126.269 Y90.241 E9.35461
G1 X126.389 Y90.34 E9.36185
G1 X126.631 Y90.547 E9.37668
G1 X127.061 Y90.924 E9.40331
G1 X127.283 Y91.124 E9.41722
G1 X127.616 Y91.433 E9.43838
G1 X127.944 Y91.751 E9.45965
G1 X128.506 Y92.321 E9.49692
G1 X128.822 Y92.656 E9.51837
G1 X129.025 Y92.879 E9.53241
G1 X129.204 Y93.082 E9.54501
G1 X129.632 Y93.579 E9.57555
G1 X129.76 Y93.733 E9.58488
G1 X129.924 Y93.936 E9.59703
G1 X130.267 Y94.37 E9.62279
G1 X130.458 Y94.619 E9.6374
G1 X130.707 Y94.957 E9.65695
G1 X130.851 Y95.158 E9.66846
G1 X131.006 Y95.38 E9.68107
G1 X131.371 Y95.918 E9.71134
G1 X131.62 Y96.302 E9.73265
G1 X131.865 Y96.699 E9.75438
G1 X132.003 Y96.93 E9.7669
G1 X132.328 Y97.492 E9.79713
G1 X132.505 Y97.812 E9.81416
G1 X132.703 Y98.183 E9.83374
