;FLAVOR:Marlin
;TIME:1732
;Filament used: 0.708549m
;Layer height: 0.2
;MINX:84.006
;MINY:84.006
;MINZ:0.2
;MAXX:135.993
;MAXY:135.993
;MAXZ:30.108
;Generated with Cura_SteamEngine 4.8.0
M140 S60
M105
M190 S60
M104 S200
M105
M109 S200
M82 ;absolute extrusion mode
; Ender 3 Custom Start G-code
G92 E0 ; Reset Extruder
G28 ; Home all axes
G1 Z2.0 F3000 ; Move Z Axis up little to prevent scratching of Heat Bed
G1 X0.1 Y20 Z0.3 F5000.0 ; Move to start position
G1 X0.1 Y200.0 Z0.3 F1500.0 E15 ; Draw the first line
G1 X0.4 Y200.0 Z0.3 F5000.0 ; Move to side a little
G1 X0.4 Y20 Z0.3 F1500.0 E30 ; Draw the second line
G92 E0 ; Reset Extruder
G1 Z2.0 F3000 ; Move Z Axis up little to prevent scratching of Heat Bed
G1 X5 Y20 Z0.3 F5000.0 ; Move over to prevent blob squish
G92 E0
G92 E0
G1 F1500 E-6.5
;LAYER_COUNT:150
;LAYER:0
M107
G0 F6000 X91.709 Y91.529 Z0.2
;TYPE:SKIRT
G1 F1500 E0
G1 F1200 X91.878 Y91.363 E0.00788
G1 X92.07 Y91.179 E0.01672
G1 X92.335 Y90.931 E0.0288
G1 X92.807 Y90.505 E0.04994
G1 X93.027 Y90.313 E0.05965
G1 X93.44 Y89.964 E0.07764
G1 X93.702 Y89.75 E0.08889
G1 X93.925 Y89.573 E0.09836
G1 X94.374 Y89.227 E0.11721
G1 X94.566 Y89.084 E0.12518
G1 X94.781 Y88.928 E0.13401
G1 X95.185 Y88.642 E0.15047
G1 X95.556 Y88.389 E0.16541
G1 X95.752 Y88.26 E0.17321
G1 X96.203 Y87.971 E0.19103
G1 X96.434 Y87.827 E0.20008
G1 X96.716 Y87.656 E0.21105
G1 X97.095 Y87.437 E0.22561
G1 X97.706 Y87.099 E0.24884
G1 X97.993 Y86.945 E0.25967
G1 X98.257 Y86.809 E0.26955
G1 X98.691 Y86.595 E0.28564
G1 X98.928 Y86.482 E0.29437
G1 X99.302 Y86.31 E0.30806
G1 X99.569 Y86.192 E0.31777
G1 X100.088 Y85.972 E0.33652
G1 X100.586 Y85.772 E0.35437
G1 X100.938 Y85.638 E0.3669
G1 X101.513 Y85.431 E0.38723
G1 X101.789 Y85.336 E0.39693
G1 X102.083 Y85.24 E0.40722
G1 X102.329 Y85.163 E0.41579
G1 X102.585 Y85.086 E0.42469
G1 X103.301 Y84.885 E0.44942
G1 X103.556 Y84.817 E0.4582
G1 X104.032 Y84.7 E0.4745
G1 X104.597 Y84.574 E0.49375
G1 X104.987 Y84.494 E0.507
G1 X105.26 Y84.442 E0.51624
G1 X105.657 Y84.371 E0.52965
G1 X105.991 Y84.316 E0.54091
G1 X106.26 Y84.277 E0.54995
G1 X106.875 Y84.196 E0.57058
G1 X107.261 Y84.151 E0.58351
G1 X107.525 Y84.124 E0.59234
G1 X107.923 Y84.089 E0.60562
G1 X108.486 Y84.05 E0.62439
G1 X108.752 Y84.036 E0.63325
G1 X109.148 Y84.02 E0.64644
G1 X109.43 Y84.012 E0.65582
G1 X109.965 Y84.006 E0.67361
G1 X110.293 Y84.007 E0.68452
G1 X110.599 Y84.012 E0.6947
G1 X111.139 Y84.031 E0.71267
G1 X111.494 Y84.049 E0.7245
G1 X111.777 Y84.067 E0.73393
G1 X112.393 Y84.116 E0.75448
G1 X112.841 Y84.162 E0.76946
G1 X113.517 Y84.245 E0.79211
G1 X114.019 Y84.318 E0.80898
G1 X114.584 Y84.414 E0.82805
G1 X115.098 Y84.511 E0.84544
G1 X115.512 Y84.597 E0.85951
G1 X115.785 Y84.658 E0.86881
G1 X116.354 Y84.794 E0.88827
G1 X116.823 Y84.917 E0.9044
G1 X117.38 Y85.076 E0.92366
G1 X117.654 Y85.159 E0.93318
G1 X118.155 Y85.318 E0.95067
G1 X118.605 Y85.472 E0.96649
G1 X119.42 Y85.772 E0.99537
G1 X119.592 Y85.839 E1.00151
G1 X119.882 Y85.957 E1.01192
G1 X120.27 Y86.121 E1.02593
G1 X120.693 Y86.308 E1.04132
G1 X120.909 Y86.407 E1.04922
G1 X121.395 Y86.637 E1.0671
G1 X121.685 Y86.779 E1.07784
G1 X121.928 Y86.905 E1.08695
G1 X122.389 Y87.15 E1.10431
G1 X122.632 Y87.283 E1.11352
G1 X123.006 Y87.494 E1.12781
G1 X123.352 Y87.696 E1.14113
G1 X123.551 Y87.817 E1.14888
G1 X123.88 Y88.022 E1.16177
G1 X124.099 Y88.162 E1.17042
G1 X124.422 Y88.374 E1.18327
G1 X124.656 Y88.532 E1.19266
G1 X124.976 Y88.754 E1.20561
G1 X125.29 Y88.979 E1.21846
G1 X125.503 Y89.136 E1.22726
G1 X125.923 Y89.455 E1.2448
G1 X126.137 Y89.621 E1.25381
G1 X126.341 Y89.784 E1.26249
G1 X126.774 Y90.143 E1.2812
G1 X126.972 Y90.313 E1.28988
G1 X127.298 Y90.599 E1.30431
G1 X127.477 Y90.759 E1.31229
G1 X127.729 Y90.99 E1.32366
G1 X128.001 Y91.247 E1.33611
G1 X128.22 Y91.462 E1.34632
G1 X128.785 Y92.034 E1.37306
G1 X128.896 Y92.15 E1.3784
G1 X129.106 Y92.376 E1.38866
G1 X129.428 Y92.732 E1.40462
G1 X129.755 Y93.106 E1.42115
G1 X130.074 Y93.487 E1.43767
G1 X130.237 Y93.688 E1.44628
G1 X130.58 Y94.122 E1.46468
G1 X130.778 Y94.381 E1.47552
G1 X131.031 Y94.724 E1.4897
G1 X131.175 Y94.925 E1.49792
G1 X131.336 Y95.155 E1.50726
G1 X131.701 Y95.693 E1.52888
G1 X131.959 Y96.092 E1.54469
G1 X132.204 Y96.489 E1.5602
G1 X132.347 Y96.728 E1.56947
G1 X132.695 Y97.329 E1.59257
G1 X132.896 Y97.696 E1.60648
G1 X133.111 Y98.104 E1.62182
G1 X133.358 Y98.596 E1.64013
G1 X133.458 Y98.802 E1.64775
G1 X133.577 Y99.055 E1.65705
G1 X133.692 Y99.308 E1.66629
G1 X133.908 Y99.799 E1.68413
G1 X134.047 Y100.128 E1.69601
G1 X134.154 Y100.395 E1.70558
G1 X134.376 Y100.973 E1.72617
G1 X134.539 Y101.428 E1.74225
G1 X134.746 Y102.047 E1.76396
G1 X134.842 Y102.348 E1.77446
G1 X134.936 Y102.665 E1.78546
G1 X135.067 Y103.125 E1.80137
G1 X135.136 Y103.377 E1.81006
G1 X135.252 Y103.835 E1.82577
G1 X135.344 Y104.226 E1.83913
G1 X135.401 Y104.484 E1.84792
G1 X135.472 Y104.822 E1.85941
G1 X135.521 Y105.071 E1.86785
G1 X135.627 Y105.648 E1.88736
G1 X135.694 Y106.071 E1.90161
G1 X135.789 Y106.75 E1.92441
G1 X135.843 Y107.205 E1.93965
G1 X135.893 Y107.717 E1.95676
G1 X135.919 Y108.023 E1.96697
G1 X135.942 Y108.354 E1.97801
G1 X135.956 Y108.601 E1.98624
G1 X135.973 Y108.963 E1.99829
G1 X135.982 Y109.223 E2.00694
G1 X135.99 Y109.566 E2.01836
G1 X135.993 Y109.822 E2.02687
G1 X135.991 Y110.405 E2.04626
G1 X135.984 Y110.736 E2.05727
G1 X135.974 Y111.026 E2.06692
G1 X135.957 Y111.383 E2.07881
G1 X135.92 Y111.957 E2.09794
G1 X135.896 Y112.253 E2.10782
G1 X135.858 Y112.654 E2.12122
G1 X135.826 Y112.949 E2.13109
G1 X135.791 Y113.233 E2.1406
G1 X135.699 Y113.897 E2.1629
G1 X135.631 Y114.328 E2.17741
G1 X135.531 Y114.883 E2.19617
G1 X135.483 Y115.13 E2.20454
G1 X135.409 Y115.487 E2.21666
G1 X135.338 Y115.807 E2.22757
G1 X135.194 Y116.402 E2.24793
G1 X135.084 Y116.815 E2.26214
G1 X134.897 Y117.47 E2.2848
G1 X134.848 Y117.633 E2.29046
G1 X134.743 Y117.965 E2.30204
G1 X134.536 Y118.582 E2.32369
G1 X134.377 Y119.023 E2.33928
G1 X134.156 Y119.599 E2.3598
G1 X134.021 Y119.936 E2.37187
G1 X133.9 Y120.221 E2.38217
G1 X133.683 Y120.712 E2.40002
G1 X133.476 Y121.161 E2.41647
G1 X133.363 Y121.396 E2.42514
G1 X133.233 Y121.658 E2.43487
G1 X133.125 Y121.869 E2.44275
G1 X132.912 Y122.276 E2.45803
G1 X132.773 Y122.534 E2.46778
G1 X132.586 Y122.865 E2.48042
G1 X132.359 Y123.255 E2.49543
G1 X132.192 Y123.532 E2.50619
G1 X131.904 Y123.995 E2.52433
G1 X131.664 Y124.365 E2.53899
G1 X131.336 Y124.848 E2.55841
G1 X131.145 Y125.12 E2.56947
G1 X130.917 Y125.433 E2.58235
G1 X130.778 Y125.62 E2.5901
G1 X130.597 Y125.857 E2.60002
G1 X130.277 Y126.264 E2.61723
G1 X130.093 Y126.492 E2.62698
G1 X129.912 Y126.71 E2.6364
G1 X129.745 Y126.906 E2.64497
G1 X129.372 Y127.331 E2.66378
G1 X128.962 Y127.78 E2.684
G1 X128.649 Y128.105 E2.69901
G1 X128.218 Y128.54 E2.71937
G1 X127.87 Y128.876 E2.73546
G1 X127.448 Y129.266 E2.75457
G1 X127.213 Y129.477 E2.76508
G1 X126.923 Y129.73 E2.77788
G1 X126.719 Y129.904 E2.7868
G1 X126.389 Y130.176 E2.80102
G1 X126.135 Y130.379 E2.81184
G1 X125.918 Y130.548 E2.82098
G1 X125.503 Y130.863 E2.83831
G1 X125.149 Y131.122 E2.8529
G1 X124.948 Y131.264 E2.86109
G1 X124.435 Y131.615 E2.88176
G1 X124.13 Y131.816 E2.89391
G1 X123.914 Y131.954 E2.90243
G1 X123.569 Y132.17 E2.91597
G1 X123.288 Y132.341 E2.92691
G1 X123.016 Y132.499 E2.93738
G1 X122.645 Y132.709 E2.95156
G1 X122.405 Y132.841 E2.96067
G1 X121.944 Y133.087 E2.97804
G1 X121.608 Y133.259 E2.9906
G1 X121.387 Y133.367 E2.99878
G1 X120.9 Y133.597 E3.01669
G1 X120.474 Y133.789 E3.03224
G1 X120.258 Y133.883 E3.04007
G1 X119.869 Y134.047 E3.05411
G1 X119.557 Y134.173 E3.0653
G1 X119.2 Y134.309 E3.07801
G1 X118.554 Y134.545 E3.10088
G1 X118.076 Y134.707 E3.11767
G1 X117.391 Y134.92 E3.14153
G1 X116.801 Y135.089 E3.16194
G1 X116.668 Y135.125 E3.16652
G1 X116.342 Y135.208 E3.17771
G1 X115.775 Y135.343 E3.1971
G1 X115.336 Y135.44 E3.21205
G1 X115.103 Y135.488 E3.21997
G1 X114.829 Y135.541 E3.22925
G1 X114.554 Y135.59 E3.23854
G1 X113.95 Y135.691 E3.25891
G1 X113.471 Y135.761 E3.27501
G1 X112.833 Y135.839 E3.29638
G1 X112.376 Y135.885 E3.31166
G1 X111.814 Y135.93 E3.33041
G1 X111.491 Y135.951 E3.34118
G1 X110.919 Y135.978 E3.36023
G1 X110.595 Y135.988 E3.37101
G1 X110.29 Y135.993 E3.38115
G1 X109.767 Y135.993 E3.39855
G1 X109.428 Y135.988 E3.40982
G1 X109.146 Y135.98 E3.41921
G1 X108.75 Y135.964 E3.43239
G1 X108.484 Y135.95 E3.44125
G1 X107.921 Y135.911 E3.46002
G1 X107.523 Y135.876 E3.47331
G1 X107.081 Y135.829 E3.48809
G1 X106.873 Y135.804 E3.49506
G1 X106.258 Y135.723 E3.51569
G1 X105.887 Y135.668 E3.52816
G1 X105.651 Y135.628 E3.53613
G1 X105.255 Y135.557 E3.54951
G1 X104.982 Y135.505 E3.55875
G1 X104.583 Y135.423 E3.5723
G1 X104.035 Y135.301 E3.59097
G1 X103.787 Y135.242 E3.59945
G1 X103.564 Y135.186 E3.6071
G1 X103.292 Y135.114 E3.61646
G1 X102.8 Y134.977 E3.63344
G1 X102.327 Y134.837 E3.64985
G1 X102.048 Y134.749 E3.65958
G1 X101.546 Y134.581 E3.67719
G1 X101.194 Y134.457 E3.6896
G1 X100.935 Y134.362 E3.69877
G1 X100.373 Y134.146 E3.7188
G1 X100.101 Y134.036 E3.72856
G1 X99.874 Y133.941 E3.73674
G1 X99.535 Y133.795 E3.74902
G1 X99.276 Y133.68 E3.75844
G1 X98.912 Y133.512 E3.77178
G1 X98.46 Y133.293 E3.78848
G1 X98.255 Y133.191 E3.7961
G1 X97.991 Y133.055 E3.80598
G1 X97.722 Y132.911 E3.81612
G1 X97.014 Y132.519 E3.84304
G1 X96.723 Y132.349 E3.85425
G1 X96.442 Y132.179 E3.86517
G1 X96.201 Y132.029 E3.87462
G1 X95.583 Y131.631 E3.89906
G1 X95.439 Y131.535 E3.90482
G1 X95.168 Y131.348 E3.91577
G1 X94.753 Y131.053 E3.93271
G1 X94.382 Y130.78 E3.94803
G1 X93.955 Y130.452 E3.96594
G1 X93.728 Y130.272 E3.97557
G1 X93.387 Y129.993 E3.99022
G1 X93.185 Y129.823 E3.99901
G1 X92.951 Y129.622 E4.00927
G1 X92.76 Y129.454 E4.01773
G1 X92.363 Y129.095 E4.03553
G1 X92.078 Y128.829 E4.0485
G1 X91.731 Y128.493 E4.06456
G1 X91.509 Y128.27 E4.07503
G1 X91.182 Y127.932 E4.09067
G1 X90.862 Y127.591 E4.10622
G1 X90.678 Y127.389 E4.11531
G1 X90.36 Y127.03 E4.13126
G1 X90.052 Y126.668 E4.14707
G1 X89.93 Y126.521 E4.15342
G1 X89.69 Y126.224 E4.16612
G1 X89.53 Y126.02 E4.17475
G1 X89.259 Y125.668 E4.18952
G1 X89.081 Y125.43 E4.19941
G1 X88.918 Y125.206 E4.20862
G1 X88.778 Y125.009 E4.21666
G1 X88.447 Y124.53 E4.23602
G1 X88.268 Y124.261 E4.24677
G1 X88.135 Y124.056 E4.2549
G1 X87.91 Y123.701 E4.26888
G1 X87.751 Y123.442 E4.27899
G1 X87.556 Y123.11 E4.29179
G1 X87.167 Y122.423 E4.31805
G1 X86.995 Y122.099 E4.33025
G1 X86.725 Y121.572 E4.34995
G1 X86.538 Y121.191 E4.36406
G1 X86.413 Y120.925 E4.37384
G1 X86.212 Y120.48 E4.39008
G1 X86.05 Y120.106 E4.40363
G1 X85.944 Y119.849 E4.41288
G1 X85.706 Y119.246 E4.43444
G1 X85.615 Y119.005 E4.44301
G1 X85.509 Y118.711 E4.4534
G1 X85.308 Y118.123 E4.47407
G1 X85.206 Y117.808 E4.48509
G1 X85.12 Y117.529 E4.4948
G1 X85.003 Y117.132 E4.50856
G1 X84.888 Y116.717 E4.52288
G1 X84.83 Y116.492 E4.53061
G1 X84.699 Y115.96 E4.54884
G1 X84.64 Y115.707 E4.55748
G1 X84.538 Y115.236 E4.5735
G1 X84.482 Y114.955 E4.58303
G1 X84.434 Y114.695 E4.59183
G1 X84.351 Y114.219 E4.6079
G1 X84.304 Y113.93 E4.61764
G1 X84.232 Y113.428 E4.63451
G1 X84.196 Y113.147 E4.64393
G1 X84.166 Y112.89 E4.65253
G1 X84.127 Y112.516 E4.66504
G1 X84.104 Y112.265 E4.67342
G1 X84.076 Y111.92 E4.68494
G1 X84.059 Y111.672 E4.6932
G1 X84.039 Y111.33 E4.7046
G1 X84.026 Y111.053 E4.71382
G1 X84.015 Y110.722 E4.72484
G1 X84.006 Y110.121 E4.74483
G1 X84.006 Y109.874 E4.75304
G1 X84.015 Y109.278 E4.77287
G1 X84.026 Y108.946 E4.78392
G1 X84.039 Y108.672 E4.79304
G1 X84.076 Y108.074 E4.81297
G1 X84.104 Y107.73 E4.82445
G1 X84.167 Y107.105 E4.84534
G1 X84.198 Y106.838 E4.85428
G1 X84.264 Y106.343 E4.87089
G1 X84.313 Y106.014 E4.88195
G1 X84.358 Y105.738 E4.89125
G1 X84.435 Y105.298 E4.90611
G1 X84.478 Y105.065 E4.91399
G1 X84.536 Y104.771 E4.92396
G1 X84.592 Y104.504 E4.93303
G1 X84.695 Y104.054 E4.94839
G1 X84.829 Y103.506 E4.96715
G1 X84.921 Y103.156 E4.97919
G1 X85.005 Y102.859 E4.98945
G1 X85.122 Y102.463 E5.00319
G1 X85.201 Y102.207 E5.0121
G1 X85.307 Y101.878 E5.02359
G1 X85.384 Y101.647 E5.03169
G1 X85.513 Y101.275 E5.04479
G1 X85.605 Y101.021 E5.05377
G1 X85.791 Y100.531 E5.07121
G1 X85.952 Y100.128 E5.08564
G1 X86.072 Y99.839 E5.09605
G1 X86.212 Y99.519 E5.10766
G1 X86.412 Y99.076 E5.12383
G1 X86.603 Y98.672 E5.13869
G1 X86.718 Y98.441 E5.14728
G1 X87.092 Y97.712 E5.17453
G1 X87.274 Y97.381 E5.18709
G1 X87.555 Y96.887 E5.20599
G1 X87.711 Y96.621 E5.21625
G1 X87.918 Y96.284 E5.2294
G1 X88.256 Y95.755 E5.25028
G1 X88.438 Y95.48 E5.26125
G1 X88.586 Y95.262 E5.27002
G1 X88.786 Y94.975 E5.28165
G1 X88.954 Y94.74 E5.29126
G1 X89.254 Y94.337 E5.30797
G1 X89.503 Y94.013 E5.32156
G1 X89.679 Y93.79 E5.33101
G1 X89.974 Y93.426 E5.34659
G1 X90.266 Y93.079 E5.36168
G1 X90.394 Y92.931 E5.36818
G1 X90.656 Y92.635 E5.38133
G1 X91.036 Y92.222 E5.4
G1 X91.213 Y92.035 E5.40856
G1 X91.531 Y91.708 E5.42373
G1 X91.709 Y91.529 E5.43213
G0 F6000 X92.158 Y91.649
G1 F1200 X92.343 Y91.472 E5.44064
G1 X92.773 Y91.072 E5.46018
G1 X93.074 Y90.802 E5.47363
G1 X93.286 Y90.617 E5.48298
G1 X93.694 Y90.273 E5.50073
G1 X93.956 Y90.059 E5.51199
G1 X94.17 Y89.889 E5.52108
G1 X94.613 Y89.548 E5.53967
G1 X95.012 Y89.254 E5.55615
G1 X95.416 Y88.968 E5.57262
G1 X95.779 Y88.721 E5.58722
G1 X95.968 Y88.597 E5.59474
G1 X96.419 Y88.308 E5.61256
G1 X96.642 Y88.169 E5.6213
G1 X96.924 Y87.998 E5.63226
G1 X97.289 Y87.787 E5.64629
G1 X97.9 Y87.449 E5.66951
G1 X98.177 Y87.301 E5.67996
G1 X98.638 Y87.066 E5.69717
G1 X98.867 Y86.954 E5.70565
G1 X99.095 Y86.846 E5.71404
G1 X99.469 Y86.674 E5.72773
G1 X99.726 Y86.56 E5.73708
G1 X100.238 Y86.342 E5.75559
G1 X100.506 Y86.233 E5.76521
G1 X101.081 Y86.012 E5.7857
G1 X101.296 Y85.932 E5.79333
G1 X101.647 Y85.807 E5.80572
G1 X101.913 Y85.717 E5.81506
G1 X102.444 Y85.546 E5.83362
G1 X102.915 Y85.407 E5.84995
G1 X103.408 Y85.27 E5.86697
G1 X103.653 Y85.205 E5.8754
G1 X104.12 Y85.09 E5.89139
G1 X104.459 Y85.013 E5.90296
G1 X104.677 Y84.966 E5.91037
G1 X105.067 Y84.886 E5.92362
G1 X105.331 Y84.836 E5.93255
G1 X105.951 Y84.727 E5.95349
G1 X106.312 Y84.674 E5.96563
G1 X107.127 Y84.568 E5.99296
G1 X107.305 Y84.548 E5.99892
G1 X107.56 Y84.523 E6.00744
G1 X107.958 Y84.488 E6.02073
G1 X108.202 Y84.469 E6.02887
G1 X108.511 Y84.449 E6.03917
G1 X108.768 Y84.436 E6.04773
G1 X109.164 Y84.42 E6.06091
G1 X109.436 Y84.412 E6.06996
G1 X109.963 Y84.406 E6.08749
G1 X110.291 Y84.407 E6.0984
G1 X110.587 Y84.412 E6.10824
G1 X110.91 Y84.422 E6.11899
G1 X111.474 Y84.449 E6.13777
G1 X111.746 Y84.466 E6.14684
G1 X112.357 Y84.514 E6.16722
G1 X112.792 Y84.559 E6.18177
G1 X113.468 Y84.642 E6.20442
G1 X113.952 Y84.713 E6.22069
G1 X114.517 Y84.809 E6.23975
G1 X115.022 Y84.904 E6.25684
G1 X115.429 Y84.988 E6.27066
G1 X115.692 Y85.047 E6.27963
G1 X116.261 Y85.183 E6.29909
G1 X116.718 Y85.303 E6.3148
G1 X117.269 Y85.461 E6.33387
G1 X117.533 Y85.541 E6.34304
G1 X118.034 Y85.7 E6.36053
G1 X118.468 Y85.848 E6.37578
G1 X119.067 Y86.067 E6.39699
G1 X119.446 Y86.212 E6.41049
G1 X119.726 Y86.325 E6.42053
G1 X120.114 Y86.489 E6.43454
G1 X120.53 Y86.673 E6.44967
G1 X120.738 Y86.769 E6.45729
G1 X121.224 Y86.999 E6.47517
G1 X121.506 Y87.137 E6.48561
G1 X121.741 Y87.258 E6.4944
G1 X122.202 Y87.503 E6.51177
G1 X122.435 Y87.631 E6.52061
G1 X123.014 Y87.96 E6.54276
G1 X123.34 Y88.157 E6.55543
G1 X123.669 Y88.362 E6.56832
G1 X123.879 Y88.496 E6.57661
G1 X124.202 Y88.708 E6.58946
G1 X124.428 Y88.861 E6.59853
G1 X124.912 Y89.199 E6.61817
G1 X125.261 Y89.455 E6.63256
G1 X125.681 Y89.774 E6.65011
G1 X125.887 Y89.934 E6.65878
G1 X126.091 Y90.097 E6.66747
G1 X126.517 Y90.45 E6.68587
G1 X126.709 Y90.614 E6.69427
G1 X127.035 Y90.9 E6.70869
G1 X127.207 Y91.054 E6.71637
G1 X127.615 Y91.431 E6.73485
G1 X127.936 Y91.743 E6.74973
G1 X128.367 Y92.178 E6.7701
G1 X128.607 Y92.427 E6.7816
G1 X128.809 Y92.644 E6.79146
G1 X129.131 Y93 E6.80743
G1 X129.453 Y93.368 E6.82369
G1 X129.766 Y93.743 E6.83994
G1 X129.923 Y93.936 E6.84821
G1 X130.266 Y94.37 E6.86661
G1 X130.457 Y94.619 E6.87705
G1 X130.706 Y94.957 E6.89101
G1 X130.85 Y95.158 E6.89924
G1 X131.005 Y95.38 E6.90824
G1 X131.37 Y95.918 E6.92987
G1 X131.619 Y96.302 E6.94509
G1 X131.864 Y96.699 E6.96061
G1 X132.002 Y96.929 E6.96953
