;FLAVOR:Marlin
;TIME:2149
;Filament used: 2.62764m
;Layer height: 0.28
;MINX:84.011
;MINY:84.011
;MINZ:0.28
;MAXX:135.989
;MAXY:135.989
;MAXZ:29.96
;Generated with Cura_SteamEngine 4.8.0
M140 S60
M105
M190 S60
M104 S200
M105
M109 S200
M82 ;absolute extrusion mode
; Ender 3 Custom Start G-code
G92 E0 ; Reset Extruder
G28 ; Home all axes
G1 Z2.0 F3000 ; Move Z Axis up little to prevent scratching of Heat Bed
G1 X0.1 Y20 Z0.3 F5000.0 ; Move to start position
G1 X0.1 Y200.0 Z0.3 F1500.0 E15 ; Draw the first line
G1 X0.4 Y200.0 Z0.3 F5000.0 ; Move to side a little
G1 X0.4 Y20 Z0.3 F1500.0 E30 ; Draw the second line
G92 E0 ; Reset Extruder
G1 Z2.0 F3000 ; Move Z Axis up little to prevent scratching of Heat Bed
G1 X5 Y20 Z0.3 F5000.0 ; Move over to prevent blob squish
G92 E0
G92 E0
G1 F1500 E-6.5
;LAYER_COUNT:107
;LAYER:0
M107
G0 F6000 X90.943 Y92.421 Z0.28
;TYPE:SKIRT
G1 F1500 E0
G1 F1200 X92.496 Y90.87 E0.1022
G1 X92.978 Y90.401 E0.13352
G1 X93.677 Y89.776 E0.17718
G1 X94.654 Y89.062 E0.23353
G1 X95.372 Y88.597 E0.27336
G1 X97.172 Y87.465 E0.37237
G1 X97.761 Y87.106 E0.40449
G1 X98.582 Y86.653 E0.44815
G1 X99.157 Y86.387 E0.47765
G1 X99.756 Y86.148 E0.50768
G1 X100.512 Y85.874 E0.54513
G1 X102.486 Y85.184 E0.6425
G1 X103.183 Y84.951 E0.67672
G1 X104.084 Y84.692 E0.72037
G1 X105.272 Y84.473 E0.77662
G1 X106.042 Y84.376 E0.81276
G1 X108.115 Y84.143 E0.9099
G1 X108.94 Y84.062 E0.9485
G1 X109.876 Y84.011 E0.99214
G1 X111.071 Y84.062 E1.04784
G1 X111.891 Y84.143 E1.08621
G1 X114.078 Y84.391 E1.1887
G1 X114.746 Y84.477 E1.22006
G1 X115.67 Y84.636 E1.26372
G1 X116.834 Y84.956 E1.31993
G1 X117.624 Y85.222 E1.35874
G1 X119.478 Y85.87 E1.45019
G1 X120.302 Y86.172 E1.49106
G1 X121.168 Y86.533 E1.53475
G1 X122.224 Y87.099 E1.59054
G1 X122.969 Y87.554 E1.63118
G1 X124.719 Y88.655 E1.72746
G1 X125.326 Y89.048 E1.76113
G1 X126.091 Y89.591 E1.80481
G1 X127.002 Y90.382 E1.86099
G1 X127.579 Y90.943 E1.89846
G1 X129.122 Y92.488 E2.00014
G1 X129.591 Y92.969 E2.03142
G1 X130.216 Y93.667 E2.07505
G1 X130.942 Y94.66 E2.13233
G1 X131.405 Y95.375 E2.17199
G1 X132.542 Y97.185 E2.27152
G1 X132.9 Y97.774 E2.30362
G1 X133.447 Y98.79 E2.35735
G1 X133.464 Y98.826 E2.3592
G1 X133.852 Y99.756 E2.40612
G1 X134.126 Y100.512 E2.44356
G1 X134.814 Y102.481 E2.54069
G1 X135.048 Y103.18 E2.57501
G1 X135.308 Y104.081 E2.61868
G1 X135.531 Y105.301 E2.67643
G1 X135.623 Y106.036 E2.71092
G1 X135.874 Y108.274 E2.81578
G1 X135.938 Y108.929 E2.84643
G1 X135.989 Y109.866 E2.89012
G1 X135.939 Y111.061 E2.94581
G1 X135.857 Y111.891 E2.98465
G1 X135.63 Y113.905 E3.07902
G1 X135.525 Y114.733 E3.11789
G1 X135.367 Y115.657 E3.16154
G1 X135.043 Y116.835 E3.21843
G1 X134.775 Y117.631 E3.25754
G1 X134.074 Y119.635 E3.3564
G1 X133.835 Y120.287 E3.38873
G1 X133.475 Y121.153 E3.4324
G1 X132.901 Y122.223 E3.48894
G1 X132.446 Y122.969 E3.52963
G1 X131.335 Y124.734 E3.62674
G1 X130.938 Y125.345 E3.66067
G1 X130.394 Y126.109 E3.70434
G1 X129.606 Y127.014 E3.76022
G1 X129.059 Y127.576 E3.79674
G1 X127.481 Y129.152 E3.90059
G1 X126.992 Y129.625 E3.93226
G1 X126.29 Y130.248 E3.97597
G1 X125.703 Y130.695 E4.01032
G1 X125.284 Y130.98 E4.03392
G1 X124.628 Y131.403 E4.07027
G1 X122.828 Y132.535 E4.16928
G1 X122.239 Y132.894 E4.2014
G1 X121.418 Y133.347 E4.24506
G1 X120.316 Y133.823 E4.30096
G1 X119.659 Y134.065 E4.33356
G1 X117.514 Y134.816 E4.43938
G1 X116.817 Y135.049 E4.4736
G1 X115.916 Y135.308 E4.51726
G1 X114.728 Y135.527 E4.57351
G1 X113.958 Y135.624 E4.60965
G1 X111.708 Y135.876 E4.71507
G1 X111.042 Y135.94 E4.74622
G1 X110.106 Y135.989 E4.78987
G1 X108.91 Y135.937 E4.84561
G1 X108.11 Y135.857 E4.88305
G1 X105.931 Y135.61 E4.98516
G1 X105.266 Y135.525 E5.01638
G1 X104.342 Y135.367 E5.06003
G1 X103.159 Y135.042 E5.11716
G1 X102.369 Y134.775 E5.15599
G1 X100.361 Y134.073 E5.25504
G1 X99.707 Y133.833 E5.28747
G1 X98.842 Y133.472 E5.33112
G1 X97.772 Y132.899 E5.38764
G1 X97.031 Y132.446 E5.42808
G1 X95.281 Y131.345 E5.52435
G1 X94.674 Y130.952 E5.55802
G1 X93.909 Y130.409 E5.60171
G1 X92.997 Y129.618 E5.65792
G1 X92.546 Y129.181 E5.68716
G1 X90.87 Y127.504 E5.79756
G1 X90.401 Y127.022 E5.82888
G1 X89.776 Y126.323 E5.87254
G1 X89.062 Y125.346 E5.92889
G1 X88.683 Y124.763 E5.96127
G1 X87.549 Y122.963 E6.06033
G1 X87.096 Y122.221 E6.10081
G1 X86.643 Y121.399 E6.14451
G1 X86.404 Y120.885 E6.17091
G1 X86.144 Y120.234 E6.20355
G1 X85.874 Y119.488 E6.24049
G1 X85.186 Y117.519 E6.33761
G1 X84.952 Y116.82 E6.37193
G1 X84.692 Y115.919 E6.4156
G1 X84.47 Y114.713 E6.4727
G1 X84.376 Y113.958 E6.50813
G1 X84.124 Y111.708 E6.61355
G1 X84.06 Y111.042 E6.64471
G1 X84.011 Y110.106 E6.68835
G1 X84.063 Y108.91 E6.74409
G1 X84.143 Y108.107 E6.78167
G1 X84.396 Y105.88 E6.88604
G1 X84.473 Y105.275 E6.91443
G1 X84.631 Y104.351 E6.95808
G1 X84.957 Y103.162 E7.01549
G1 X85.225 Y102.367 E7.05456
G1 X85.931 Y100.351 E7.15402
G1 X86.174 Y99.691 E7.18677
G1 X86.536 Y98.826 E7.23043
G1 X87.104 Y97.767 E7.28639
G1 X87.555 Y97.029 E7.32666
G1 X88.658 Y95.277 E7.42306
G1 X89.054 Y94.666 E7.45697
G1 X89.597 Y93.902 E7.50061
G1 X90.384 Y92.996 E7.55649
G1 X90.943 Y92.421 E7.59384
G0 F6000 X91.225 Y92.704
G1 F1200 X92.775 Y91.157 E7.69581
G1 X93.257 Y90.688 E7.72712
G1 X93.944 Y90.075 E7.76999
G1 X94.872 Y89.398 E7.82348
G1 X95.585 Y88.935 E7.86307
G1 X97.25 Y87.887 E7.95468
G1 X97.969 Y87.448 E7.99391
G1 X98.775 Y87.003 E8.03678
G1 X99.316 Y86.754 E8.06451
G1 X99.893 Y86.524 E8.09343
G1 X100.644 Y86.251 E8.13064
G1 X102.612 Y85.564 E8.2277
G1 X103.309 Y85.331 E8.26192
G1 X104.194 Y85.077 E8.30479
G1 X105.323 Y84.87 E8.35824
G1 X106.087 Y84.773 E8.3941
G1 X108.16 Y84.54 E8.49124
G1 X108.978 Y84.46 E8.52951
G1 X109.898 Y84.411 E8.57241
G1 X111.032 Y84.46 E8.62526
G1 X111.846 Y84.541 E8.66335
G1 X114.026 Y84.788 E8.76551
G1 X114.694 Y84.874 E8.79687
G1 X115.602 Y85.031 E8.83978
G1 X116.707 Y85.336 E8.89316
G1 X117.492 Y85.6 E8.93172
G1 X119.509 Y86.306 E9.03123
G1 X120.164 Y86.547 E9.06373
G1 X121.014 Y86.902 E9.10662
G1 X122.016 Y87.441 E9.1596
G1 X122.756 Y87.893 E9.19998
G1 X124.502 Y88.991 E9.29602
G1 X125.109 Y89.384 E9.32969
G1 X125.859 Y89.918 E9.37256
G1 X126.724 Y90.669 E9.4259
G1 X127.296 Y91.225 E9.46305
G1 X128.835 Y92.767 E9.56449
G1 X129.304 Y93.248 E9.59577
G1 X129.918 Y93.934 E9.63864
G1 X130.607 Y94.878 E9.69306
G1 X131.066 Y95.588 E9.73243
G1 X132.2 Y97.392 E9.83165
G1 X132.558 Y97.981 E9.86374
G1 X133.085 Y98.961 E9.91556
G1 X133.102 Y98.997 E9.91741
G1 X133.476 Y99.893 E9.96262
G1 X133.749 Y100.644 E9.99983
G1 X134.435 Y102.608 E10.0967
G1 X134.669 Y103.307 E10.13102
G1 X134.923 Y104.192 E10.1739
G1 X135.134 Y105.351 E10.22875
G1 X135.225 Y106.081 E10.26301
G1 X135.476 Y108.313 E10.36759
G1 X135.54 Y108.968 E10.39824
G1 X135.589 Y109.887 E10.44109
G1 X135.541 Y111.022 E10.49399
G1 X135.477 Y111.682 E10.52486
G1 X135.232 Y113.86 E10.62692
G1 X135.128 Y114.682 E10.6655
G1 X134.972 Y115.589 E10.70835
G1 X134.664 Y116.708 E10.7624
G1 X134.398 Y117.499 E10.80126
G1 X133.753 Y119.345 E10.89231
G1 X133.459 Y120.149 E10.93217
G1 X133.105 Y120.999 E10.97505
G1 X132.56 Y122.015 E11.02873
G1 X132.107 Y122.756 E11.06917
G1 X130.999 Y124.516 E11.16602
G1 X130.602 Y125.127 E11.19994
G1 X130.068 Y125.877 E11.24281
G1 X129.319 Y126.736 E11.29588
G1 X128.776 Y127.293 E11.3321
G1 X127.203 Y128.865 E11.43566
G1 X126.714 Y129.338 E11.46734
G1 X126.025 Y129.949 E11.51022
G1 X125.47 Y130.37 E11.54265
G1 X125.067 Y130.644 E11.56535
G1 X124.415 Y131.065 E11.60148
G1 X122.75 Y132.113 E11.69309
G1 X122.031 Y132.552 E11.73232
G1 X121.225 Y132.997 E11.77519
G1 X120.178 Y133.448 E11.82827
G1 X119.356 Y133.749 E11.86904
G1 X117.388 Y134.436 E11.9661
G1 X116.691 Y134.669 E12.00032
G1 X115.806 Y134.923 E12.04319
G1 X114.677 Y135.13 E12.09664
G1 X113.913 Y135.227 E12.1325
G1 X111.84 Y135.46 E12.22963
G1 X111.004 Y135.541 E12.26874
G1 X110.085 Y135.59 E12.3116
G1 X108.95 Y135.539 E12.3645
G1 X108.154 Y135.459 E12.40175
G1 X105.982 Y135.213 E12.50354
G1 X105.317 Y135.128 E12.53475
G1 X104.41 Y134.972 E12.57761
G1 X103.286 Y134.662 E12.6319
G1 X102.501 Y134.398 E12.67046
G1 X100.499 Y133.697 E12.76924
G1 X99.845 Y133.457 E12.80167
G1 X98.996 Y133.103 E12.84451
G1 X97.98 Y132.557 E12.89821
G1 X97.244 Y132.107 E12.93838
G1 X95.498 Y131.009 E13.03442
G1 X94.891 Y130.616 E13.0681
G1 X94.141 Y130.082 E13.11097
G1 X93.276 Y129.331 E13.16431
G1 X92.703 Y128.774 E13.20152
G1 X91.157 Y127.225 E13.30342
G1 X90.688 Y126.743 E13.33474
G1 X90.075 Y126.056 E13.37761
G1 X89.398 Y125.128 E13.4311
G1 X88.936 Y124.416 E13.47062
G1 X87.887 Y122.75 E13.56229
G1 X87.438 Y122.013 E13.60248
G1 X86.994 Y121.206 E13.64537
G1 X86.771 Y120.725 E13.67006
G1 X86.52 Y120.097 E13.70155
G1 X86.251 Y119.356 E13.73825
G1 X85.565 Y117.392 E13.83512
G1 X85.331 Y116.693 E13.86945
G1 X85.077 Y115.808 E13.91232
G1 X84.867 Y114.662 E13.96657
G1 X84.773 Y113.913 E14.00172
G1 X84.54 Y111.84 E14.09886
G1 X84.459 Y111.004 E14.13797
G1 X84.41 Y110.085 E14.18082
G1 X84.461 Y108.95 E14.23372
G1 X84.541 Y108.151 E14.27112
G1 X84.793 Y105.931 E14.37515
G1 X84.87 Y105.326 E14.40355
G1 X85.026 Y104.418 E14.44645
G1 X85.337 Y103.289 E14.50098
G1 X85.603 Y102.499 E14.53979
G1 X86.248 Y100.654 E14.6308
G1 X86.55 Y99.83 E14.67167
G1 X86.905 Y98.98 E14.71456
G1 X87.446 Y97.975 E14.76771
G1 X87.894 Y97.242 E14.80771
G1 X88.994 Y95.495 E14.90384
G1 X89.39 Y94.884 E14.93774
G1 X89.924 Y94.134 E14.98061
G1 X90.671 Y93.274 E15.03366
G1 X91.225 Y92.704 E15.07067
G0 F6000 X91.508 Y92.987
G1 F1200 X93.054 Y91.444 E15.17238
G1 X93.536 Y90.975 E15.20369
G1 X94.21 Y90.374 E15.24574
G1 X95.09 Y89.733 E15.29644
G1 X95.799 Y89.274 E15.33576
G1 X97.588 Y88.148 E15.43419
G1 X98.177 Y87.789 E15.46631
G1 X98.969 Y87.354 E15.50839
G1 X99.475 Y87.121 E15.53433
G1 X100.03 Y86.9 E15.56215
G1 X100.776 Y86.629 E15.5991
G1 X102.739 Y85.943 E15.69593
G1 X103.436 Y85.71 E15.73015
G1 X104.305 Y85.462 E15.77223
G1 X105.374 Y85.267 E15.82283
G1 X106.132 Y85.171 E15.85841
G1 X108.358 Y84.922 E15.9627
G1 X109.017 Y84.858 E15.99353
G1 X109.919 Y84.81 E16.03559
G1 X110.993 Y84.858 E16.08565
G1 X111.801 Y84.938 E16.12346
G1 X113.975 Y85.184 E16.22534
G1 X114.643 Y85.27 E16.2567
G1 X115.533 Y85.425 E16.29877
G1 X116.58 Y85.715 E16.34935
G1 X117.36 Y85.977 E16.38767
G1 X119.371 Y86.681 E16.48688
G1 X120.026 Y86.922 E16.51938
G1 X120.859 Y87.271 E16.56144
G1 X121.808 Y87.783 E16.61165
G1 X122.543 Y88.231 E16.65173
G1 X124.285 Y89.327 E16.74756
G1 X124.892 Y89.72 E16.78123
G1 X125.627 Y90.244 E16.82326
G1 X126.446 Y90.956 E16.8738
G1 X126.896 Y91.392 E16.90297
G1 X128.549 Y93.046 E17.01186
G1 X129.018 Y93.527 E17.04314
G1 X129.619 Y94.201 E17.08519
G1 X130.271 Y95.095 E17.13671
G1 X130.728 Y95.801 E17.17587
G1 X131.858 Y97.6 E17.2748
G1 X132.216 Y98.189 E17.30689
G1 X132.723 Y99.132 E17.35675
G1 X132.74 Y99.168 E17.3586
G1 X133.1 Y100.03 E17.4021
G1 X133.371 Y100.776 E17.43906
G1 X134.055 Y102.735 E17.53568
G1 X134.289 Y103.434 E17.57
G1 X134.538 Y104.302 E17.61205
G1 X134.737 Y105.401 E17.66405
G1 X134.828 Y106.126 E17.69808
G1 X135.078 Y108.352 E17.80238
G1 X135.142 Y109.007 E17.83303
G1 X135.19 Y109.909 E17.87509
G1 X135.142 Y110.983 E17.92515
G1 X135.062 Y111.801 E17.96342
G1 X134.817 Y113.966 E18.06487
G1 X134.732 Y114.631 E18.09609
G1 X134.578 Y115.521 E18.13815
G1 X134.285 Y116.581 E18.18936
G1 X134.02 Y117.367 E18.22798
G1 X133.323 Y119.36 E18.32629
G1 X133.084 Y120.012 E18.35863
G1 X132.736 Y120.845 E18.40067
G1 X132.218 Y121.807 E18.45154
G1 X131.769 Y122.543 E18.49169
G1 X130.747 Y124.169 E18.58111
G1 X130.267 Y124.909 E18.62218
G1 X129.742 Y125.644 E18.66424
G1 X129.032 Y126.457 E18.7145
G1 X128.493 Y127.01 E18.75046
G1 X126.925 Y128.577 E18.85368
G1 X126.436 Y129.05 E18.88536
G1 X125.759 Y129.649 E18.92746
G1 X125.238 Y130.044 E18.9579
G1 X124.85 Y130.308 E18.97975
G1 X124.201 Y130.726 E19.0157
G1 X122.412 Y131.852 E19.11413
G1 X121.823 Y132.211 E19.14625
G1 X121.031 Y132.646 E19.18832
G1 X120.04 Y133.072 E19.23855
G1 X119.224 Y133.371 E19.27902
G1 X117.261 Y134.057 E19.37584
G1 X116.564 Y134.29 E19.41006
G1 X115.695 Y134.538 E19.45214
G1 X114.626 Y134.733 E19.50274
G1 X113.868 Y134.829 E19.53832
G1 X111.632 Y135.079 E19.64309
G1 X110.966 Y135.143 E19.67424
G1 X110.064 Y135.19 E19.7163
G1 X108.989 Y135.141 E19.76641
G1 X108.199 Y135.062 E19.80338
G1 X106.033 Y134.817 E19.90488
G1 X105.368 Y134.732 E19.9361
G1 X104.478 Y134.578 E19.97815
G1 X103.414 Y134.283 E20.02957
G1 X102.633 Y134.02 E20.06794
G1 X100.637 Y133.322 E20.1664
G1 X99.983 Y133.082 E20.19884
G1 X99.15 Y132.733 E20.24089
G1 X98.189 Y132.216 E20.29171
G1 X97.457 Y131.769 E20.33164
G1 X95.715 Y130.673 E20.42748
G1 X95.108 Y130.28 E20.46115
G1 X94.373 Y129.756 E20.50318
G1 X93.554 Y129.043 E20.55374
G1 X92.986 Y128.491 E20.59063
G1 X91.444 Y126.946 E20.69227
G1 X90.975 Y126.464 E20.72358
G1 X90.374 Y125.79 E20.76563
G1 X89.733 Y124.91 E20.81633
G1 X89.275 Y124.203 E20.85555
G1 X88.14 Y122.399 E20.9548
G1 X87.779 Y121.805 E20.98716
G1 X87.345 Y121.014 E21.02917
G1 X87.137 Y120.564 E21.05226
G1 X86.896 Y119.961 E21.0825
G1 X86.629 Y119.224 E21.119
G1 X85.945 Y117.265 E21.21562
G1 X85.711 Y116.566 E21.24994
G1 X85.462 Y115.698 E21.29199
G1 X85.264 Y114.612 E21.34339
G1 X85.171 Y113.868 E21.3783
G1 X84.921 Y111.632 E21.48307
G1 X84.857 Y110.966 E21.51423
G1 X84.81 Y110.064 E21.55628
G1 X84.859 Y108.989 E21.60639
G1 X84.938 Y108.196 E21.6435
G1 X85.172 Y106.124 E21.74059
G1 X85.267 Y105.376 E21.7757
G1 X85.42 Y104.486 E21.81775
G1 X85.716 Y103.417 E21.8694
G1 X85.98 Y102.631 E21.90801
G1 X86.625 Y100.786 E21.99902
G1 X86.925 Y99.968 E22.03959
G1 X87.274 Y99.135 E22.08165
G1 X87.788 Y98.183 E22.13202
G1 X88.233 Y97.455 E22.17175
G1 X89.33 Y95.712 E22.26765
G1 X89.726 Y95.101 E22.30156
G1 X90.25 Y94.366 E22.34359
G1 X90.959 Y93.552 E22.39385
G1 X91.508 Y92.987 E22.43054
G1 F1500 E15.93054
;MESH:cylinder_1tenthmm_tol.stl
G0 F6000 X97.838 Y100.143
G0 X98.604 Y100.909
G0 X97.184 Y103.828
G0 X96.133 Y106.836
G0 X95.775 Y110
G0 X96.133 Y113.164
G0 X97.184 Y116.172
G0 X98.882 Y118.872
G0 X101.128 Y121.118
G0 X103.828 Y122.816
G0 X106.836 Y123.867
G0 X110 Y124.397
;TYPE:WALL-INNER
G1 F1500 E22.43054
G1 F1200 X106.8 Y124.036 E22.58049
G1 X103.751 Y122.969 E22.7309
G1 X101.024 Y121.255 E22.88088
G1 X98.745 Y118.976 E23.03096
G1 X97.031 Y116.249 E23.18094
G1 X95.964 Y113.2 E23.33136
G1 X95.603 Y110 E23.48131
G1 X95.964 Y106.8 E23.63126
G1 X97.031 Y103.751 E23.78167
G1 X98.745 Y101.024 E23.93165
G1 X101.024 Y98.745 E24.08173
G1 X103.751 Y97.031 E24.23171
G1 X106.8 Y95.964 E24.38213
G1 X110 Y95.603 E24.53208
G1 X113.2 Y95.964 E24.68203
G1 X116.249 Y97.031 E24.83244
G1 X118.976 Y98.745 E24.98242
G1 X121.255 Y101.024 E25.1325
G1 X122.969 Y103.751 E25.28248
G1 X124.036 Y106.8 E25.43289
G1 X124.397 Y110 E25.58285
G1 X124.036 Y113.2 E25.7328
G1 X122.969 Y116.249 E25.88321
G1 X121.255 Y118.976 E26.03319
G1 X118.976 Y121.255 E26.18327
G1 X116.249 Y122.969 E26.33325
G1 X113.2 Y124.036 E26.48366
G1 X110 Y124.397 E26.63361
G0 F6000 X110 Y124.799
;TYPE:WALL-OUTER
G1 F1200 X106.707 Y124.428 E26.78792
G1 X103.576 Y123.332 E26.94239
G1 X100.773 Y121.57 E27.09655
G1 X98.43 Y119.227 E27.25084
G1 X96.668 Y116.424 E27.40501
G1 X95.572 Y113.293 E27.55948
G1 X95.201 Y110 E27.71378
G1 X95.572 Y106.707 E27.86809
G1 X96.668 Y103.576 E28.02255
G1 X98.43 Y100.773 E28.17672
G1 X100.773 Y98.43 E28.33101
G1 X103.576 Y96.668 E28.48517
G1 X106.707 Y95.572 E28.63964
G1 X110 Y95.201 E28.79395
G1 X113.293 Y95.572 E28.94825
G1 X116.424 Y96.668 E29.10272
G1 X119.227 Y98.43 E29.25688
G1 X121.57 Y100.773 E29.41118
G1 X123.332 Y103.576 E29.56534
G1 X124.428 Y106.707 E29.71981
G1 X124.799 Y110 E29.87411
G1 X124.428 Y113.293 E30.02842
G1 X123.332 Y116.424 E30.18289
G1 X121.57 Y119.227 E30.33705
G1 X119.227 Y121.57 E30.49134
G1 X116.424 Y123.332 E30.64551
G1 X113.293 Y124.428 E30.79997
G1 X110 Y124.799 E30.95428
G0 F6000 X110 Y124.359
G1 F1500 E24.45428
G0 F6000 X111.669 Y123.997
G0 X110.055 Y109.683
;TYPE:SKIN
G1 F1500 E30.95428
G1 F1200 X110.191 Y109.768 E30.96175
G1 X110.232 Y109.809 E30.96445
G1 X110.317 Y109.945 E30.97191
G1 X110.325 Y110 E30.9745
G1 X110.317 Y110.055 E30.97709
