;FLAVOR:Marlin
;TIME:3019
;Filament used: 3.0143m
;Layer height: 0.28
;MINX:86.642
;MINY:69.047
;MINZ:0.28
;MAXX:133.458
;MAXY:121.121
;MAXZ:29.96
;Generated with Cura_SteamEngine 4.8.0
M140 S60
M105
M190 S60
M104 S200
M105
M109 S200
M82 ;absolute extrusion mode
; Ender 3 Custom Start G-code
G92 E0 ; Reset Extruder
G28 ; Home all axes
G1 Z2.0 F3000 ; Move Z Axis up little to prevent scratching of Heat Bed
G1 X0.1 Y20 Z0.3 F5000.0 ; Move to start position
G1 X0.1 Y200.0 Z0.3 F1500.0 E15 ; Draw the first line
G1 X0.4 Y200.0 Z0.3 F5000.0 ; Move to side a little
G1 X0.4 Y20 Z0.3 F1500.0 E30 ; Draw the second line
G92 E0 ; Reset Extruder
G1 Z2.0 F3000 ; Move Z Axis up little to prevent scratching of Heat Bed
G1 X5 Y20 Z0.3 F5000.0 ; Move over to prevent blob squish
G92 E0
G92 E0
G1 F1500 E-6.5
;LAYER_COUNT:107
;LAYER:0
M107
G0 F6000 X89.21 Y73.106 Z0.28
;TYPE:SKIRT
G1 F1500 E0
G1 F1200 X89.867 Y72.389 E0.04528
G1 X89.969 Y72.287 E0.052
G1 X90.66 Y71.653 E0.09567
G1 X91.402 Y71.079 E0.13935
G1 X92.191 Y70.572 E0.18302
G1 X93.019 Y70.133 E0.22666
G1 X93.883 Y69.766 E0.27037
G1 X94.774 Y69.474 E0.31403
G1 X95.687 Y69.26 E0.35769
G1 X96.615 Y69.123 E0.40137
G1 X97.557 Y69.067 E0.44532
G1 X98.6 Y69.049 E0.49389
G1 X98.826 Y69.047 E0.50441
G1 X106.72 Y69.073 E0.87199
G1 X107.897 Y69.082 E0.9268
G1 X108.485 Y69.079 E0.95418
G1 X112.124 Y69.09 E1.12363
G1 X113.543 Y69.092 E1.1897
G1 X114.191 Y69.097 E1.21988
G1 X116.004 Y69.104 E1.3043
G1 X117.287 Y69.106 E1.36404
G1 X121.839 Y69.124 E1.576
G1 X122.531 Y69.137 E1.60823
G1 X123.467 Y69.195 E1.6519
G1 X124.395 Y69.332 E1.69558
G1 X125.307 Y69.547 E1.73921
G1 X126.198 Y69.84 E1.78288
G1 X127.061 Y70.207 E1.82655
G1 X127.89 Y70.647 E1.87025
G1 X128.678 Y71.156 E1.91393
G1 X129.419 Y71.729 E1.95755
G1 X130.102 Y72.357 E2.00076
G1 X130.221 Y72.476 E2.00859
G1 X130.855 Y73.167 E2.05226
G1 X131.429 Y73.909 E2.09594
G1 X131.936 Y74.698 E2.13961
G1 X132.375 Y75.526 E2.18325
G1 X132.742 Y76.39 E2.22696
G1 X133.034 Y77.281 E2.27062
G1 X133.248 Y78.194 E2.31429
G1 X133.385 Y79.122 E2.35797
G1 X133.442 Y80.078 E2.40256
G1 X133.457 Y81.018 E2.44634
G1 X133.458 Y81.229 E2.45616
G1 X133.367 Y109.445 E3.77002
G1 X133.355 Y110.176 E3.80407
G1 X133.299 Y111.112 E3.84773
G1 X133.164 Y112.04 E3.89139
G1 X132.951 Y112.953 E3.93505
G1 X132.66 Y113.845 E3.97874
G1 X132.295 Y114.709 E4.02241
G1 X131.857 Y115.538 E4.06607
G1 X131.351 Y116.327 E4.10972
G1 X130.778 Y117.071 E4.15344
G1 X130.134 Y117.773 E4.1978
G1 X130.022 Y117.885 E4.20518
G1 X129.331 Y118.519 E4.24885
G1 X128.589 Y119.093 E4.29253
G1 X127.8 Y119.6 E4.3362
G1 X126.972 Y120.039 E4.37984
G1 X126.108 Y120.406 E4.42355
G1 X125.217 Y120.698 E4.46721
G1 X124.304 Y120.912 E4.51087
G1 X123.376 Y121.049 E4.55455
G1 X122.411 Y121.106 E4.59957
G1 X121.487 Y121.12 E4.6426
G1 X121.282 Y121.121 E4.65214
G1 X116.615 Y121.105 E4.86946
G1 X115.965 Y121.1 E4.89973
G1 X115.119 Y121.1 E4.93912
G1 X113.491 Y121.095 E5.01493
G1 X113.385 Y121.102 E5.01987
G1 X112.101 Y121.105 E5.07966
G1 X111.731 Y121.09 E5.0969
G1 X106.481 Y121.075 E5.34137
G1 X105.524 Y121.07 E5.38593
G1 X98.503 Y121.048 E5.71286
G1 X97.641 Y121.033 E5.753
G1 X96.705 Y120.975 E5.79667
G1 X95.777 Y120.838 E5.84035
G1 X94.865 Y120.622 E5.88399
G1 X93.974 Y120.33 E5.92765
G1 X93.111 Y119.962 E5.97134
G1 X92.282 Y119.522 E6.01504
G1 X91.494 Y119.014 E6.0587
G1 X90.753 Y118.44 E6.10234
G1 X90.062 Y117.805 E6.14604
G1 X89.429 Y117.113 E6.18971
G1 X89.056 Y116.645 E6.21758
G1 X88.947 Y116.5 E6.22602
G1 X88.416 Y115.727 E6.26969
G1 X87.953 Y114.911 E6.31338
G1 X87.561 Y114.059 E6.35705
G1 X87.243 Y113.177 E6.40071
G1 X87.001 Y112.271 E6.44437
G1 X86.837 Y111.347 E6.48807
G1 X86.743 Y110.165 E6.54328
G1 X86.737 Y109.839 E6.55846
G1 X86.734 Y109.259 E6.58547
G1 X86.808 Y86.599 E7.64062
G1 X86.781 Y84.078 E7.75802
G1 X86.658 Y81.172 E7.89345
G1 X86.646 Y80.763 E7.91251
G1 X86.642 Y80.279 E7.93505
G1 X86.646 Y80.006 E7.94776
G1 X86.7 Y79.07 E7.99142
G1 X86.833 Y78.141 E8.03511
G1 X87.045 Y77.228 E8.07876
G1 X87.334 Y76.335 E8.12246
G1 X87.698 Y75.471 E8.16612
G1 X88.134 Y74.641 E8.20978
G1 X88.639 Y73.851 E8.25344
G1 X89.21 Y73.106 E8.29714
G0 F6000 X89.604 Y73.26
G1 F1200 X90.15 Y72.672 E8.33451
G1 X90.252 Y72.57 E8.34122
G1 X90.93 Y71.948 E8.38407
G1 X91.66 Y71.387 E8.42694
G1 X92.436 Y70.891 E8.46982
G1 X93.252 Y70.465 E8.51268
G1 X94.102 Y70.111 E8.55556
G1 X94.98 Y69.833 E8.59844
G1 X95.878 Y69.631 E8.6413
G1 X96.791 Y69.508 E8.6842
G1 X97.564 Y69.467 E8.72024
G1 X98.607 Y69.449 E8.76882
G1 X98.825 Y69.447 E8.77897
G1 X106.717 Y69.473 E9.14645
G1 X107.896 Y69.482 E9.20136
G1 X108.484 Y69.479 E9.22874
G1 X112.123 Y69.49 E9.39818
G1 X113.54 Y69.492 E9.46417
G1 X114.188 Y69.497 E9.49434
G1 X116.003 Y69.504 E9.57885
G1 X117.286 Y69.506 E9.6386
G1 X121.831 Y69.524 E9.85023
G1 X122.523 Y69.537 E9.88246
G1 X123.442 Y69.594 E9.92534
G1 X124.352 Y69.731 E9.96819
G1 X125.248 Y69.946 E10.01109
G1 X126.121 Y70.238 E10.05396
G1 X126.965 Y70.605 E10.09681
G1 X127.774 Y71.044 E10.13967
G1 X128.543 Y71.551 E10.18256
G1 X129.264 Y72.123 E10.22541
G1 X129.819 Y72.64 E10.26073
G1 X129.938 Y72.759 E10.26857
G1 X130.56 Y73.437 E10.31141
G1 X131.121 Y74.167 E10.35428
G1 X131.617 Y74.943 E10.39717
G1 X132.043 Y75.759 E10.44003
G1 X132.397 Y76.609 E10.48291
G1 X132.675 Y77.487 E10.52579
G1 X132.877 Y78.385 E10.56865
G1 X133 Y79.298 E10.61155
G1 X133.042 Y80.085 E10.64824
G1 X133.057 Y81.025 E10.69202
G1 X133.058 Y81.228 E10.70147
G1 X132.967 Y109.438 E12.01505
G1 X132.955 Y110.169 E12.0491
G1 X132.899 Y111.088 E12.09197
G1 X132.765 Y111.999 E12.13485
G1 X132.552 Y112.894 E12.17769
G1 X132.262 Y113.768 E12.22056
G1 X131.897 Y114.613 E12.26342
G1 X131.46 Y115.424 E12.30632
G1 X130.955 Y116.193 E12.34916
G1 X130.385 Y116.916 E12.39203
G1 X129.851 Y117.49 E12.42854
G1 X129.739 Y117.602 E12.43591
G1 X129.061 Y118.224 E12.47875
G1 X128.331 Y118.785 E12.52162
G1 X127.555 Y119.281 E12.56451
G1 X126.739 Y119.707 E12.60737
G1 X125.889 Y120.061 E12.65025
G1 X125.011 Y120.339 E12.69313
G1 X124.113 Y120.541 E12.73599
G1 X123.2 Y120.664 E12.77889
G1 X122.405 Y120.706 E12.81596
G1 X121.481 Y120.72 E12.85899
G1 X121.283 Y120.721 E12.86821
G1 X116.618 Y120.705 E13.08543
G1 X115.968 Y120.7 E13.1157
G1 X113.517 Y120.696 E13.22983
G1 X113.384 Y120.702 E13.23603
G1 X112.1 Y120.705 E13.29581
G1 X111.737 Y120.69 E13.31273
G1 X106.483 Y120.675 E13.55738
G1 X105.526 Y120.67 E13.60194
G1 X98.504 Y120.648 E13.92892
G1 X97.649 Y120.633 E13.96874
G1 X96.73 Y120.576 E14.01161
G1 X95.819 Y120.439 E14.05451
G1 X94.924 Y120.224 E14.09737
G1 X94.051 Y119.931 E14.14025
G1 X93.207 Y119.564 E14.1831
G1 X92.398 Y119.126 E14.22594
G1 X91.629 Y118.618 E14.26886
G1 X90.908 Y118.046 E14.31171
G1 X90.239 Y117.414 E14.35457
G1 X89.376 Y116.404 E14.41643
G1 X89.267 Y116.259 E14.42487
G1 X88.746 Y115.5 E14.46774
G1 X88.293 Y114.699 E14.51059
G1 X87.912 Y113.861 E14.55345
G1 X87.604 Y112.993 E14.59634
G1 X87.373 Y112.102 E14.6392
G1 X87.22 Y111.194 E14.68208
G1 X87.143 Y110.155 E14.73059
G1 X87.137 Y109.837 E14.7454
G1 X87.134 Y109.26 E14.77227
G1 X87.208 Y86.599 E15.82746
G1 X87.181 Y84.057 E15.94584
G1 X87.058 Y81.16 E16.08085
G1 X87.046 Y80.751 E16.09991
G1 X87.042 Y80.285 E16.12161
G1 X87.046 Y80.012 E16.13432
G1 X87.1 Y79.093 E16.17719
G1 X87.233 Y78.182 E16.22006
G1 X87.444 Y77.286 E16.26292
G1 X87.733 Y76.411 E16.30583
G1 X88.096 Y75.565 E16.34869
G1 X88.531 Y74.754 E16.39155
G1 X89.035 Y73.984 E16.4344
G1 X89.604 Y73.26 E16.47728
G0 F6000 X89.998 Y73.417
G1 F1200 X90.433 Y72.955 E16.50683
G1 X90.535 Y72.853 E16.51354
G1 X91.201 Y72.243 E16.5556
G1 X91.918 Y71.694 E16.59765
G1 X92.682 Y71.212 E16.63971
G1 X93.485 Y70.798 E16.68178
G1 X94.321 Y70.458 E16.7238
G1 X95.184 Y70.192 E16.76585
G1 X96.067 Y70.004 E16.80789
G1 X96.964 Y69.895 E16.84996
G1 X97.571 Y69.867 E16.87826
G1 X98.824 Y69.847 E16.93661
G1 X106.714 Y69.873 E17.304
G1 X107.895 Y69.882 E17.359
G1 X108.483 Y69.879 E17.38638
G1 X112.122 Y69.89 E17.55583
G1 X113.537 Y69.892 E17.62171
G1 X114.185 Y69.897 E17.65189
G1 X116.001 Y69.904 E17.73645
G1 X117.284 Y69.906 E17.79619
G1 X121.824 Y69.924 E18.0076
G1 X122.516 Y69.937 E18.03982
G1 X123.417 Y69.994 E18.08186
G1 X124.31 Y70.13 E18.12392
G1 X125.187 Y70.345 E18.16597
G1 X126.042 Y70.637 E18.20804
G1 X126.867 Y71.003 E18.25007
G1 X127.657 Y71.44 E18.2921
G1 X128.405 Y71.946 E18.33416
G1 X129.106 Y72.516 E18.37623
G1 X129.536 Y72.923 E18.40379
G1 X129.655 Y73.042 E18.41163
G1 X130.265 Y73.708 E18.45369
G1 X130.814 Y74.425 E18.49573
G1 X131.296 Y75.189 E18.5378
G1 X131.71 Y75.992 E18.57987
G1 X132.05 Y76.828 E18.62189
G1 X132.316 Y77.691 E18.66394
G1 X132.504 Y78.574 E18.70598
G1 X132.613 Y79.471 E18.74805
G1 X132.642 Y80.091 E18.77695
G1 X132.657 Y81.031 E18.82073
G1 X132.658 Y81.227 E18.82986
G1 X132.567 Y109.431 E20.14316
G1 X132.555 Y110.162 E20.1772
G1 X132.5 Y111.064 E20.21928
G1 X132.366 Y111.957 E20.26133
G1 X132.153 Y112.835 E20.3034
G1 X131.863 Y113.69 E20.34544
G1 X131.499 Y114.516 E20.38747
G1 X131.063 Y115.307 E20.42953
G1 X130.559 Y116.057 E20.4716
G1 X129.991 Y116.759 E20.51365
G1 X129.568 Y117.207 E20.54234
G1 X129.456 Y117.319 E20.54972
G1 X128.79 Y117.929 E20.59177
G1 X128.073 Y118.478 E20.63382
G1 X127.309 Y118.96 E20.67588
G1 X126.506 Y119.374 E20.71795
G1 X125.67 Y119.714 E20.75998
G1 X124.807 Y119.98 E20.80203
G1 X123.924 Y120.168 E20.84406
G1 X123.027 Y120.277 E20.88614
G1 X122.399 Y120.306 E20.91541
G1 X121.475 Y120.32 E20.95844
G1 X121.285 Y120.321 E20.96729
G1 X116.622 Y120.305 E21.18442
G1 X115.972 Y120.3 E21.21469
G1 X113.567 Y120.296 E21.32667
G1 X113.383 Y120.302 E21.33525
G1 X112.099 Y120.305 E21.39504
G1 X111.743 Y120.29 E21.41163
G1 X106.485 Y120.275 E21.65646
G1 X105.528 Y120.27 E21.70103
G1 X98.505 Y120.248 E22.02805
G1 X97.656 Y120.233 E22.06759
G1 X96.755 Y120.176 E22.10962
G1 X95.862 Y120.04 E22.15169
G1 X94.985 Y119.825 E22.19373
G1 X94.13 Y119.533 E22.2358
G1 X93.305 Y119.167 E22.27783
G1 X92.515 Y118.729 E22.31989
G1 X91.767 Y118.223 E22.36194
G1 X91.066 Y117.653 E22.40401
G1 X90.419 Y117.023 E22.44606
G1 X89.696 Y116.164 E22.49834
G1 X89.587 Y116.019 E22.50679
G1 X89.077 Y115.274 E22.54883
G1 X88.634 Y114.486 E22.59092
G1 X88.263 Y113.663 E22.63296
G1 X87.967 Y112.81 E22.675
G1 X87.747 Y111.934 E22.71706
G1 X87.605 Y111.042 E22.75912
G1 X87.543 Y110.145 E22.80098
G1 X87.537 Y109.834 E22.81547
G1 X87.534 Y109.262 E22.8421
G1 X87.608 Y86.566 E23.89893
G1 X87.581 Y84.066 E24.01535
G1 X87.457 Y81.148 E24.15134
G1 X87.445 Y80.739 E24.1704
G1 X87.442 Y80.291 E24.19126
G1 X87.446 Y80.018 E24.20397
G1 X87.499 Y79.116 E24.24604
G1 X87.632 Y78.223 E24.28808
G1 X87.843 Y77.345 E24.33013
G1 X88.131 Y76.489 E24.37219
G1 X88.494 Y75.662 E24.41424
G1 X88.928 Y74.87 E24.45629
G1 X89.431 Y74.12 E24.49834
G1 X89.998 Y73.417 E24.5404
G1 F1500 E18.0404
G0 F6000 X112.249 Y79.43
G0 X117.725 Y79.456
G0 X119.661 Y82.715
G1 F1500 E24.5404
G1 F1200 X119.853 Y82.716 E24.54934
G1 X119.774 Y107.516 E25.70414
G1 X119.58 Y107.515 E25.71317
G1 X119.661 Y82.715 E26.86797
G0 F6000 X119.263 Y82.314
G1 F1200 X120.254 Y82.317 E26.91411
G1 X120.173 Y107.917 E28.10616
G1 X119.178 Y107.914 E28.1525
G1 X119.263 Y82.314 E29.34454
G0 F6000 X118.864 Y81.912
G1 F1200 X120.656 Y81.918 E29.42799
G1 X120.571 Y108.319 E30.65734
G1 X118.777 Y108.313 E30.74087
G1 X118.864 Y81.912 E31.97022
G0 F6000 X118.465 Y81.511
G1 F1200 X121.057 Y81.519 E32.09092
G1 X120.97 Y108.72 E33.35751
G1 X118.376 Y108.712 E33.4783
G1 X118.465 Y81.511 E34.7449
G0 F6000 X118.067 Y81.11
G1 F1200 X121.458 Y81.121 E34.9028
G1 X121.369 Y109.122 E36.20665
G1 X117.974 Y109.111 E36.36474
G1 X118.067 Y81.11 E37.66859
G0 F6000 X117.668 Y80.708
G1 F1200 X121.86 Y80.722 E37.86379
G1 X121.768 Y109.523 E39.20489
G1 X117.573 Y109.509 E39.40023
G1 X117.668 Y80.708 E40.74133
G0 F6000 X117.269 Y80.307
G1 F1200 X122.25 Y80.324 E40.97327
G1 X122.261 Y80.336 E40.97403
G1 X122.166 Y109.922 E42.35168
G1 X121.508 Y109.922 E42.38232
G1 X117.172 Y109.907 E42.58422
G1 X117.269 Y80.307 E43.96253
G1 F1500 E37.46253
G0 F6000 X117.735 Y80.308
G0 X117.725 Y79.456
G0 X107.851 Y79.417
G0 X102.377 Y79.406
G0 X102.362 Y80.259
G0 X102.827 Y80.26
G1 F1500 E43.96253
G1 F1200 X102.73 Y109.861 E45.34089
G1 X101.513 Y109.857 E45.39755
G1 X101.339 Y109.858 E45.40566
G1 X97.932 Y109.845 E45.5643
G1 X98.026 Y80.89 E46.91257
G1 X98.002 Y80.793 E46.91723
G1 X97.834 Y80.484 E46.93361
G1 X97.835 Y80.244 E46.94478
G1 X100.279 Y80.253 E47.05858
G1 X102.827 Y80.26 E47.17723
G0 F6000 X102.426 Y80.659
G1 F1200 X102.331 Y109.46 E48.51833
G1 X101.511 Y109.457 E48.55652
G1 X101.338 Y109.458 E48.56457
G1 X98.334 Y109.447 E48.70445
G1 X98.426 Y80.891 E50.03415
G1 X98.364 Y80.646 E50.04591
G1 X100.279 Y80.653 E50.13508
G1 X102.426 Y80.659 E50.23506
G0 F6000 X102.025 Y81.058
G1 F1200 X101.932 Y109.058 E51.53886
G1 X99.588 Y109.052 E51.64801
G1 X98.735 Y109.048 E51.68773
G1 X98.825 Y81.048 E52.99153
G1 X100.278 Y81.053 E53.05919
G1 X102.025 Y81.058 E53.14054
G0 F6000 X101.623 Y81.457
G1 F1200 X101.534 Y108.657 E54.40709
G1 X101.336 Y108.658 E54.41631
G1 X99.136 Y108.65 E54.51875
G1 X99.224 Y81.45 E55.78531
G1 X101.623 Y81.457 E55.89701
G0 F6000 X101.222 Y81.856
G1 F1200 X101.135 Y108.257 E57.12636
G1 X99.537 Y108.252 E57.20077
G1 X99.623 Y81.851 E58.43012
G1 X101.222 Y81.856 E58.50458
G0 F6000 X100.821 Y82.254
G1 F1200 X100.736 Y107.856 E59.69672
G1 X99.939 Y107.853 E59.73383
G1 X100.022 Y82.252 E60.92593
G1 X100.821 Y82.254 E60.96313
G1 F1500 E54.46313
G0 F6000 X102.362 Y80.26
G0 X103.227 Y80.262
;TYPE:SUPPORT-INTERFACE
G1 F1500 E60.96313
G1 F1200 X103.541 Y80.263 E60.97775
G1 X104.011 Y80.265 E60.99964
G1 X104.199 Y80.266 E61.00839
G1 X104.87 Y80.268 E61.03964
G1 X105.052 Y80.269 E61.04811
G1 X106.321 Y80.272 E61.1072
G1 X106.227 Y109.872 E62.48551
G1 X105.582 Y109.871 E62.51554
G1 X103.13 Y109.863 E62.62972
G1 X103.227 Y80.262 E64.00807
G1 F1500 E57.50807
G0 F6000 X103.23 Y79.397
G0 X112.249 Y79.43
G0 X112.753 Y79.937
G0 X112.753 Y80.364
G0 X113.773 Y80.296
G1 F1500 E64.00807
G1 F1200 X114.413 Y80.297 E64.03787
G1 X115.278 Y80.307 E64.07815
G1 X116.34 Y80.303 E64.12761
G1 X116.869 Y80.305 E64.15224
G1 X116.772 Y109.905 E65.53055
G1 X116.428 Y109.904 E65.54656
G1 X115.569 Y109.893 E65.58657
G1 X115.148 Y109.9 E65.60617
G1 X113.678 Y109.896 E65.67462
G1 X113.773 Y80.296 E67.05293
G0 F6000 X114.438 Y80.497
G1 F1200 X116.659 Y82.718 E67.19919
G0 F6000 X116.656 Y83.596
G1 F1200 X113.953 Y86.299 E67.37718
G0 F6000 X113.95 Y86.798
G1 F1200 X116.638 Y89.485 E67.55416
G0 F6000 X116.634 Y90.406
G1 F1200 X113.931 Y93.108 E67.73212
G0 F6000 X113.929 Y93.565
G1 F1200 X116.616 Y96.252 E67.90907
G0 F6000 X116.612 Y97.216
G1 F1200 X113.909 Y99.919 E68.08706
G0 F6000 X113.908 Y100.332
G1 F1200 X116.594 Y103.018 E68.26394
G0 F6000 X116.59 Y104.026
G1 F1200 X113.888 Y106.728 E68.44187
G0 F6000 X113.886 Y107.098
G1 F1200 X116.492 Y109.704 E68.61348
G0 F6000 X114.313 Y109.698
G1 F1200 X116.579 Y107.431 E68.76274
G0 F6000 X116.584 Y106.401
G1 F1200 X113.897 Y103.714 E68.93968
G0 F6000 X113.899 Y103.323
G1 F1200 X116.601 Y100.621 E69.11761
G0 F6000 X116.605 Y99.634
G1 F1200 X113.919 Y96.948 E69.29449
G0 F6000 X113.921 Y96.513
G1 F1200 X116.623 Y93.811 E69.47242
G0 F6000 X116.627 Y92.868
G1 F1200 X113.94 Y90.181 E69.64936
G0 F6000 X113.942 Y89.704
G1 F1200 X116.645 Y87.001 E69.82736
G0 F6000 X116.649 Y86.102
G1 F1200 X113.961 Y83.414 E70.00437
G0 F6000 X113.964 Y82.894
G1 F1200 X116.355 Y80.503 E70.16182
G1 F1500 E63.66182
G0 F6000 X116.34 Y79.438
G0 X107.851 Y79.417
G0 X107.345 Y79.92
G0 X107.341 Y80.271
G0 X107.186 Y80.56
G0 X106.118 Y80.557
G1 F1500 E70.16182
G1 F1200 X103.417 Y83.258 E70.33969
G0 F6000 X103.417 Y83.052
G1 F1200 X106.102 Y85.738 E70.51653
G0 F6000 X106.097 Y87.367
G1 F1200 X103.394 Y90.069 E70.6945
G0 F6000 X103.395 Y89.818
G1 F1200 X106.081 Y92.505 E70.87141
G0 F6000 X106.075 Y94.176
G1 F1200 X103.372 Y96.879 E71.0494
G0 F6000 X103.373 Y96.585
G1 F1200 X106.06 Y99.272 E71.22635
G0 F6000 X106.065 Y97.581
G1 F1200 X103.362 Y100.284 E71.40434
G0 F6000 X103.362 Y99.967
G1 F1200 X106.049 Y102.655 E71.58132
