;FLAVOR:Marlin
;TIME:1576
;Filament used: 0.561036m
;Layer height: 0.12
;MINX:78.759
;MINY:79.596
;MINZ:0.12
;MAXX:141.241
;MAXY:119.428
;MAXZ:5.04
;Generated with Cura_SteamEngine 4.8.0
M140 S60
M105
M190 S60
M104 S200
M105
M109 S200
M82 ;absolute extrusion mode
; Ender 3 Custom Start G-code
G92 E0 ; Reset Extruder
G28 ; Home all axes
G1 Z2.0 F3000 ; Move Z Axis up little to prevent scratching of Heat Bed
G1 X0.1 Y20 Z0.3 F5000.0 ; Move to start position
G1 X0.1 Y200.0 Z0.3 F1500.0 E15 ; Draw the first line
G1 X0.4 Y200.0 Z0.3 F5000.0 ; Move to side a little
G1 X0.4 Y20 Z0.3 F1500.0 E30 ; Draw the second line
G92 E0 ; Reset Extruder
G1 Z2.0 F3000 ; Move Z Axis up little to prevent scratching of Heat Bed
G1 X5 Y20 Z0.3 F5000.0 ; Move over to prevent blob squish
G92 E0
G92 E0
G1 F1500 E-6.5
;LAYER_COUNT:42
;LAYER:0
M107
G0 F6000 X82.345 Y83.023 Z0.12
;TYPE:SKIRT
G1 F1500 E0
G1 F1200 X83.245 Y82.237 E0.02385
G1 X83.507 Y82.032 E0.03048
G1 X84.269 Y81.486 E0.04919
G1 X85.075 Y81.007 E0.0679
G1 X85.92 Y80.598 E0.08664
G1 X86.796 Y80.263 E0.10535
G1 X87.603 Y80.027 E0.12213
G1 X87.953 Y79.939 E0.12933
G1 X88.871 Y79.749 E0.14804
G1 X89.803 Y79.639 E0.16677
G1 X90.47 Y79.608 E0.1801
G1 X91.369 Y79.596 E0.19804
G1 X128.834 Y79.598 E0.94569
G1 X129.539 Y79.609 E0.95976
G1 X130.475 Y79.664 E0.97847
G1 X131.215 Y79.764 E0.99338
G1 X131.303 Y79.779 E0.99516
G1 X132.078 Y79.94 E1.01095
G1 X132.302 Y79.995 E1.01556
G1 X133.202 Y80.258 E1.03427
G1 X134.077 Y80.596 E1.05299
G1 X134.92 Y81.007 E1.0717
G1 X135.725 Y81.488 E1.09042
G1 X136.222 Y81.835 E1.10251
G1 X136.518 Y82.054 E1.10986
G1 X137.247 Y82.644 E1.12858
G1 X137.924 Y83.293 E1.14729
G1 X138.542 Y83.998 E1.166
G1 X139.303 Y85.067 E1.19219
G1 X139.358 Y85.155 E1.19426
G1 X139.606 Y85.572 E1.20394
G1 X139.723 Y85.779 E1.20869
G1 X140.149 Y86.615 E1.22741
G1 X140.503 Y87.483 E1.24612
G1 X140.781 Y88.379 E1.26484
G1 X140.941 Y89.071 E1.27901
G1 X141.02 Y89.473 E1.28719
G1 X141.161 Y90.4 E1.3059
G1 X141.224 Y91.402 E1.32594
G1 X141.241 Y92.454 E1.34693
G1 X141.24 Y107.843 E1.65404
G1 X141.23 Y108.57 E1.66855
G1 X141.177 Y109.507 E1.68727
G1 X141.045 Y110.435 E1.70598
G1 X140.834 Y111.349 E1.7247
G1 X140.545 Y112.241 E1.74341
G1 X140.182 Y113.106 E1.76213
G1 X139.747 Y113.937 E1.78085
G1 X139.242 Y114.727 E1.79956
G1 X138.672 Y115.472 E1.81828
G1 X138.041 Y116.166 E1.837
G1 X137.352 Y116.803 E1.85573
G1 X136.612 Y117.379 E1.87444
G1 X135.826 Y117.89 E1.89315
G1 X134.999 Y118.332 E1.91186
G1 X134.137 Y118.702 E1.93058
G1 X133.247 Y118.997 E1.94929
G1 X132.335 Y119.216 E1.96801
G1 X131.408 Y119.356 E1.98672
G1 X130.54 Y119.415 E2.00408
G1 X130.22 Y119.424 E2.01047
G1 X129.911 Y119.428 E2.01664
G1 X126.81 Y119.427 E2.07852
G1 X126.094 Y119.416 E2.09281
G1 X125.158 Y119.361 E2.11152
G1 X124.554 Y119.283 E2.12367
G1 X123.889 Y119.178 E2.13711
G1 X121.317 Y118.811 E2.18896
G1 X118.824 Y118.527 E2.23903
G1 X116.315 Y118.313 E2.28928
G1 X113.784 Y118.169 E2.33987
G1 X111.299 Y118.098 E2.38948
G1 X108.777 Y118.098 E2.43981
G1 X106.252 Y118.169 E2.49022
G1 X103.731 Y118.311 E2.54061
G1 X101.225 Y118.523 E2.5908
G1 X98.731 Y118.806 E2.64089
G1 X96.177 Y119.169 E2.69237
G1 X95.792 Y119.232 E2.70015
G1 X95.273 Y119.308 E2.71062
G1 X94.027 Y119.415 E2.73558
G1 X93.708 Y119.424 E2.74195
G1 X93.398 Y119.428 E2.74813
G1 X90.324 Y119.427 E2.80948
G1 X89.626 Y119.418 E2.82341
G1 X88.69 Y119.366 E2.84212
G1 X87.761 Y119.234 E2.86084
G1 X86.847 Y119.024 E2.87956
G1 X85.954 Y118.737 E2.89828
G1 X85.089 Y118.374 E2.917
G1 X84.258 Y117.94 E2.9357
G1 X83.467 Y117.436 E2.95442
G1 X82.722 Y116.866 E2.97314
G1 X82.028 Y116.235 E2.99186
G1 X81.391 Y115.548 E3.01056
G1 X80.814 Y114.808 E3.02928
G1 X80.302 Y114.022 E3.048
G1 X79.859 Y113.195 E3.06672
G1 X79.488 Y112.334 E3.08543
G1 X79.192 Y111.444 E3.10415
G1 X78.973 Y110.532 E3.12287
G1 X78.832 Y109.605 E3.14158
G1 X78.772 Y108.716 E3.15936
G1 X78.763 Y108.383 E3.16601
G1 X78.759 Y108.086 E3.17194
G1 X78.76 Y92.145 E3.49006
G1 X78.771 Y91.428 E3.50437
G1 X78.826 Y90.492 E3.52308
G1 X78.93 Y89.726 E3.53851
G1 X78.993 Y89.361 E3.5459
G1 X79.192 Y88.444 E3.56462
G1 X79.468 Y87.548 E3.58333
G1 X79.82 Y86.679 E3.60204
G1 X80.031 Y86.24 E3.61176
G1 X80.086 Y86.132 E3.61418
G1 X80.467 Y85.446 E3.62984
G1 X80.602 Y85.222 E3.63506
G1 X81.12 Y84.44 E3.65378
G1 X81.702 Y83.705 E3.67249
G1 X82.345 Y83.023 E3.69119
G0 F6000 X82.661 Y83.274
G1 F1200 X83.491 Y82.552 E3.71315
G1 X83.753 Y82.347 E3.71979
G1 X84.502 Y81.811 E3.73817
G1 X85.295 Y81.343 E3.75654
G1 X86.125 Y80.945 E3.77491
G1 X86.987 Y80.621 E3.79329
G1 X87.7 Y80.415 E3.8081
G1 X88.05 Y80.327 E3.8153
G1 X88.952 Y80.141 E3.83368
G1 X89.867 Y80.035 E3.85206
G1 X90.476 Y80.008 E3.86423
G1 X91.369 Y79.996 E3.88205
G1 X128.827 Y79.998 E4.62956
G1 X129.532 Y80.009 E4.64364
G1 X130.451 Y80.064 E4.66201
G1 X131.148 Y80.159 E4.67605
G1 X131.236 Y80.174 E4.67783
G1 X131.983 Y80.329 E4.69305
G1 X132.207 Y80.384 E4.69765
G1 X133.09 Y80.642 E4.71601
G1 X133.948 Y80.976 E4.73439
G1 X134.774 Y81.383 E4.75276
G1 X135.561 Y81.86 E4.77113
G1 X135.984 Y82.157 E4.78144
G1 X136.28 Y82.376 E4.78879
G1 X136.995 Y82.955 E4.80715
G1 X137.658 Y83.594 E4.82553
G1 X138.263 Y84.288 E4.8439
G1 X138.964 Y85.279 E4.86812
G1 X139.019 Y85.367 E4.87019
G1 X139.258 Y85.769 E4.87953
G1 X139.375 Y85.976 E4.88427
G1 X139.793 Y86.797 E4.90266
G1 X140.138 Y87.65 E4.92102
G1 X140.407 Y88.53 E4.93938
G1 X140.548 Y89.148 E4.95203
G1 X140.627 Y89.55 E4.96021
G1 X140.765 Y90.46 E4.97858
G1 X140.824 Y91.409 E4.99755
G1 X140.841 Y92.454 E5.01841
G1 X140.84 Y107.838 E5.32541
G1 X140.83 Y108.565 E5.33992
G1 X140.777 Y109.484 E5.35829
G1 X140.645 Y110.395 E5.37666
G1 X140.434 Y111.291 E5.39503
G1 X140.147 Y112.166 E5.41341
G1 X139.784 Y113.012 E5.43178
G1 X139.35 Y113.824 E5.45015
G1 X138.846 Y114.595 E5.46854
G1 X138.278 Y115.319 E5.4869
G1 X137.649 Y115.991 E5.50527
G1 X136.964 Y116.606 E5.52364
G1 X136.228 Y117.159 E5.54201
G1 X135.447 Y117.647 E5.56039
G1 X134.627 Y118.065 E5.57876
G1 X133.773 Y118.41 E5.59714
G1 X132.893 Y118.679 E5.6155
G1 X131.992 Y118.872 E5.63389
G1 X131.079 Y118.985 E5.65225
G1 X130.529 Y119.015 E5.66324
G1 X130.209 Y119.024 E5.66963
G1 X129.911 Y119.028 E5.67558
G1 X126.816 Y119.027 E5.73734
G1 X126.1 Y119.016 E5.75163
G1 X125.181 Y118.962 E5.77
G1 X124.616 Y118.888 E5.78137
G1 X123.932 Y118.78 E5.79519
G1 X121.387 Y118.417 E5.84649
G1 X118.867 Y118.13 E5.89711
G1 X116.335 Y117.914 E5.94782
G1 X113.819 Y117.771 E5.99811
G1 X111.276 Y117.698 E6.04888
G1 X108.766 Y117.698 E6.09897
G1 X106.217 Y117.769 E6.14986
G1 X103.711 Y117.91 E6.19995
G1 X101.182 Y118.125 E6.2506
G1 X98.701 Y118.406 E6.30043
G1 X96.107 Y118.775 E6.35271
G1 X95.728 Y118.837 E6.36038
G1 X95.216 Y118.912 E6.3707
G1 X94.016 Y119.015 E6.39474
G1 X93.697 Y119.024 E6.40111
G1 X93.398 Y119.028 E6.40707
G1 X90.329 Y119.027 E6.46832
G1 X89.631 Y119.018 E6.48225
G1 X88.712 Y118.966 E6.50062
G1 X87.801 Y118.835 E6.51899
G1 X86.905 Y118.625 E6.53735
G1 X86.03 Y118.338 E6.55573
G1 X85.183 Y117.976 E6.57411
G1 X84.371 Y117.542 E6.59248
G1 X83.6 Y117.04 E6.61084
G1 X82.875 Y116.472 E6.62922
G1 X82.202 Y115.843 E6.64761
G1 X81.587 Y115.159 E6.66596
G1 X81.033 Y114.424 E6.68433
G1 X80.545 Y113.643 E6.70271
G1 X80.126 Y112.823 E6.72109
G1 X79.78 Y111.97 E6.73945
G1 X79.51 Y111.09 E6.75782
G1 X79.317 Y110.189 E6.77621
G1 X79.203 Y109.276 E6.79457
G1 X79.172 Y108.705 E6.80599
G1 X79.163 Y108.372 E6.81263
G1 X79.159 Y108.086 E6.81834
G1 X79.16 Y92.151 E7.13634
G1 X79.171 Y91.434 E7.15065
G1 X79.225 Y90.515 E7.16902
G1 X79.324 Y89.794 E7.18355
G1 X79.387 Y89.429 E7.19094
G1 X79.583 Y88.529 E7.20932
G1 X79.856 Y87.65 E7.22769
G1 X80.387 Y86.422 E7.25439
G1 X80.442 Y86.314 E7.2568
G1 X80.809 Y85.652 E7.27191
G1 X80.944 Y85.428 E7.27713
G1 X81.453 Y84.661 E7.2955
G1 X82.027 Y83.941 E7.31388
G1 X82.661 Y83.274 E7.33224
G0 F6000 X82.976 Y83.526
G1 F1200 X83.737 Y82.867 E7.35233
G1 X83.999 Y82.662 E7.35897
G1 X84.735 Y82.137 E7.37701
G1 X85.513 Y81.68 E7.39502
G1 X86.33 Y81.293 E7.41306
G1 X87.177 Y80.98 E7.43108
G1 X87.798 Y80.803 E7.44396
G1 X88.148 Y80.715 E7.45116
G1 X89.033 Y80.534 E7.46919
G1 X89.93 Y80.431 E7.48721
G1 X90.482 Y80.408 E7.49823
G1 X91.369 Y80.396 E7.51594
G1 X128.821 Y80.398 E8.26333
G1 X129.526 Y80.409 E8.2774
G1 X130.428 Y80.463 E8.29544
G1 X131.081 Y80.553 E8.30859
G1 X131.169 Y80.568 E8.31037
G1 X131.887 Y80.717 E8.32501
G1 X132.111 Y80.772 E8.32961
G1 X132.978 Y81.026 E8.34764
G1 X133.819 Y81.356 E8.36567
G1 X134.627 Y81.759 E8.38369
G1 X135.746 Y82.478 E8.41023
G1 X136.042 Y82.697 E8.41758
G1 X136.743 Y83.266 E8.43559
G1 X137.392 Y83.895 E8.45363
G1 X137.982 Y84.578 E8.47164
G1 X138.625 Y85.491 E8.49393
G1 X138.68 Y85.579 E8.496
G1 X138.91 Y85.966 E8.50498
G1 X139.027 Y86.173 E8.50973
G1 X139.436 Y86.978 E8.52775
G1 X139.772 Y87.816 E8.54576
G1 X140.033 Y88.681 E8.56379
G1 X140.156 Y89.225 E8.57492
G1 X140.235 Y89.627 E8.5831
G1 X140.369 Y90.52 E8.60112
G1 X140.424 Y91.416 E8.61903
G1 X140.441 Y92.454 E8.63975
G1 X140.44 Y107.832 E8.94664
G1 X140.43 Y108.559 E8.96115
G1 X140.378 Y109.461 E8.97918
G1 X140.246 Y110.354 E8.99719
G1 X140.035 Y111.233 E9.01523
G1 X139.748 Y112.089 E9.03325
G1 X139.386 Y112.916 E9.05126
G1 X138.952 Y113.708 E9.06929
G1 X138.45 Y114.459 E9.08731
G1 X137.884 Y115.162 E9.10532
G1 X137.257 Y115.813 E9.12336
G1 X136.576 Y116.405 E9.14137
G1 X135.845 Y116.935 E9.15939
G1 X135.069 Y117.398 E9.17742
G1 X134.256 Y117.791 E9.19544
G1 X133.411 Y118.111 E9.21347
G1 X132.542 Y118.354 E9.23148
G1 X131.654 Y118.519 E9.2495
G1 X130.518 Y118.615 E9.27225
G1 X130.198 Y118.624 E9.27864
G1 X129.911 Y118.628 E9.28437
G1 X126.822 Y118.627 E9.34601
G1 X126.106 Y118.616 E9.3603
G1 X125.205 Y118.562 E9.37832
G1 X124.678 Y118.493 E9.38892
G1 X123.974 Y118.382 E9.40315
G1 X121.457 Y118.023 E9.45388
G1 X118.875 Y117.729 E9.50574
G1 X116.356 Y117.514 E9.5562
G1 X113.854 Y117.372 E9.60621
G1 X111.288 Y117.298 E9.65743
G1 X108.755 Y117.298 E9.70798
G1 X106.22 Y117.369 E9.75859
G1 X103.688 Y117.511 E9.8092
G1 X101.14 Y117.727 E9.86023
G1 X98.637 Y118.012 E9.9105
G1 X96.029 Y118.382 E9.96307
G1 X95.663 Y118.442 E9.97047
G1 X95.159 Y118.516 E9.98064
G1 X94.005 Y118.615 E10.00375
G1 X93.686 Y118.624 E10.01012
G1 X93.398 Y118.628 E10.01587
G1 X90.334 Y118.627 E10.07701
G1 X89.636 Y118.618 E10.09094
G1 X88.735 Y118.567 E10.10895
G1 X87.841 Y118.435 E10.12699
G1 X86.963 Y118.226 E10.145
G1 X86.106 Y117.939 E10.16303
G1 X85.279 Y117.578 E10.18104
G1 X84.486 Y117.145 E10.19907
G1 X83.735 Y116.644 E10.21709
G1 X83.031 Y116.078 E10.23511
G1 X82.38 Y115.452 E10.25314
G1 X81.787 Y114.771 E10.27116
G1 X81.257 Y114.04 E10.28918
G1 X80.793 Y113.265 E10.3072
G1 X80.399 Y112.452 E10.32523
G1 X80.079 Y111.608 E10.34324
G1 X79.835 Y110.738 E10.36128
G1 X79.669 Y109.85 E10.3793
G1 X79.572 Y108.695 E10.40244
G1 X79.563 Y108.362 E10.40908
G1 X79.559 Y108.086 E10.41459
G1 X79.56 Y92.158 E10.73245
G1 X79.571 Y91.441 E10.74676
G1 X79.625 Y90.539 E10.76479
G1 X79.719 Y89.862 E10.77843
G1 X79.782 Y89.497 E10.78583
G1 X79.974 Y88.615 E10.80384
G1 X80.245 Y87.753 E10.82187
G1 X80.744 Y86.603 E10.84689
G1 X80.799 Y86.495 E10.84931
G1 X81.152 Y85.859 E10.86382
G1 X81.287 Y85.635 E10.86904
G1 X81.787 Y84.883 E10.88706
G1 X82.351 Y84.178 E10.90508
G1 X82.976 Y83.526 E10.9231
G1 F1500 E4.4231
;MESH:Foot_part_1.stl
G0 F6000 X90.436 Y89.96
G0 X90.68 Y91.015
G0 X90.941 Y107.246
G0 X92.546 Y107.246
G0 X92.546 Y102.87
G0 X94.134 Y102.87
G0 X95.108 Y95.981
G0 X98 Y97.055
G0 X98.085 Y102.87
G0 X122.668 Y103.624
G0 X122.693 Y97.346
G0 X122.838 Y97.019
G0 X123.226 Y96.634
G0 X123.565 Y96.499
G0 X123.973 Y96.465
G0 X124.489 Y96.6
G0 X124.797 Y96.83
G0 X125.074 Y97.302
G0 X125.123 Y97.626
G0 X125.112 Y103.624
G0 X126.7 Y103.623
G0 X127.272 Y107.428
;TYPE:WALL-INNER
G1 F1500 E10.9231
G1 F1200 X127.272 Y103.25 E11.00648
G1 X127.272 Y103.051 E11.01045
G1 X127.073 Y103.051 E11.01302
G1 X125.883 Y103.052 E11.03677
G1 X125.684 Y103.052 E11.04074
G1 X125.684 Y102.853 E11.04331
G1 X125.684 Y97.583 E11.14848
G1 X125.613 Y97.111 E11.158
G1 X125.224 Y96.446 E11.17338
G1 X124.736 Y96.086 E11.18548
G1 X124.023 Y95.898 E11.2002
G1 X123.434 Y95.946 E11.21199
G1 X122.911 Y96.156 E11.22324
G1 X122.368 Y96.694 E11.23849
G1 X122.338 Y96.764 E11.24001
G1 X122.148 Y97.194 E11.24939
G1 X122.096 Y97.594 E11.25744
G1 X122.096 Y103.052 E11.36636
G1 X97.903 Y103.052 E11.84916
G1 X97.903 Y97.586 E11.95824
G1 X97.835 Y97.113 E11.96777
G1 X97.441 Y96.445 E11.98325
G1 X96.955 Y96.086 E11.99531
G1 X96.241 Y95.898 E12.01004
G1 X95.654 Y95.946 E12.0218
G1 X95.194 Y96.131 E12.03169
G1 X94.77 Y96.453 E12.04232
G1 X94.387 Y97.112 E12.05753
G1 X94.316 Y97.583 E12.06703
G1 X94.316 Y103.052 E12.17617
G1 X92.728 Y103.052 E12.20786
G1 X92.728 Y107.428 E12.29519
G1 X90.759 Y107.428 E12.33448
G1 X90.759 Y91.841 E12.64554
G1 X90.759 Y91.689 E12.64857
G1 X90.778 Y91.596 E12.65047
G1 X90.93 Y91.596 E12.6535
G1 X129.223 Y91.597 E13.41768
G1 X129.241 Y91.698 E13.41973
G1 X129.241 Y107.428 E13.73363
G1 X127.272 Y107.428 E13.77293
G0 F6000 X126.872 Y107.828
G1 F1200 X126.872 Y103.65 E13.8563
G1 X126.872 Y103.451 E13.86028
G1 X126.673 Y103.451 E13.86285
G1 X125.483 Y103.452 E13.88659
G1 X125.284 Y103.452 E13.89056
G1 X125.284 Y103.253 E13.89313
G1 X125.284 Y97.613 E14.00569
G1 X125.229 Y97.247 E14.01307
G1 X124.92 Y96.719 E14.02528
G1 X124.56 Y96.453 E14.03421
G1 X123.987 Y96.302 E14.04604
G1 X123.527 Y96.34 E14.05525
G1 X123.135 Y96.497 E14.06368
G1 X122.703 Y96.925 E14.07581
G1 X122.537 Y97.302 E14.08403
G1 X122.496 Y97.62 E14.09043
G1 X122.496 Y103.452 E14.20681
G1 X97.503 Y103.452 E14.70558
G1 X97.503 Y97.615 E14.82206
G1 X97.45 Y97.248 E14.82946
G1 X97.138 Y96.718 E14.84173
G1 X96.779 Y96.453 E14.85064
G1 X96.206 Y96.302 E14.86246
G1 X95.747 Y96.34 E14.87166
G1 X95.393 Y96.482 E14.87927
G1 X95.076 Y96.723 E14.88721
G1 X94.771 Y97.247 E14.89931
G1 X94.716 Y97.613 E14.9067
G1 X94.716 Y103.452 E15.02322
G1 X93.128 Y103.452 E15.05491
G1 X93.128 Y107.828 E15.14224
G1 X90.359 Y107.828 E15.1975
G1 X90.359 Y91.656 E15.52023
G1 X90.398 Y91.431 E15.52479
G1 X90.561 Y91.228 E15.52998
G1 X90.702 Y91.196 E15.53287
G1 X129.301 Y91.197 E16.30315
G1 X129.436 Y91.227 E16.30591
G1 X129.531 Y91.344 E16.30892
G1 X129.599 Y91.426 E16.31104
G1 X129.641 Y91.66 E16.31579
G1 X129.641 Y107.828 E16.63844
G1 X126.872 Y107.828 E16.6937
G0 F6000 X126.472 Y108.228
;TYPE:WALL-OUTER
G1 F1200 X126.472 Y103.851 E16.78104
G1 X124.884 Y103.852 E16.81274
G1 X124.884 Y97.643 E16.93664
G1 X124.845 Y97.383 E16.94189
G1 X124.616 Y96.992 E16.95093
G1 X124.384 Y96.82 E16.95669
G1 X123.952 Y96.706 E16.96561
G1 X123.62 Y96.734 E16.97226
G1 X123.359 Y96.838 E16.97787
G1 X123.038 Y97.156 E16.98688
G1 X122.926 Y97.41 E16.99242
G1 X122.896 Y97.645 E16.99715
G1 X122.896 Y103.852 E17.12102
G1 X97.103 Y103.852 E17.63575
G1 X97.103 Y97.644 E17.75963
G1 X97.065 Y97.383 E17.7649
G1 X96.835 Y96.991 E17.77397
G1 X96.603 Y96.82 E17.77972
G1 X96.171 Y96.706 E17.78863
G1 X95.84 Y96.734 E17.79526
G1 X95.592 Y96.833 E17.80059
G1 X95.382 Y96.993 E17.80586
G1 X95.155 Y97.382 E17.81485
G1 X95.116 Y97.643 E17.82012
G1 X95.116 Y103.852 E17.94402
G1 X93.528 Y103.852 E17.97571
G1 X93.528 Y108.228 E18.06304
G1 X89.959 Y108.228 E18.13426
G1 X89.959 Y91.623 E18.46563
G1 X90.016 Y91.291 E18.47236
G1 X90.171 Y91.025 E18.4785
G1 X90.386 Y90.858 E18.48393
G1 X90.655 Y90.796 E18.48944
G1 X129.345 Y90.797 E19.26154
G1 X129.61 Y90.857 E19.26697
G1 X129.83 Y91.026 E19.2725
G1 X129.981 Y91.286 E19.2785
G1 X130.041 Y91.624 E19.28535
G1 X130.041 Y108.228 E19.6167
G1 X126.472 Y108.228 E19.68793
G0 F6000 X126.742 Y107.958
G0 X127.382 Y107.038
G0 X127.662 Y107.038
;TYPE:SKIN
G1 F1200 X127.662 Y102.661 E19.77527
G1 X126.074 Y102.662 E19.80696
G1 X126.074 Y97.554 E19.9089
G1 X125.987 Y96.979 E19.92051
G1 X125.52 Y96.179 E19.93899
G1 X124.907 Y95.728 E19.95418
G1 X124.058 Y95.504 E19.9717
G1 X123.344 Y95.562 E19.986
G1 X122.693 Y95.823 E19.99999
G1 X122.041 Y96.469 E20.01831
G1 X121.768 Y97.088 E20.03181
G1 X121.706 Y97.569 E20.04149
G1 X121.706 Y102.662 E20.14313
G1 X98.293 Y102.662 E20.61036
